LUT/LogC3/709/looks/Alexa_LogC3_709_D50_FujiEterna_A.cube
LUT_3D_SIZE 5
0 0 0
0.12192 0.0327306 0.0240635
0.487846 0 0
0.649332 0 0
0.66482 0 0
0 0.117754 0.0436866
0.119371 0.135576 0.0234379
0.569497 0 0
0.64921 0 0
0.66482 0 0
0 0.347036 0
0 0.346624 0
0.711177 0.54873 0
0.915801 0.487419 0
0.66482 0 0
0 0.416297 0
0 0.416266 0
0 0.416098 0
1 0.746578 0
1 0.748287 0
0 0.441398 0
0 0.441398 0
0 0.441398 0
0 0.441398 0
1 0.772961 0
0 0.0278172 0.106691
0.131716 0.0361944 0.119753
0.534905 0 0.069337
0.649317 0 0
0.66482 0 0
0 0.125353 0.143435
0.0957961 0.136233 0.13228
0.58883 0 0.0149691
0.64918 0 0
0.66482 0 0
0 0.345602 0
0 0.345174 0
0.708965 0.545388 0
0.9122 0.478187 0
0.66482 0 0
0 0.41622 0
0 0.41622 0
0 0.416022 0
1 0.746487 0
1 0.748196 0
0 0.441398 0
0 0.441398 0
0 0.441398 0
0 0.441398 0
1 0.772961 0
0 0 0.324742
0 0 0.338796
0.54287 0 0.371786
0.690974 0 0.379263
0.701366 0 0.348363
0 0 0.323583
0 0 0.324483
0.536355 0 0.369757
0.690898 0 0.37734
0.701396 0 0.343633
0 0.491386 0.594659
0 0.490852 0.594293
0.726604 0.68365 0.61146
0.92108 0.518959 0.555367
0.701411 0 0.299763
0 0.415579 0
0 0.415549 0
0 0.415381 0
1 0.74583 0
1 0.747524 0
0 0.441398 0
0 0.441398 0
0 0.441398 0
0 0.441398 0
1 0.772961 0
0 0 0.39408
0 0 0.39408
0.472343 0 0.469169
0.694896 0 0.487037
0.706096 0 0.491554
0 0 0.394049
0 0 0.394049
0.462745 0 0.468696
0.694804 0 0.486976
0.706096 0 0.491508
0 0 0.393805
0 0 0.393805
0.287282 0 0.455314
0.694026 0 0.486366
0.706081 0 0.491112
0 0.576867 0.714443
0 0.576867 0.714427
0 0.576837 0.714366
0.986267 0.906569 0.80444
0.999893 0.90663 0.8056
0 0.593988 0.718715
0 0.593988 0.7187
0 0.593973 0.718654
0 0.593927 0.718227
1 0.916716 0.800519
0 0 0.40383
0 0 0.40383
0 0 0.40383
0.695033 0 0.50071
0.70927 0 0.505684
0 0 0.40383
0 0 0.40383
0 0 0.40383
0.694926 0 0.500664
0.70927 0 0.505684
0 0 0.40383
0 0 0.40383
0 0 0.40383
0.694087 0 0.500359
0.70927 0 0.505684
0 0.568719 0.716213
0 0.568689 0.716197
0 0.568429 0.716091
0.975311 0.877119 0.812238
0.986191 0.837736 0.806821
0 0.594858 0.729702
0 0.594858 0.729702
0 0.594858 0.729702
0 0.594858 0.729702
1 0.918456 0.822721
