LUT/LogC3/709/looks/Alexa_LogC3_709_D65_Kodak_A.cube
LUT_3D_SIZE 33
0.0158846 0 0.0103914
0.0228275 0 0.00755322
0.0348516 0 0.00015259
0.0446479 0 0
0.0561837 0 0
0.0677348 0 0
0.0847334 0 0
0.103075 0 0
0.125872 0 0
0.154391 0 0
0.190402 0 0
0.230777 0 0
0.281758 0 0
0.338842 0 0
0.394659 0 0
0.443717 0 0
0.49073 0 0
0.532616 0 0
0.572152 0 0
0.605509 0 0
0.606546 0 0
0.61355 0 0
0.621424 0 0
0.629999 0 0
0.638529 0 0
0.646952 0 0
0.654932 0 0
0.662577 0 0
0.670405 0 0
0.677958 0 0
0.685237 0.00669871 0
0.692226 0.0136873 0
0.69894 0.0204013 0
0.0131075 0 0.00965896
0.0196994 0 0.00720226
0.0330816 0 0.00173953
0.0442664 0 0
0.057084 0 0
0.0700847 0 0
0.086717 0 0
0.106905 0 0
0.131075 0 0
0.160861 0 0
0.196811 0 0
0.239292 0 0
0.291341 0 0
0.349523 0 0
0.406455 0 0
0.456657 0 0
0.50454 0 0
0.547097 0 0
0.587198 0 0
0.620981 0 0
0.622278 0 0
0.629419 0 0
0.637278 0 0
0.645762 0 0
0.654215 0 0
0.662486 0 0
0.670558 0 0
0.677684 0 0
0.685252 0.00671397 0
0.692531 0.0139925 0
0.69955 0.0210269 0
0.70634 0.0278019 0
0.712886 0.0343481 0
0.00717174 0.000762951 0.00457771
0.0119173 0.000823987 0.00424201
0.0243992 0 0.000427253
0.0390173 0 0
0.0525216 0 0
0.0668498 0 0
0.0869459 0 0
0.106249 0 0
0.131899 0 0
0.164294 0 0
0.202777 0 0
0.247883 0 0
0.301946 0 0
0.360067 0 0
0.417044 0 0
0.469368 0 0
0.517937 0 0
0.561502 0 0
0.60209 0 0
0.636255 0 0
0.638285 0 0
0.645243 0 0
0.653193 0 0
0.661418 0 0
0.669734 0 0
0.677852 0 0
0.685725 0.00694286 0
0.693339 0.0145418 0
0.700282 0.0217594 0
0.707057 0.0285191 0
0.713909 0.0353704 0
0.720546 0.0420233 0
0.727001 0.0484627 0
0.0015259 0.0120394 0.000228885
0.00340276 0.013901 0.00210575
0.0146334 0.0139315 0.000274662
0.0305791 0.0128328 0
0.0480507 0.011841 0
0.064271 0.0132143 0
0.084596 0.0138247 0
0.108156 0.0122225 0
0.135531 0.00949111 0
0.16849 0.00373846 0
0.209979 0 0
0.256306 0 0
0.309621 0 0
0.370001 0 0
0.428016 0 0
0.48098 0 0
0.530037 0 0
0.575372 0 0
0.61651 0 0
0.651118 0 0
0.653452 0 0
0.660822 0 0
0.668666 0 0
0.676829 0 0
0.684962 0.00616464 0
0.692897 0.0141146 0
0.700603 0.0218204 0
0.70808 0.0292973 0
0.715343 0.0365454 0
0.722377 0.0435798 0
0.729 0.0503243 0
0.735027 0.0564736 0
0.74107 0.0625467 0
0 0.0264897 0.000289921
0.000366217 0.0288701 0.00265507
0.00686656 0.0306096 0.00422675
0.0274205 0.0292515 0
0.0453498 0.0301366 0
0.0643626 0.0317388 0
0.0859083 0.0333257 0
0.111101 0.0332952 0
0.141878 0.0304265 0
0.17673 0.0260624 0
0.222843 0.0152438 0
0.270191 0.0043183 0
0.319417 0 0
0.378882 0 0
0.437858 0 0
0.491157 0 0
0.541253 0 0
0.588251 0 0
0.630076 0 0
0.665202 0 0
0.667933 0 0
0.675593 0 0
0.683848 0.00646983 0
0.691829 0.0132448 0
0.699916 0.0211185 0
0.70782 0.0290227 0
0.715511 0.0367132 0
0.722881 0.0440986 0
0.729961 0.0511635 0
0.736721 0.0579232 0
0.743175 0.0643931 0
0.749355 0.0705577 0
0.75523 0.0764324 0
0.00228885 0.0424964 0.00418097
0.00512703 0.0453346 0.00701915
0.0099031 0.046952 0.00737011
0.0257877 0.0478981 0.00660716
0.0469673 0.0489204 0.00764477
0.0682383 0.0518807 0.00772107
0.0913863 0.0547646 0.00714122
0.117586 0.0564431 0.00572213
0.148943 0.0552529 0.00610361
0.186511 0.0513008 0.00292973
0.232914 0.0424353 0
0.287449 0.0288396 0
0.340169 0.0151522 0
0.395697 1.5259e-05 0
0.448508 0 0
0.501137 0 0
0.552224 0 0
0.600244 0 0
0.642603 0 0
0.678965 0 0
0.68188 0.00340276 0
0.691096 0.0129244 0
0.698756 0.0211948 0
0.706706 0.0286259 0
0.714626 0.0358282 0
0.722332 0.0435492 0
0.729793 0.0509957 0
0.736919 0.0581369 0
0.74374 0.0649577 0
0.750256 0.071458 0
0.756451 0.0776684 0
0.762356 0.0835584 0
0.767956 0.0891585 0.00271611
0.0122377 0.0606088 0.00756847
0.0153353 0.0637064 0.0106661
0.0180819 0.0661936 0.0134737
0.0240177 0.0668956 0.0140078
0.0454871 0.069398 0.0147707
0.0666361 0.0744793 0.0136263
0.0930648 0.0781262 0.0167086
0.124453 0.0801862 0.0166629
0.157183 0.0815442 0.0170596
0.198535 0.0782788 0.0178836
0.247349 0.071809 0.0129702
0.304417 0.0601053 0.00732433
0.363851 0.0459144 0
0.42153 0.0287938 0
0.475685 0.0138705 0
0.518883 0.00192264 0
0.562417 0 0
0.611414 0 0
0.654246 0 0
0.692226 0 0
0.695262 0.0168307 0
0.704631 0.0267643 0
0.71284 0.0350347 0
0.720592 0.0428473 0
0.728237 0.0498207 0
0.735775 0.0569772 0
0.743023 0.0642252 0
0.749981 0.0711833 0
0.756588 0.0778058 0
0.76289 0.0840925 0
0.768856 0.0900587 0.00361639
0.774517 0.0957198 0.00927749
0.779873 0.101076 0.0146334
0.0188754 0.0824598 0.00909438
0.0226444 0.0862287 0.0128634
0.0260929 0.0893416 0.0164492
0.0300755 0.0915084 0.0196994
0.0413672 0.0913863 0.019379
0.065919 0.096437 0.0206149
0.095552 0.102235 0.0259251
0.129183 0.107485 0.0282597
0.166293 0.110475 0.0301823
0.209827 0.110307 0.029984
0.262165 0.105852 0.0267185
0.324041 0.0961624 0.021561
0.388434 0.0836042 0.0189212
0.455299 0.0686351 0.0140993
0.514427 0.0552834 0.00859083
0.563104 0.0455024 0
0.603922 0.0349737 0
0.640055 0.0235294 0
0.671458 0.0130465 0
0.703548 0.0093843 0
0.706874 0.0281224 0
0.71632 0.0392615 0
0.725567 0.0476692 0
0.733379 0.0556954 0
0.740856 0.0631266 0
0.748043 0.0698405 0
0.755138 0.0765393 0
0.761944 0.0831769 0
0.768414 0.0896315 0.00318914
0.774533 0.0957504 0.009308
0.787381 0.108598 0.0221561
0.806043 0.127245 0.0408026
0.822583 0.143801 0.0573434
0.0307012 0.105547 0.0142824
0.0352483 0.110109 0.0188296
0.0394141 0.114275 0.0229953
0.0430304 0.117891 0.0266117
0.0479133 0.120516 0.0284581
0.0592203 0.121401 0.0250401
0.0897841 0.129931 0.0321355
0.131212 0.138384 0.0382239
0.172519 0.144381 0.0433814
0.22034 0.146792 0.0438392
0.276005 0.144854 0.0425879
0.341405 0.137789 0.0391241
0.411826 0.126925 0.0384527
0.486427 0.112367 0.0390631
0.552193 0.101411 0.0350347
0.606699 0.0936141 0.0328985
0.653681 0.0878004 0.0270542
0.697108 0.0825666 0.0136721
0.735531 0.0776074 0.000183108
0.768383 0.0743572 0
0.766522 0.0879377 0
0.772213 0.0951705 0
0.779797 0.102739 0
0.789181 0.110964 0.000823987
0.798917 0.121492 0.016907
0.811109 0.133547 0.0327001
0.824567 0.147112 0.0471809
0.838529 0.160723 0.0663005
0.851972 0.174166 0.0797436
0.865553 0.187747 0.0933242
0.87422 0.196414 0.102007
0.882933 0.204822 0.11281
0.891493 0.213291 0.122789
0.0404212 0.136538 0.0119478
0.0458076 0.141924 0.0173342
0.0509194 0.147021 0.0224308
0.0554513 0.151568 0.026978
0.0603037 0.155215 0.0318761
0.0644236 0.158816 0.0354009
0.0771496 0.159152 0.0348058
0.119966 0.174975 0.0484321
0.172244 0.184436 0.0560311
0.225284 0.190051 0.0590372
0.285389 0.190921 0.0568704
0.353979 0.185855 0.0556954
0.426322 0.17792 0.0530556
0.502831 0.165866 0.0539101
0.582589 0.149584 0.0602274
0.647593 0.140841 0.0575875
0.698726 0.137026 0.0565652
0.744701 0.13434 0.053727
0.78587 0.132372 0.0513771
0.825376 0.131197 0.0439155
0.827482 0.14873 0.035935
0.836667 0.159609 0.0441596
0.847044 0.169986 0.0545357
0.857908 0.180865 0.0654002
0.869368 0.192325 0.0768597
0.881621 0.203738 0.091371
0.894133 0.215946 0.105699
0.906493 0.227955 0.119432
0.914855 0.236164 0.128771
0.92134 0.242649 0.135271
0.926879 0.249454 0.144839
0.933684 0.25626 0.151659
0.940551 0.263127 0.158511
0.0487526 0.173175 0.0137789
0.0551614 0.179568 0.0201724
0.0612345 0.185657 0.0262455
0.066804 0.191226 0.0318151
0.0719615 0.196384 0.0369726
0.0767529 0.201175 0.0417639
0.0809949 0.205417 0.0460059
0.0937514 0.211139 0.0516213
0.148425 0.234394 0.0698863
0.213565 0.241474 0.0754406
0.285451 0.241611 0.0722667
0.357 0.239643 0.0673533
0.42948 0.235477 0.0620127
0.503334 0.228397 0.0600595
0.580407 0.21825 0.0576333
0.657221 0.205158 0.0628367
0.719509 0.198062 0.066804
0.762737 0.201038 0.0603952
0.803525 0.203052 0.0574197
0.840177 0.204334 0.0625467
0.865232 0.209506 0.0742351
0.884901 0.215824 0.0923629
0.901213 0.224155 0.108705
0.912932 0.235889 0.120424
0.924865 0.247807 0.132357
0.936996 0.259953 0.144503
0.949111 0.272068 0.156603
0.954833 0.27779 0.162325
0.960067 0.283024 0.167559
0.965606 0.288563 0.173114
0.971313 0.29427 0.178805
0.977172 0.300114 0.184665
0.983124 0.306081 0.190616
0.0475929 0.221378 0.0117342
0.0551614 0.228946 0.0193027
0.0623636 0.236149 0.0265049
0.0689097 0.242679 0.0330358
0.0748302 0.2486 0.0389563
0.0801556 0.253941 0.0442817
0.0848402 0.25861 0.0489662
0.0888228 0.262592 0.0529488
0.108522 0.279194 0.0693217
0.172396 0.303746 0.0899367
0.260563 0.303395 0.0852064
0.34342 0.300938 0.0774548
0.425116 0.295796 0.0713207
0.499855 0.292027 0.0654765
0.57113 0.287602 0.0627451
0.646128 0.279606 0.0598917
0.714061 0.273136 0.0591745
0.766552 0.272572 0.0600443
0.798047 0.281468 0.0589456
0.826093 0.289921 0.0619059
0.85417 0.296056 0.0717937
0.878096 0.301595 0.0921798
0.895689 0.310689 0.108721
0.912306 0.320027 0.124926
0.927657 0.330053 0.139742
0.942428 0.340322 0.154299
0.94844 0.345068 0.160388
0.954604 0.348074 0.16669
0.960891 0.351598 0.172824
0.965759 0.356466 0.177676
0.97081 0.361517 0.182727
0.976028 0.366735 0.187961
0.981399 0.372107 0.193317
0.0440681 0.276249 0.00909438
0.0525368 0.284718 0.0175631
0.0603952 0.292576 0.0254063
0.0674907 0.299672 0.0325017
0.0738994 0.306081 0.0389258
0.0796674 0.311849 0.0446937
0.0847334 0.316915 0.0497444
0.0890669 0.321248 0.054078
0.0939345 0.324208 0.0578317
0.130755 0.357137 0.0899062
0.195972 0.37911 0.108263
0.316472 0.366354 0.0888991
0.402701 0.363638 0.0800641
0.487297 0.358007 0.0742809
0.56109 0.355642 0.0679789
0.633143 0.351614 0.0645151
0.701122 0.347738 0.0613718
0.757504 0.347433 0.0612802
0.793774 0.354269 0.0682536
0.824201 0.36286 0.0735027
0.849729 0.372091 0.0818494
0.8692 0.381933 0.0975662
0.885054 0.392782 0.113375
0.89987 0.403754 0.128023
0.913664 0.415335 0.140368
0.922316 0.422385 0.148913
0.926299 0.425452 0.152865
0.931716 0.428275 0.158099
0.936675 0.431846 0.162936
0.941024 0.436179 0.167285
0.945571 0.440742 0.171832
0.950317 0.445472 0.176577
0.955337 0.450492 0.181598
0.0449226 0.330785 0.00712596
0.0541238 0.339986 0.0163272
0.0625925 0.348455 0.0247959
0.0702525 0.356115 0.0324712
0.0771801 0.363027 0.0393835
0.0833448 0.369207 0.0455634
0.0887617 0.374609 0.0509651
0.0934005 0.379263 0.0556039
0.0972915 0.383154 0.0595102
0.100481 0.386343 0.0626993
0.158587 0.436561 0.110018
0.254124 0.443702 0.111254
0.375296 0.430503 0.0935225
0.464485 0.426917 0.0840162
0.546136 0.423102 0.078706
0.621256 0.419821 0.0747997
0.687999 0.418799 0.0699931
0.745724 0.419501 0.0691081
0.785428 0.425757 0.0764324
0.820691 0.432471 0.0842298
0.849454 0.441306 0.0910506
0.868635 0.452262 0.105928
0.883009 0.464897 0.119936
0.897551 0.476844 0.133867
0.911711 0.488243 0.147509
0.915404 0.491066 0.151095
0.918502 0.494163 0.154177
0.922652 0.497124 0.158206
0.92781 0.499825 0.163149
0.931731 0.503731 0.167071
0.935851 0.507866 0.171206
0.9411 0.5131 0.17644
0.947768 0.519783 0.183108
0.0431983 0.387427 0.00674449
0.0528267 0.397055 0.0163882
0.061799 0.406012 0.0253452
0.0700542 0.414282 0.0336004
0.0774853 0.421714 0.0410468
0.0840772 0.42829 0.0476234
0.0897993 0.434028 0.0533608
0.0947433 0.438956 0.0582895
0.098909 0.443122 0.0624552
0.101991 0.446815 0.0656443
0.127642 0.472465 0.09131
0.192721 0.514855 0.132128
0.321141 0.50605 0.114519
0.435218 0.495125 0.100053
0.524224 0.490944 0.0915084
0.604135 0.487388 0.0863203
0.676844 0.484749 0.0813916
0.736965 0.48539 0.0802472
0.775372 0.49369 0.0860761
0.811566 0.500969 0.0938277
0.844862 0.508385 0.100862
0.865217 0.520058 0.113893
0.880735 0.532876 0.128847
0.895186 0.54548 0.143114
0.90634 0.554803 0.154101
0.909133 0.556848 0.156786
0.912963 0.558862 0.160418
0.916014 0.561913 0.16347
0.91931 0.565225 0.166781
0.922866 0.56878 0.170321
0.927749 0.573663 0.175219
0.933776 0.57969 0.181231
0.939879 0.585794 0.187335
0.0436866 0.44361 0.00723278
0.0535286 0.453452 0.0170596
0.0627298 0.462654 0.026276
0.0712444 0.471168 0.0347906
0.0790265 0.47895 0.0425727
0.086183 0.485756 0.049897
0.092607 0.491615 0.0565957
0.0978866 0.49688 0.0618601
0.102358 0.501366 0.066331
0.106081 0.505089 0.0700542
0.109071 0.50808 0.0730449
0.166171 0.562921 0.128511
0.236545 0.588876 0.151202
0.390524 0.566049 0.120623
0.497475 0.556481 0.108614
0.582498 0.552712 0.101579
0.660594 0.549172 0.0948348
0.72842 0.547295 0.092958
0.77023 0.555215 0.097673
0.806104 0.563806 0.10544
0.838132 0.573083 0.112276
0.861448 0.584436 0.124743
0.877958 0.597467 0.140597
0.89305 0.610117 0.1552
0.901137 0.618219 0.163302
0.903838 0.619944 0.165805
0.907317 0.621683 0.168963
0.910445 0.624155 0.171954
0.91342 0.627146 0.174945
0.917571 0.631281 0.179095
0.922988 0.636698 0.184497
0.928527 0.642237 0.190036
0.934173 0.647883 0.195682
0.0457008 0.49752 0.0148013
0.0558328 0.507652 0.0249332
0.0651713 0.516991 0.0342565
0.0737926 0.525612 0.0428779
0.0816663 0.533486 0.0507515
0.088777 0.540597 0.0578622
0.0950942 0.546914 0.0641794
0.100557 0.552377 0.0696422
0.105211 0.557031 0.0742962
0.109087 0.560906 0.078172
0.11223 0.564034 0.0813153
0.139727 0.591546 0.108812
0.206851 0.642939 0.160678
0.313939 0.64593 0.157397
0.460929 0.622751 0.129259
0.557656 0.615854 0.119646
0.641413 0.611475 0.11107
0.712489 0.609522 0.108461
0.762646 0.614893 0.111482
0.801022 0.62359 0.118807
0.834455 0.633341 0.125353
0.859541 0.644755 0.137865
0.877058 0.657786 0.154299
0.89279 0.670985 0.169406
0.899535 0.677729 0.17615
0.901427 0.679622 0.178042
0.904204 0.681407 0.180545
0.908186 0.682887 0.183886
0.911345 0.686061 0.187045
0.916182 0.690883 0.191882
0.921172 0.695872 0.196872
0.926314 0.701015 0.201999
0.931579 0.706279 0.207279
0.0467231 0.551415 0.0248264
0.0567483 0.56144 0.0348516
0.0661631 0.57084 0.0442664
0.074815 0.579507 0.0529335
0.0826123 0.587304 0.0607309
0.0896468 0.594339 0.0677501
0.0959029 0.60058 0.0740063
0.101366 0.606058 0.0794842
0.106081 0.610773 0.0841993
0.110063 0.614755 0.0881819
0.113359 0.618036 0.0914626
0.116472 0.620386 0.0943465
0.185367 0.688365 0.162966
0.245884 0.719554 0.187366
0.400031 0.697093 0.158572
0.51957 0.68275 0.140566
0.615442 0.674189 0.131548
0.693629 0.671214 0.123857
0.754971 0.672679 0.124727
0.79585 0.681132 0.133059
0.832395 0.689708 0.142214
0.860975 0.700374 0.153628
0.878721 0.714473 0.169406
0.89398 0.728817 0.184466
0.900252 0.734462 0.190555
0.902907 0.735607 0.192752
0.904875 0.737591 0.194736
0.907103 0.739818 0.196963
0.911208 0.743923 0.201068
0.915679 0.748394 0.205539
0.920333 0.753048 0.210193
0.925109 0.757824 0.214969
0.929976 0.762692 0.219837
0.0526741 0.602167 0.035111
0.0623331 0.611826 0.04477
0.0713817 0.620859 0.0538186
0.0797894 0.629267 0.0622263
0.0874952 0.636988 0.0699321
0.0944991 0.643992 0.076936
0.100694 0.650172 0.0831311
0.106157 0.65565 0.0885939
0.110933 0.66041 0.09337
0.115007 0.6645 0.0974441
0.118456 0.667933 0.100893
0.121279 0.670771 0.103716
0.174334 0.723812 0.156771
0.225925 0.76968 0.201434
0.295293 0.787182 0.212924
0.474479 0.749569 0.172137
0.580499 0.738842 0.157565
0.66952 0.73228 0.147814
0.741756 0.730083 0.144869
0.79144 0.735363 0.151308
0.83209 0.742809 0.161227
0.861982 0.751797 0.183352
0.880278 0.766217 0.20087
0.896437 0.780941 0.216144
0.901823 0.786328 0.22153
0.903426 0.78793 0.223133
0.90576 0.789532 0.224933
0.909026 0.792218 0.227878
0.912978 0.796185 0.23183
0.917037 0.800229 0.235889
0.921141 0.804334 0.239994
0.925261 0.808454 0.244114
0.929335 0.812528 0.248188
0.0623178 0.64593 0.063447
0.071519 0.655146 0.0726482
0.0801862 0.663798 0.0813153
0.0882734 0.671885 0.0893873
0.0957198 0.679332 0.096849
0.102541 0.686152 0.10367
0.108721 0.692332 0.109834
0.114229 0.697841 0.115343
0.119081 0.702693 0.120211
0.123293 0.70692 0.124422
0.126894 0.710506 0.128008
0.129915 0.713527 0.131029
0.164248 0.74786 0.165377
0.224338 0.807324 0.224659
0.28014 0.834775 0.245106
0.387457 0.829892 0.237247
0.554452 0.794491 0.198657
0.650126 0.786282 0.186786
0.72987 0.782147 0.180819
0.793835 0.782818 0.179675
0.832975 0.791043 0.194842
0.863996 0.79704 0.234379
0.88336 0.8103 0.259648
0.899519 0.825971 0.274464
0.90576 0.830869 0.277836
0.907256 0.83238 0.279347
0.908858 0.833982 0.280934
0.912108 0.837232 0.284184
0.915389 0.840513 0.28748
0.918639 0.843763 0.290715
0.921798 0.846906 0.293873
0.924834 0.849943 0.29691
0.927687 0.852811 0.299779
0.0544747 0.683253 0.162737
0.0632181 0.692012 0.171496
0.0714733 0.700252 0.179736
0.0792096 0.707988 0.187472
0.0863966 0.715175 0.194659
0.093019 0.721813 0.201297
0.0990616 0.72784 0.207324
0.104509 0.733288 0.212772
0.109361 0.73814 0.217624
0.113634 0.742412 0.221897
0.118639 0.745998 0.223072
0.121965 0.74934 0.226398
0.127581 0.75494 0.232013
0.210117 0.837476 0.314549
0.252018 0.874601 0.34728
0.341039 0.890028 0.29572
0.508324 0.857221 0.251881
0.632227 0.838209 0.228641
0.718196 0.831952 0.223011
0.786175 0.829419 0.233158
0.835737 0.830137 0.264561
0.868315 0.835569 0.307088
0.894499 0.845487 0.334874
0.910842 0.861143 0.350881
0.915663 0.86598 0.355703
0.916716 0.867018 0.356756
0.919249 0.868528 0.356023
0.921614 0.870893 0.358389
0.923827 0.873091 0.360586
0.925841 0.87512 0.3626
0.927626 0.876905 0.364385
0.929198 0.878477 0.365957
0.930694 0.879973 0.367453
0.0547341 0.716136 0.255619
0.0630808 0.724483 0.263966
0.0709392 0.732341 0.271824
0.0783246 0.739727 0.27921
0.0852064 0.746609 0.286091
0.0915999 0.753002 0.292485
0.0974746 0.758877 0.29836
0.102831 0.764233 0.303716
0.107668 0.76907 0.308553
0.112093 0.773495 0.312978
0.116136 0.777539 0.317021
0.119814 0.781216 0.320699
0.123125 0.784527 0.32401
0.203204 0.864607 0.404089
0.243946 0.905333 0.444816
0.307851 0.928862 0.428519
0.434775 0.926253 0.342641
0.614221 0.886107 0.288426
0.710674 0.875181 0.284001
0.779767 0.869505 0.310185
0.83856 0.867094 0.334737
0.876677 0.872114 0.364065
0.904555 0.880751 0.391455
0.92253 0.894804 0.407065
0.927733 0.899672 0.411551
0.927932 0.899855 0.411734
0.928786 0.900725 0.412604
0.929808 0.901747 0.413626
0.930602 0.902541 0.41442
0.931334 0.903258 0.415137
0.932006 0.903929 0.415808
0.932631 0.90457 0.416449
0.933242 0.90518 0.41706
0.0706645 0.745449 0.317952
0.0786145 0.753384 0.325887
0.0861219 0.760906 0.33341
0.0931868 0.767971 0.340475
0.099794 0.774578 0.347082
0.105943 0.780728 0.353231
0.11162 0.786404 0.358907
0.116915 0.791684 0.364187
0.121889 0.796674 0.369177
0.126543 0.801328 0.373831
0.130861 0.805646 0.378149
0.134844 0.809628 0.382132
0.138476 0.81326 0.385763
0.214984 0.889769 0.462272
0.257908 0.932692 0.505196
0.299977 0.96257 0.521416
0.40148 0.972107 0.44332
0.595636 0.928069 0.371618
0.702159 0.912688 0.36228
0.782681 0.903624 0.372885
0.841901 0.901762 0.388251
0.885237 0.904494 0.40911
0.914794 0.911696 0.431052
0.934936 0.92224 0.448539
0.941741 0.928084 0.452903
0.940826 0.927169 0.451987
0.940734 0.927062 0.451881
0.940764 0.927092 0.451911
0.940719 0.927047 0.451865
0.940597 0.926925 0.451759
0.940444 0.926787 0.451606
0.940261 0.926604 0.451423
0.940063 0.92639 0.451209
0.0979934 0.773754 0.347967
0.105577 0.781338 0.355535
0.112749 0.78851 0.362707
0.119509 0.79527 0.369467
0.125856 0.801617 0.375814
0.131807 0.807568 0.381765
0.137499 0.81326 0.387457
0.142916 0.818677 0.392874
0.148043 0.823819 0.398016
0.15288 0.828656 0.402853
0.157412 0.833188 0.407385
0.161608 0.837369 0.411566
0.161791 0.837568 0.411765
0.232578 0.908339 0.482536
0.273625 0.949386 0.523583
0.303334 0.978912 0.552377
0.392752 0.988968 0.482673
0.580652 0.947601 0.39472
0.698009 0.925643 0.374731
0.779568 0.914107 0.381613
0.838743 0.910109 0.397406
0.882155 0.911635 0.416327
0.913527 0.917418 0.436652
0.934936 0.926635 0.457511
0.946288 0.936614 0.467674
0.946288 0.936614 0.467674
0.946288 0.936614 0.467674
0.946288 0.936614 0.467674
0.946288 0.936614 0.467674
0.946288 0.936614 0.467674
0.946288 0.936614 0.467674
0.946288 0.936614 0.467674
0.946288 0.936614 0.467674
0.125383 0.80116 0.375357
0.132616 0.808377 0.382574
0.139467 0.815229 0.389425
0.145937 0.821714 0.395911
0.152178 0.827939 0.402136
0.15819 0.833951 0.408148
0.161791 0.837568 0.411765
0.161791 0.837568 0.411765
0.161791 0.837568 0.411765
0.161791 0.837568 0.411765
0.161791 0.837568 0.411765
0.161791 0.837568 0.411765
0.161791 0.837568 0.411765
0.230152 0.905928 0.480125
0.271916 0.947692 0.521889
0.30132 0.977096 0.551293
0.374197 0.990936 0.502342
0.551125 0.956115 0.40528
0.684474 0.927291 0.37409
0.770001 0.913542 0.378103
0.829618 0.908827 0.39353
0.875822 0.90866 0.411826
0.907179 0.914336 0.430762
0.929015 0.922652 0.453162
0.944366 0.934676 0.465736
0.946288 0.936614 0.467674
0.946288 0.936614 0.467674
0.946288 0.936614 0.467674
0.946288 0.936614 0.467674
0.946288 0.936614 0.467674
0.946288 0.936614 0.467674
0.946288 0.936614 0.467674
0.95021 0.940536 0.471595
0.151995 0.827771 0.401968
0.158892 0.834653 0.40885
0.161791 0.837568 0.411765
0.161791 0.837568 0.411765
0.161791 0.837568 0.411765
0.161791 0.837568 0.411765
0.161791 0.837568 0.411765
0.161791 0.837568 0.411765
0.161791 0.837568 0.411765
0.161791 0.837568 0.411765
0.161791 0.837568 0.411765
0.161791 0.837568 0.411765
0.161791 0.837568 0.411765
0.225895 0.901656 0.475853
0.26862 0.944381 0.518593
0.297948 0.973709 0.547906
0.360998 0.989868 0.510552
0.527626 0.960372 0.410727
0.669795 0.927779 0.374166
0.761074 0.91162 0.373938
0.821424 0.906203 0.389181
0.868574 0.905348 0.406729
0.900572 0.91046 0.424781
0.923018 0.91812 0.446937
0.938933 0.929259 0.460319
0.946288 0.936614 0.467674
0.946288 0.936614 0.467674
0.946288 0.936614 0.467674
0.946288 0.936614 0.467674
0.946288 0.936614 0.467674
0.946288 0.936614 0.467674
0.946288 0.936614 0.467674
0.965682 0.956008 0.487068
0.161791 0.837568 0.411765
0.161791 0.837568 0.411765
0.161791 0.837568 0.411765
0.161791 0.837568 0.411765
0.161791 0.837568 0.411765
0.161791 0.837568 0.411765
0.161791 0.837568 0.411765
0.161791 0.837568 0.411765
0.161791 0.837568 0.411765
0.161791 0.837568 0.411765
0.161791 0.837568 0.411765
0.161791 0.837568 0.411765
0.161791 0.837568 0.411765
0.23856 0.914336 0.488533
0.276188 0.951949 0.526146
0.303334 0.979095 0.553292
0.358373 0.995209 0.523766
0.509071 0.971664 0.424536
0.66656 0.93138 0.377676
0.75462 0.915282 0.376196
0.818936 0.906737 0.388159
0.865141 0.904768 0.405112
0.896666 0.908751 0.421881
0.919066 0.915099 0.442817
0.934646 0.924971 0.456031
0.945739 0.936065 0.467124
0.946288 0.936614 0.467674
0.946288 0.936614 0.467674
0.946288 0.936614 0.467674
0.946288 0.936614 0.467674
0.946288 0.936614 0.467674
0.965606 0.955932 0.486992
0.975952 0.966278 0.497337
0.161791 0.837568 0.411765
0.161791 0.837568 0.411765
0.161791 0.837568 0.411765
0.161791 0.837568 0.411765
0.161791 0.837568 0.411765
0.161791 0.837568 0.411765
0.161791 0.837568 0.411765
0.161791 0.837568 0.411765
0.161791 0.837568 0.411765
