LUT/LogC3/709/looks/Alexa_LogC3_709_D65_Kodak_B.cube
LUT_3D_SIZE 5
0 0 0
0.130724 0.0290837 0.0340581
0.472557 0 0
0.603555 0 0
0.617166 0 0
0 0.112902 0.046952
0.142229 0.145739 0.0234226
0.585779 0 0
0.603449 0 0
0.617166 0 0
0 0.340246 0
0 0.339666 0
0.77734 0.614511 0
0.944778 0.567742 0
0.617166 0 0
0 0.435462 0
0 0.435447 0
0 0.435355 0
1 0.803494 0
1 0.804028 0
0 0.447868 0
0 0.447868 0
0 0.447868 0
0 0.447868 0
1 0.819974 0
0 0.0310216 0.108034
0.139574 0.0225376 0.147982
0.49659 0 0.135912
0.60354 0 0
0.617166 0 0
0 0.119677 0.149355
0.126543 0.148211 0.16556
0.571817 0 0.112978
0.603418 0 0
0.617166 0 0
0 0.338262 0
0 0.337682 0
0.774899 0.610941 0
0.940841 0.558022 0
0.617166 0 0
0 0.435416 0
0 0.435416 0
0 0.435309 0
1 0.803449 0
1 0.803922 0
0 0.447868 0
0 0.447868 0
0 0.447868 0
0 0.447868 0
1 0.819974 0
0 0 0.355856
0.0187076 0 0.401801
0.506218 0 0.482673
0.631922 0 0.487709
0.64181 0 0.438834
0 0 0.354238
0 0 0.368658
0.500572 0 0.47982
0.631662 0 0.485069
0.641794 0 0.433127
0 0.470665 0.587671
0 0.469856 0.587198
0.74995 0.730663 0.71162
0.920897 0.607965 0.677043
0.641443 0 0.378195
0 0.435065 0
0 0.43505 0
0 0.434974 0
1 0.803021 0
1 0.803159 0
0 0.447868 0
0 0.447868 0
0 0.447868 0
0 0.447868 0
1 0.819974 0
0 0 0.457115
0 0 0.457115
0.459754 0 0.610925
0.644327 0 0.639185
0.656733 0 0.641321
0 0 0.457053
0 0 0.457053
0.451789 0 0.609735
0.644221 0 0.639124
0.656733 0 0.641215
0 0 0.456641
0 0 0.456641
0.300038 0 0.584222
0.643366 0 0.638285
0.656657 0 0.640513
0 0.615579 0.780667
0 0.615564 0.780621
0 0.615442 0.780499
0.980529 0.967147 0.956619
1 0.965652 0.955779
0 0.621347 0.765316
0 0.621347 0.76527
0 0.621317 0.765118
0 0.621027 0.763653
1 0.979477 0.926146
0 0 0.474739
0 0 0.474739
0 0 0.474739
0.649653 0 0.663584
0.664118 0 0.666697
0 0 0.474739
0 0 0.474739
0 0 0.474739
0.649546 0 0.663554
0.664118 0 0.666697
0 0 0.474739
0 0 0.474739
0 0 0.474739
0.648722 0 0.663371
0.664118 0 0.666697
0 0.600504 0.791089
0 0.600443 0.791074
0 0.599908 0.79089
0.962722 0.93286 0.980713
0.982238 0.897719 0.976089
0 0.628962 0.802563
0 0.628962 0.802563
0 0.628962 0.802563
0 0.628962 0.802563
1 0.985 0.989578
