LUT/LogC3/709/looks/Alexa_LogC3_709_D65_5219_B.cube
LUT_3D_SIZE 5
0.0130312 0.024033 0.0260166
0.175433 0.0333562 0
0.555276 0.0290684 0
0.696345 0.273075 0.0445411
0.663645 0.550439 0.240711
0.0091249 0.0831311 0.0610971
0.115419 0.137392 0.0654154
0.605997 0.18674 0
0.760174 0.369879 0.0763561
0.735271 0.625055 0.314336
0 0.496651 0.0305333
0 0.577432 0
0.7122 0.659831 0
0.950179 0.706752 0.0583352
0.900496 0.805295 0.498558
0 0.693004 0.428611
0 0.724147 0.460746
0.409323 0.856321 0.573159
0.938293 0.90309 0.538338
0.946181 0.925063 0.717205
0.523491 0.756481 0.60441
0.541085 0.771084 0.620005
0.703578 0.918563 0.7635
0.837644 0.948608 0.796613
0.950927 0.950851 0.811933
0.0167239 0.0297704 0.11371
0.148165 0.0411536 0.108202
0.578088 0.0129244 0.09131
0.70988 0.274632 0.118059
0.677272 0.564065 0.261341
0.00488289 0.0999466 0.149844
0.11458 0.12459 0.136584
0.619577 0.146365 0.0707713
0.75404 0.358785 0.143221
0.722042 0.610849 0.307118
0 0.498955 0.118807
0 0.566522 0
0.703685 0.659327 0
0.932464 0.702098 0.178607
0.902235 0.806043 0.504295
0 0.707179 0.441794
0 0.725704 0.461311
0.375875 0.822889 0.539712
0.936812 0.90161 0.536858
0.949111 0.927993 0.722148
0.544472 0.777478 0.625391
0.555215 0.785229 0.634134
0.683787 0.900771 0.745708
0.847166 0.958114 0.806134
0.963226 0.963149 0.824247
0.0369421 0.0431983 0.53489
0.0667277 0.070985 0.561685
0.576837 0 0.481041
0.723079 0.276967 0.37026
0.699367 0.577203 0.343435
0.0466773 0.0519417 0.543633
0.0822309 0.0724956 0.563195
0.627832 0.046891 0.528038
0.775128 0.356008 0.419287
0.755489 0.636332 0.399558
0.021912 0.501091 0.494728
0.0188449 0.547021 0.528634
0.641215 0.676188 0.603204
0.92224 0.719081 0.555337
0.935561 0.832395 0.583627
0.0238346 0.747982 0.528557
0.0353399 0.763485 0.545068
0.254337 0.83241 0.595117
0.968536 0.946365 0.639567
0.990372 0.968261 0.781399
0.579644 0.813642 0.662562
0.586938 0.818936 0.666865
0.680522 0.898512 0.745434
0.87866 0.989624 0.837629
0.994842 0.994766 0.855863
0.0817426 0.441917 0.513603
0.111192 0.471351 0.543038
0.244816 0.52694 0.593698
0.671687 0.418708 0.618769
0.694636 0.583597 0.561685
0.101015 0.460182 0.533852
0.129763 0.48893 0.5626
0.30869 0.584833 0.650568
0.731579 0.478599 0.67866
0.760998 0.65095 0.628046
0.24126 0.600412 0.674098
0.245136 0.604303 0.677989
0.480308 0.702419 0.768215
0.880659 0.625681 0.827741
0.924132 0.824094 0.793179
0.0251164 0.746349 0.708827
0.0399023 0.77615 0.741604
0.0592813 0.893553 0.854932
0.945861 0.961822 0.885863
1 0.95349 0.875578
0.562585 0.8336 0.697475
0.571725 0.840757 0.703624
0.644526 0.897536 0.757443
0.881376 1 0.86334
1 1 0.870634
0.5066 0.516609 0.528603
0.528176 0.538186 0.550179
0.595209 0.605219 0.617212
0.636393 0.626398 0.644404
0.697871 0.572869 0.669917
0.531701 0.542702 0.554696
0.55201 0.56202 0.573999
0.657023 0.667033 0.679011
0.716808 0.705806 0.724804
0.787778 0.662791 0.759823
0.639414 0.650416 0.662409
0.652567 0.663569 0.675563
0.775616 0.786633 0.798611
0.860883 0.84889 0.867887
0.939941 0.814954 0.911986
0.75082 0.762829 0.774807
0.769253 0.781262 0.79324
0.820737 0.832746 0.844739
0.976959 0.951965 0.979965
1 0.898863 0.996902
0.555642 0.838743 0.834531
0.570809 0.846906 0.84271
0.679347 0.908431 0.90425
0.948699 0.987701 0.981674
0.985275 1 0.918273
