LUT/LogC3/709/looks/Alexa_LogC3_709_D65_5219_A.cube
LUT_3D_SIZE 33
0.042 0.042 0.038
0.042 0.042 0.038
0.042 0.042 0.038
0.045 0.043 0.040
0.058 0.046 0.041
0.096 0.050 0.038
0.139 0.054 0.035
0.190 0.057 0.028
0.245 0.061 0.019
0.298 0.062 0.014
0.347 0.063 0.009
0.395 0.064 0.008
0.444 0.067 0.007
0.493 0.072 0.010
0.533 0.076 0.012
0.568 0.081 0.015
0.600 0.089 0.017
0.627 0.099 0.018
0.651 0.112 0.019
0.676 0.139 0.022
0.706 0.181 0.026
0.742 0.234 0.042
0.784 0.295 0.077
0.829 0.362 0.143
0.871 0.431 0.213
0.907 0.502 0.286
0.937 0.570 0.358
0.960 0.634 0.423
0.974 0.692 0.478
0.983 0.741 0.510
0.989 0.775 0.508
0.993 0.803 0.509
0.995 0.835 0.557
0.042 0.042 0.038
0.042 0.042 0.038
0.042 0.042 0.038
0.045 0.044 0.040
0.061 0.047 0.041
0.100 0.051 0.038
0.143 0.054 0.035
0.193 0.057 0.027
0.248 0.061 0.018
0.300 0.062 0.013
0.349 0.063 0.009
0.394 0.064 0.008
0.440 0.069 0.007
0.483 0.075 0.009
0.525 0.082 0.010
0.566 0.091 0.013
0.602 0.099 0.015
0.633 0.109 0.016
0.657 0.124 0.018
0.683 0.152 0.020
0.712 0.193 0.024
0.747 0.243 0.039
0.789 0.303 0.075
0.832 0.367 0.141
0.874 0.436 0.213
0.909 0.505 0.286
0.937 0.572 0.358
0.960 0.636 0.422
0.974 0.693 0.477
0.983 0.741 0.510
0.990 0.775 0.507
0.993 0.803 0.509
0.995 0.835 0.557
0.041 0.042 0.038
0.041 0.042 0.038
0.042 0.042 0.038
0.046 0.044 0.040
0.065 0.047 0.040
0.105 0.051 0.037
0.145 0.054 0.035
0.193 0.057 0.028
0.245 0.061 0.019
0.294 0.064 0.014
0.339 0.065 0.009
0.382 0.068 0.009
0.424 0.073 0.007
0.468 0.081 0.008
0.516 0.092 0.008
0.563 0.102 0.012
0.605 0.110 0.013
0.637 0.120 0.015
0.664 0.136 0.017
0.690 0.163 0.018
0.717 0.204 0.021
0.752 0.253 0.036
0.793 0.312 0.071
0.836 0.375 0.139
0.876 0.441 0.212
0.911 0.509 0.285
0.939 0.576 0.357
0.961 0.637 0.422
0.975 0.695 0.477
0.983 0.741 0.508
0.989 0.776 0.507
0.993 0.803 0.509
0.995 0.835 0.557
0.040 0.045 0.041
0.040 0.045 0.041
0.040 0.045 0.041
0.042 0.045 0.041
0.058 0.049 0.041
0.089 0.053 0.040
0.124 0.056 0.037
0.164 0.061 0.034
0.212 0.064 0.025
0.262 0.069 0.016
0.312 0.073 0.011
0.362 0.077 0.009
0.409 0.083 0.006
0.457 0.091 0.007
0.508 0.103 0.007
0.560 0.114 0.010
0.605 0.123 0.012
0.643 0.133 0.014
0.670 0.149 0.015
0.696 0.176 0.016
0.724 0.217 0.019
0.759 0.265 0.032
0.798 0.320 0.066
0.840 0.382 0.138
0.879 0.447 0.211
0.912 0.513 0.286
0.940 0.578 0.357
0.961 0.639 0.422
0.975 0.697 0.476
0.984 0.742 0.509
0.990 0.776 0.507
0.993 0.804 0.508
0.995 0.836 0.557
0.032 0.049 0.041
0.032 0.049 0.041
0.031 0.049 0.041
0.033 0.051 0.042
0.047 0.055 0.043
0.076 0.062 0.044
0.111 0.069 0.041
0.148 0.074 0.036
0.191 0.077 0.031
0.238 0.080 0.021
0.291 0.085 0.014
0.347 0.090 0.010
0.399 0.096 0.008
0.450 0.105 0.007
0.501 0.115 0.006
0.556 0.126 0.008
0.606 0.136 0.010
0.646 0.146 0.013
0.676 0.163 0.012
0.702 0.190 0.014
0.730 0.228 0.016
0.764 0.275 0.028
0.803 0.329 0.063
0.844 0.388 0.135
0.882 0.452 0.211
0.914 0.518 0.285
0.940 0.580 0.357
0.961 0.640 0.422
0.975 0.698 0.477
0.983 0.743 0.509
0.990 0.777 0.506
0.993 0.804 0.508
0.995 0.836 0.557
0.023 0.056 0.042
0.023 0.057 0.042
0.023 0.057 0.042
0.025 0.060 0.043
0.035 0.063 0.044
0.066 0.071 0.045
0.105 0.082 0.046
0.144 0.089 0.039
0.191 0.093 0.032
0.241 0.094 0.021
0.287 0.098 0.014
0.340 0.104 0.011
0.394 0.111 0.009
0.445 0.120 0.006
0.499 0.130 0.006
0.552 0.141 0.006
0.607 0.151 0.008
0.650 0.161 0.010
0.681 0.176 0.010
0.709 0.202 0.012
0.737 0.239 0.014
0.770 0.285 0.024
0.808 0.337 0.059
0.847 0.395 0.132
0.884 0.457 0.209
0.916 0.521 0.287
0.941 0.583 0.357
0.962 0.643 0.422
0.975 0.698 0.476
0.984 0.743 0.508
0.990 0.777 0.505
0.993 0.804 0.508
0.995 0.836 0.558
0.018 0.065 0.043
0.017 0.066 0.043
0.017 0.067 0.043
0.016 0.071 0.043
0.023 0.077 0.044
0.050 0.082 0.046
0.092 0.093 0.048
0.138 0.104 0.044
0.185 0.111 0.036
0.244 0.113 0.024
0.296 0.116 0.014
0.343 0.121 0.010
0.394 0.129 0.007
0.446 0.138 0.005
0.497 0.149 0.005
0.550 0.159 0.003
0.606 0.169 0.005
0.654 0.179 0.006
0.688 0.193 0.008
0.716 0.218 0.010
0.743 0.252 0.011
0.776 0.297 0.021
0.813 0.347 0.054
0.852 0.404 0.129
0.887 0.464 0.209
0.918 0.526 0.286
0.943 0.586 0.357
0.962 0.645 0.422
0.975 0.699 0.476
0.984 0.744 0.508
0.990 0.777 0.505
0.993 0.805 0.510
0.995 0.836 0.558
0.010 0.075 0.043
0.010 0.075 0.043
0.010 0.078 0.043
0.009 0.085 0.044
0.013 0.094 0.045
0.026 0.099 0.048
0.068 0.107 0.049
0.121 0.120 0.047
0.172 0.129 0.039
0.232 0.137 0.028
0.296 0.140 0.016
0.353 0.146 0.008
0.402 0.152 0.007
0.452 0.162 0.005
0.502 0.172 0.003
0.554 0.183 0.002
0.607 0.193 0.002
0.657 0.202 0.004
0.696 0.215 0.004
0.725 0.238 0.006
0.753 0.270 0.007
0.784 0.311 0.016
0.820 0.359 0.046
0.857 0.413 0.125
0.891 0.472 0.207
0.920 0.531 0.286
0.944 0.590 0.356
0.964 0.648 0.421
0.976 0.701 0.475
0.984 0.746 0.506
0.990 0.779 0.505
0.993 0.806 0.509
0.995 0.837 0.559
0.006 0.089 0.047
0.006 0.090 0.047
0.005 0.094 0.047
0.002 0.104 0.046
0.004 0.115 0.045
0.009 0.122 0.046
0.030 0.129 0.048
0.090 0.140 0.048
0.150 0.152 0.040
0.213 0.161 0.032
0.283 0.171 0.019
0.350 0.177 0.010
0.411 0.182 0.005
0.465 0.190 0.003
0.515 0.200 0.001
0.564 0.212 0.001
0.615 0.223 0.000
0.664 0.233 0.001
0.705 0.244 0.001
0.737 0.265 0.002
0.766 0.294 0.004
0.795 0.330 0.009
0.829 0.374 0.038
0.863 0.425 0.119
0.896 0.481 0.205
0.923 0.540 0.285
0.945 0.595 0.356
0.964 0.652 0.421
0.977 0.703 0.474
0.984 0.747 0.506
0.990 0.779 0.504
0.993 0.807 0.509
0.995 0.837 0.559
0.002 0.111 0.051
0.002 0.112 0.052
0.001 0.118 0.051
0.000 0.131 0.047
0.001 0.141 0.045
0.002 0.149 0.043
0.006 0.156 0.043
0.037 0.166 0.046
0.116 0.179 0.039
0.188 0.191 0.029
0.262 0.201 0.018
0.341 0.212 0.005
0.412 0.220 0.002
0.474 0.225 0.000
0.531 0.235 0.000
0.582 0.246 0.000
0.630 0.258 0.000
0.676 0.270 0.000
0.718 0.281 0.000
0.752 0.297 0.000
0.781 0.322 0.000
0.809 0.355 0.003
0.841 0.395 0.026
0.872 0.440 0.108
0.901 0.494 0.203
0.927 0.549 0.283
0.948 0.604 0.355
0.965 0.656 0.420
0.977 0.707 0.474
0.985 0.749 0.505
0.990 0.781 0.504
0.993 0.808 0.510
0.995 0.838 0.560
0.000 0.139 0.056
0.000 0.143 0.056
0.000 0.152 0.055
0.000 0.164 0.050
0.000 0.174 0.046
0.000 0.182 0.042
0.000 0.190 0.036
0.004 0.200 0.035
0.052 0.213 0.035
0.151 0.229 0.020
0.236 0.240 0.011
0.324 0.249 0.001
0.409 0.260 0.000
0.480 0.268 0.000
0.542 0.275 0.000
0.601 0.286 0.000
0.651 0.298 0.000
0.696 0.312 0.000
0.737 0.324 0.000
0.771 0.338 0.000
0.799 0.357 0.000
0.826 0.384 0.000
0.855 0.420 0.014
0.882 0.462 0.096
0.908 0.508 0.199
0.931 0.560 0.282
0.950 0.610 0.354
0.966 0.661 0.419
0.978 0.711 0.473
0.985 0.752 0.505
0.991 0.782 0.503
0.993 0.809 0.511
0.995 0.839 0.561
0.000 0.179 0.062
0.000 0.185 0.063
0.000 0.195 0.059
0.000 0.206 0.053
0.000 0.215 0.048
0.000 0.223 0.044
0.000 0.231 0.038
0.000 0.241 0.033
0.005 0.254 0.028
0.077 0.270 0.017
0.200 0.287 0.002
0.298 0.296 0.000
0.397 0.305 0.000
0.483 0.317 0.000
0.553 0.325 0.000
0.615 0.333 0.000
0.673 0.345 0.000
0.721 0.358 0.000
0.761 0.371 0.000
0.795 0.384 0.000
0.823 0.400 0.000
0.847 0.421 0.000
0.871 0.450 0.004
0.896 0.487 0.071
0.918 0.530 0.190
0.936 0.573 0.278
0.954 0.622 0.352
0.969 0.670 0.417
0.979 0.715 0.472
0.986 0.755 0.502
0.991 0.784 0.502
0.994 0.811 0.512
0.995 0.840 0.562
0.000 0.229 0.075
0.000 0.237 0.073
0.000 0.247 0.064
0.000 0.256 0.055
0.000 0.264 0.049
0.000 0.272 0.043
0.000 0.279 0.037
0.000 0.288 0.031
0.000 0.298 0.024
0.009 0.314 0.014
0.128 0.334 0.000
0.265 0.351 0.000
0.371 0.360 0.000
0.471 0.368 0.000
0.559 0.379 0.000
0.630 0.388 0.000
0.689 0.395 0.000
0.742 0.407 0.000
0.785 0.420 0.000
0.820 0.433 0.000
0.847 0.445 0.000
0.870 0.461 0.000
0.890 0.484 0.000
0.910 0.515 0.042
0.927 0.552 0.176
0.943 0.591 0.272
0.958 0.634 0.349
0.971 0.677 0.416
0.980 0.721 0.469
0.986 0.758 0.499
0.991 0.786 0.501
0.994 0.813 0.514
0.995 0.842 0.564
0.000 0.289 0.084
0.000 0.297 0.073
0.000 0.306 0.061
0.000 0.314 0.052
0.000 0.322 0.042
0.000 0.328 0.034
0.000 0.335 0.027
0.000 0.342 0.018
0.000 0.351 0.012
0.000 0.361 0.006
0.026 0.377 0.000
0.201 0.399 0.000
0.341 0.416 0.000
0.450 0.425 0.000
0.550 0.434 0.000
0.636 0.444 0.000
0.707 0.453 0.000
0.763 0.459 0.000
0.809 0.470 0.000
0.845 0.481 0.000
0.872 0.492 0.000
0.893 0.505 0.000
0.910 0.523 0.000
0.925 0.546 0.014
0.938 0.578 0.156
0.952 0.615 0.264
0.963 0.651 0.345
0.973 0.689 0.412
0.981 0.728 0.467
0.987 0.764 0.498
0.991 0.790 0.501
0.994 0.816 0.516
0.995 0.845 0.568
0.000 0.356 0.076
0.000 0.363 0.063
0.000 0.371 0.049
0.000 0.377 0.038
0.000 0.385 0.026
0.000 0.390 0.016
0.000 0.397 0.010
0.000 0.403 0.006
0.000 0.408 0.004
0.000 0.415 0.001
0.001 0.425 0.000
0.084 0.443 0.000
0.284 0.465 0.000
0.421 0.480 0.000
0.530 0.489 0.000
0.629 0.497 0.000
0.715 0.507 0.000
0.783 0.515 0.000
0.831 0.521 0.000
0.868 0.529 0.000
0.894 0.539 0.000
0.914 0.549 0.000
0.929 0.562 0.000
0.940 0.580 0.001
0.951 0.608 0.124
0.959 0.638 0.251
0.968 0.670 0.339
0.976 0.703 0.409
0.982 0.736 0.464
0.988 0.770 0.495
0.992 0.796 0.501
0.995 0.819 0.518
0.995 0.848 0.574
0.000 0.426 0.058
0.000 0.433 0.044
0.000 0.440 0.031
0.000 0.446 0.018
0.000 0.454 0.009
0.000 0.459 0.005
0.000 0.463 0.002
0.000 0.468 0.001
0.000 0.471 0.000
0.000 0.475 0.000
0.000 0.479 0.000
0.008 0.489 0.000
0.200 0.505 0.000
0.370 0.527 0.000
0.504 0.541 0.000
0.612 0.551 0.000
0.707 0.557 0.000
0.789 0.565 0.000
0.847 0.572 0.000
0.885 0.577 0.000
0.913 0.583 0.000
0.932 0.592 0.000
0.945 0.603 0.000
0.954 0.619 0.000
0.961 0.640 0.087
0.967 0.665 0.239
0.973 0.692 0.332
0.979 0.720 0.405
0.985 0.750 0.461
0.989 0.778 0.493
0.992 0.801 0.503
0.995 0.824 0.521
0.995 0.851 0.580
0.000 0.498 0.040
0.000 0.504 0.026
0.000 0.509 0.015
0.000 0.514 0.006
0.000 0.519 0.002
0.000 0.523 0.001
0.000 0.526 0.000
0.000 0.531 0.000
0.000 0.533 0.000
0.000 0.534 0.000
0.000 0.535 0.000
0.000 0.538 0.000
0.070 0.547 0.000
0.297 0.565 0.000
0.451 0.584 0.000
0.581 0.598 0.000
0.685 0.606 0.000
0.778 0.612 0.000
0.849 0.619 0.000
0.898 0.624 0.000
0.927 0.628 0.000
0.945 0.633 0.000
0.957 0.642 0.000
0.964 0.654 0.000
0.969 0.672 0.072
0.973 0.691 0.226
0.977 0.714 0.327
0.982 0.738 0.402
0.986 0.764 0.458
0.990 0.789 0.492
0.993 0.810 0.507
0.994 0.831 0.532
0.995 0.858 0.590
0.000 0.563 0.022
0.000 0.568 0.012
0.000 0.571 0.009
0.000 0.574 0.007
0.000 0.578 0.002
0.000 0.580 0.001
0.000 0.581 0.000
0.000 0.583 0.000
0.000 0.584 0.000
0.000 0.584 0.000
0.000 0.585 0.000
0.000 0.584 0.000
0.011 0.588 0.000
0.208 0.599 0.000
0.385 0.615 0.000
0.525 0.633 0.000
0.648 0.647 0.000
0.751 0.656 0.000
0.837 0.662 0.000
0.897 0.666 0.000
0.932 0.669 0.000
0.953 0.674 0.000
0.964 0.679 0.000
0.970 0.690 0.000
0.974 0.703 0.080
0.977 0.719 0.227
0.981 0.738 0.322
0.985 0.759 0.401
0.988 0.780 0.458
0.991 0.802 0.497
0.994 0.821 0.517
0.995 0.840 0.544
0.995 0.864 0.604
0.000 0.613 0.033
0.000 0.616 0.030
0.000 0.618 0.026
0.000 0.619 0.023
0.000 0.620 0.020
0.000 0.621 0.017
0.000 0.622 0.015
0.000 0.622 0.013
0.000 0.624 0.011
0.000 0.623 0.009
0.000 0.622 0.006
0.000 0.622 0.003
0.001 0.622 0.001
0.101 0.630 0.000
0.321 0.643 0.000
0.463 0.659 0.000
0.593 0.677 0.000
0.711 0.690 0.000
0.807 0.699 0.000
0.879 0.704 0.000
0.927 0.707 0.000
0.952 0.711 0.000
0.966 0.715 0.000
0.973 0.722 0.004
0.977 0.733 0.122
0.980 0.747 0.244
0.984 0.762 0.328
0.987 0.780 0.402
0.990 0.798 0.464
0.992 0.817 0.509
0.994 0.834 0.537
0.995 0.852 0.571
0.995 0.873 0.627
0.000 0.646 0.096
0.000 0.647 0.093
0.000 0.648 0.091
0.000 0.648 0.090
0.000 0.649 0.089
0.000 0.649 0.087
0.000 0.649 0.087
0.000 0.650 0.084
0.000 0.649 0.082
0.000 0.649 0.081
0.000 0.648 0.078
0.000 0.649 0.073
0.000 0.650 0.065
0.042 0.654 0.057
0.248 0.664 0.040
0.405 0.679 0.022
0.533 0.697 0.007
0.655 0.714 0.002
0.764 0.729 0.000
0.851 0.737 0.000
0.910 0.741 0.000
0.945 0.744 0.000
0.963 0.748 0.006
0.972 0.754 0.071
0.977 0.762 0.184
0.982 0.773 0.274
0.985 0.787 0.346
0.989 0.801 0.413
0.991 0.818 0.476
0.993 0.834 0.529
0.993 0.850 0.566
0.995 0.867 0.607
0.994 0.886 0.665
0.000 0.663 0.185
0.000 0.663 0.186
0.000 0.664 0.185
0.000 0.664 0.186
0.000 0.664 0.186
0.000 0.664 0.187
0.000 0.664 0.187
0.000 0.664 0.187
0.000 0.664 0.188
0.000 0.664 0.189
0.000 0.665 0.189
0.000 0.665 0.189
0.000 0.668 0.191
0.025 0.673 0.189
0.189 0.681 0.185
0.350 0.694 0.180
0.473 0.711 0.171
0.595 0.730 0.165
0.706 0.749 0.160
0.808 0.763 0.136
0.883 0.770 0.118
0.930 0.774 0.142
0.956 0.778 0.154
0.969 0.783 0.199
0.976 0.790 0.256
0.981 0.798 0.311
0.986 0.809 0.374
0.989 0.822 0.434
0.992 0.837 0.493
0.993 0.852 0.552
0.994 0.867 0.601
0.994 0.883 0.650
0.993 0.899 0.705
0.000 0.671 0.261
0.000 0.671 0.261
0.000 0.671 0.262
0.000 0.671 0.263
0.000 0.671 0.263
0.000 0.671 0.264
0.000 0.672 0.265
0.000 0.672 0.266
0.000 0.673 0.266
0.000 0.673 0.268
0.000 0.674 0.269
0.000 0.676 0.272
0.000 0.679 0.273
0.017 0.684 0.275
0.146 0.693 0.275
0.307 0.705 0.276
0.427 0.722 0.279
0.537 0.741 0.281
0.648 0.762 0.286
0.755 0.781 0.290
0.845 0.794 0.283
0.908 0.800 0.279
0.943 0.805 0.295
0.963 0.810 0.301
0.974 0.816 0.324
0.981 0.823 0.363
0.986 0.831 0.407
0.990 0.842 0.461
0.992 0.855 0.516
0.993 0.868 0.573
0.993 0.883 0.634
0.993 0.898 0.686
0.993 0.912 0.738
0.000 0.675 0.328
0.000 0.675 0.328
0.000 0.676 0.329
0.000 0.676 0.330
0.000 0.676 0.331
0.000 0.677 0.331
0.000 0.677 0.332
0.000 0.677 0.333
0.000 0.678 0.334
0.000 0.680 0.336
0.000 0.681 0.338
0.000 0.684 0.340
0.001 0.687 0.341
0.021 0.693 0.344
0.120 0.701 0.347
0.276 0.712 0.351
0.387 0.729 0.355
0.491 0.748 0.360
0.596 0.771 0.368
0.702 0.793 0.377
0.797 0.812 0.383
0.877 0.824 0.381
0.926 0.829 0.380
0.956 0.834 0.390
0.970 0.839 0.398
0.979 0.846 0.418
0.985 0.853 0.451
0.989 0.863 0.493
0.991 0.873 0.543
0.993 0.885 0.597
0.993 0.897 0.650
0.993 0.910 0.707
0.992 0.924 0.760
0.000 0.681 0.390
0.000 0.681 0.390
0.000 0.682 0.391
0.000 0.682 0.391
0.000 0.683 0.392
0.000 0.683 0.392
0.000 0.683 0.393
0.000 0.684 0.393
0.000 0.685 0.394
0.000 0.687 0.396
0.000 0.689 0.397
0.001 0.692 0.399
0.006 0.695 0.402
0.034 0.700 0.405
0.117 0.708 0.408
0.259 0.720 0.413
0.363 0.734 0.418
0.457 0.752 0.425
0.550 0.775 0.433
0.649 0.799 0.444
0.750 0.822 0.456
0.835 0.839 0.464
0.901 0.850 0.464
0.941 0.856 0.463
0.963 0.861 0.473
0.976 0.867 0.480
0.984 0.874 0.501
0.988 0.881 0.528
0.991 0.890 0.570
0.992 0.900 0.619
0.993 0.910 0.668
0.993 0.921 0.717
0.992 0.932 0.766
0.000 0.690 0.447
0.000 0.690 0.447
0.000 0.691 0.448
0.000 0.691 0.448
0.000 0.692 0.449
0.000 0.692 0.449
0.000 0.692 0.449
0.000 0.693 0.450
0.000 0.695 0.450
0.001 0.696 0.452
0.002 0.699 0.454
0.009 0.701 0.456
0.024 0.705 0.458
0.067 0.710 0.461
0.149 0.717 0.464
0.255 0.726 0.470
0.351 0.740 0.475
0.434 0.756 0.484
0.517 0.777 0.492
0.608 0.801 0.503
0.700 0.826 0.517
0.793 0.849 0.531
0.868 0.866 0.542
0.920 0.876 0.543
0.952 0.880 0.539
0.970 0.887 0.546
0.981 0.894 0.559
0.986 0.900 0.577
0.989 0.907 0.606
0.990 0.914 0.642
0.992 0.923 0.686
0.992 0.932 0.729
0.992 0.942 0.773
0.002 0.703 0.502
0.002 0.703 0.503
0.003 0.703 0.503
0.004 0.704 0.504
0.005 0.704 0.504
0.006 0.705 0.504
0.006 0.705 0.505
0.009 0.706 0.506
0.011 0.707 0.507
0.018 0.709 0.507
0.025 0.711 0.509
0.044 0.713 0.511
0.071 0.717 0.513
0.121 0.722 0.516
0.192 0.728 0.519
0.269 0.736 0.525
0.347 0.747 0.530
0.418 0.762 0.540
0.494 0.781 0.549
0.576 0.803 0.559
0.665 0.830 0.572
0.752 0.855 0.587
0.832 0.875 0.602
0.892 0.890 0.615
0.933 0.899 0.616
0.960 0.905 0.613
0.977 0.911 0.616
0.984 0.919 0.632
0.987 0.926 0.654
0.990 0.931 0.679
0.991 0.937 0.713
0.991 0.944 0.749
0.992 0.952 0.784
0.048 0.720 0.559
0.051 0.721 0.559
0.055 0.722 0.560
0.058 0.722 0.561
0.058 0.722 0.561
0.063 0.723 0.561
0.066 0.723 0.561
0.074 0.724 0.562
0.083 0.725 0.563
0.090 0.726 0.564
0.104 0.728 0.564
0.129 0.730 0.567
0.166 0.733 0.568
0.209 0.738 0.571
0.255 0.743 0.575
0.305 0.751 0.579
0.358 0.761 0.584
0.418 0.773 0.591
0.483 0.789 0.602
0.557 0.809 0.612
0.639 0.834 0.625
0.720 0.860 0.639
0.800 0.883 0.654
0.866 0.900 0.669
0.912 0.913 0.679
0.943 0.922 0.684
0.966 0.929 0.681
0.980 0.935 0.681
0.988 0.941 0.692
0.990 0.947 0.716
0.991 0.952 0.742
0.992 0.957 0.769
0.993 0.962 0.798
0.184 0.746 0.618
0.184 0.746 0.618
0.191 0.746 0.618
0.194 0.746 0.619
0.194 0.746 0.619
0.198 0.747 0.618
0.202 0.747 0.618
0.206 0.748 0.619
0.213 0.748 0.619
