LUT/LogC3/709/looks/Alexa_LogC3_709_D65_Kodak_A.cube
LUT_3D_SIZE 5
0.0158846 0 0.0103914
0.125872 0 0
0.49073 0 0
0.638529 0 0
0.69894 0.0204013 0
0.0307012 0.105547 0.0142824
0.172519 0.144381 0.0433814
0.653681 0.0878004 0.0270542
0.798917 0.121492 0.016907
0.891493 0.213291 0.122789
0.0457008 0.49752 0.0148013
0.105211 0.557031 0.0742962
0.641413 0.611475 0.11107
0.899535 0.677729 0.17615
0.931579 0.706279 0.207279
0.125383 0.80116 0.375357
0.161791 0.837568 0.411765
0.374197 0.990936 0.502342
0.944366 0.934676 0.465736
0.95021 0.940536 0.471595
0.195315 0.871092 0.445289
0.172641 0.848402 0.422614
0.365103 1 0.560174
0.957549 0.948623 0.480385
1 1 0.539635
0.014847 0 0.089601
0.14699 0 0.0966354
0.551308 0 0
0.689784 0 0.0245975
0.738964 0.0449683 0.0803235
0.0340429 0.116747 0.129625
0.16733 0.14052 0.153079
0.642115 0.0499886 0.0681926
0.802365 0.110307 0.129778
0.813855 0.120287 0.150973
0.0847944 0.534966 0.0536355
0.128023 0.577493 0.0967727
0.65594 0.622202 0.124269
0.88896 0.663661 0.16466
0.960525 0.731823 0.235248
0.174105 0.849867 0.424063
0.161791 0.837568 0.411765
0.286793 0.904616 0.417517
0.946288 0.936614 0.467674
0.994736 0.985061 0.516121
0.220813 0.89659 0.470787
0.209934 0.88571 0.459907
0.386984 1 0.586084
0.976669 0.967727 0.499489
1 1 0.556512
0.0436713 0 0.350484
0.105364 0 0.411841
0.534569 0 0.358938
0.672816 0 0.38291
0.713359 0.0380407 0.435981
0.0767681 0 0.383581
0.0965744 0 0.403388
0.627237 0.0505379 0.451362
0.794385 0.11751 0.504479
0.791302 0.115984 0.513924
0.0528725 0.534966 0.526436
0.0916152 0.573678 0.56643
0.592035 0.619165 0.589151
0.863783 0.642283 0.612024
0.909972 0.683772 0.677302
0.211475 0.875517 0.604334
0.217563 0.881605 0.610437
0.235019 0.863249 0.58436
0.962753 0.973968 0.730236
0.971832 0.983871 0.754894
0.238895 0.900175 0.621103
0.232898 0.894179 0.615106
0.381552 1 0.753902
0.954467 0.965942 0.706371
1 1 0.778912
0.0870832 0 0.545861
0.134524 0 0.593286
0.405676 0 0.593469
0.551659 0.0403143 0.533104
0.59942 0.0880751 0.58088
0.130022 0 0.5888
0.156039 0 0.614801
0.503227 0.0853285 0.695338
0.689616 0.178256 0.671061
0.694728 0.183368 0.676173
0.128023 0.389502 0.764294
0.135653 0.397116 0.771923
0.574914 0.438682 0.783078
0.805814 0.503929 0.784924
0.919738 0.613031 0.899428
0.1691 0.8645 0.876387
0.2121 0.9075 0.919371
0.212711 0.906401 0.920012
0.922423 0.967407 0.972412
0.940581 0.963806 0.980789
0.197421 0.906523 0.90724
0.194934 0.904036 0.904753
0.355749 1 1
0.912444 0.983703 0.969558
0.968872 1 1
0.103655 0 0.562417
0.125917 0 0.58468
0.394476 0 0.587991
0.543969 0.0326238 0.525429
0.270253 0.311086 0.324712
0.144045 0 0.602808
0.163378 0 0.622156
0.476524 0.0680247 0.678141
0.67155 0.160204 0.652995
0.382223 0.423041 0.436667
0.0885786 0.302556 0.711086
0.148028 0.360555 0.769955
0.623362 0.450462 0.833738
0.880995 0.559182 0.862089
0.757351 0.798184 0.811795
0.165881 0.854871 0.887419
0.205035 0.894026 0.926574
0.311681 0.998642 1
0.915251 0.954467 0.985077
0.936843 0.977676 0.991302
0.20473 0.909453 0.928634
0.295125 0.999832 1
0.422904 1 1
0.933486 1 1
0.969818 1 1
