LUT/LogC3/709/looks/Alexa_LogC3_709_D65_Kodak_A.cube
LUT_3D_SIZE 9
0.0158846 0 0.0103914
0.0561837 0 0
0.125872 0 0
0.281758 0 0
0.49073 0 0
0.606546 0 0
0.638529 0 0
0.670405 0 0
0.69894 0.0204013 0
0 0.0264897 0.000289921
0.0453498 0.0301366 0
0.141878 0.0304265 0
0.319417 0 0
0.541253 0 0
0.667933 0 0
0.699916 0.0211185 0
0.729961 0.0511635 0
0.75523 0.0764324 0
0.0307012 0.105547 0.0142824
0.0479133 0.120516 0.0284581
0.172519 0.144381 0.0433814
0.411826 0.126925 0.0384527
0.653681 0.0878004 0.0270542
0.766522 0.0879377 0
0.798917 0.121492 0.016907
0.851972 0.174166 0.0797436
0.891493 0.213291 0.122789
0.0440681 0.276249 0.00909438
0.0738994 0.306081 0.0389258
0.0939345 0.324208 0.0578317
0.402701 0.363638 0.0800641
0.701122 0.347738 0.0613718
0.849729 0.372091 0.0818494
0.913664 0.415335 0.140368
0.936675 0.431846 0.162936
0.955337 0.450492 0.181598
0.0457008 0.49752 0.0148013
0.0816663 0.533486 0.0507515
0.105211 0.557031 0.0742962
0.206851 0.642939 0.160678
0.641413 0.611475 0.11107
0.834455 0.633341 0.125353
0.899535 0.677729 0.17615
0.911345 0.686061 0.187045
0.931579 0.706279 0.207279
0.0544747 0.683253 0.162737
0.0863966 0.715175 0.194659
0.109361 0.73814 0.217624
0.127581 0.75494 0.232013
0.508324 0.857221 0.251881
0.835737 0.830137 0.264561
0.915663 0.86598 0.355703
0.923827 0.873091 0.360586
0.930694 0.879973 0.367453
0.125383 0.80116 0.375357
0.152178 0.827939 0.402136
0.161791 0.837568 0.411765
0.161791 0.837568 0.411765
0.374197 0.990936 0.502342
0.829618 0.908827 0.39353
0.944366 0.934676 0.465736
0.946288 0.936614 0.467674
0.95021 0.940536 0.471595
0.161791 0.837568 0.411765
0.161791 0.837568 0.411765
0.161791 0.837568 0.411765
0.237293 0.913069 0.487266
0.358663 1 0.543435
0.816571 0.907439 0.387671
0.928038 0.919097 0.450874
0.961654 0.95198 0.48304
0.992294 0.982605 0.513664
0.195315 0.871092 0.445289
0.187198 0.862959 0.437156
0.172641 0.848402 0.422614
0.27921 0.954971 0.529168
0.365103 1 0.560174
0.831861 0.925963 0.405112
0.957549 0.948623 0.480385
1 0.991867 0.522927
1 1 0.539635
0.0138399 0 0.0327001
0.0560616 0 0.024567
0.137377 0 0.0168612
0.304601 0 0
0.520821 0 0
0.629068 0 0
0.660487 0 0
0.690044 0.0115663 0
0.716289 0.0361028 0
0.00155642 0.0265507 0.0225528
0.0462348 0.0253147 0.0205386
0.144137 0.0271305 0.0180819
0.334646 0 0.00230411
0.566354 0 0
0.690517 0.0114748 0
0.721401 0.0434882 0
0.749813 0.0719005 0.00886549
0.775998 0.0965744 0.0429236
0.0382086 0.115068 0.0261082
0.050782 0.126101 0.0366827
0.17705 0.147768 0.0507668
0.422293 0.130007 0.0572366
0.654322 0.0866407 0.0307012
0.738933 0.0594797 0
0.773114 0.0951095 0.0295109
0.798795 0.120882 0.057847
0.872709 0.194812 0.131762
0.0621805 0.29247 0.0260929
0.0893416 0.319066 0.0534218
0.104097 0.333043 0.0684215
0.41146 0.36997 0.0891737
0.712825 0.357595 0.0728466
0.863569 0.383749 0.0953384
0.905348 0.405417 0.131945
0.921202 0.41796 0.147646
0.968429 0.462165 0.194553
0.0672618 0.519081 0.036347
0.101915 0.553735 0.0710002
0.120806 0.572625 0.0898909
0.198642 0.63473 0.152468
0.652277 0.621378 0.121599
0.851377 0.648585 0.141878
0.895644 0.673838 0.172259
0.909224 0.683925 0.184909
0.943282 0.717983 0.218967
0.0729992 0.701198 0.179767
0.10634 0.733715 0.210773
0.128985 0.756359 0.233433
0.142336 0.769711 0.246769
0.509834 0.860166 0.254826
0.850309 0.844144 0.277638
0.919081 0.869383 0.359106
0.923873 0.873152 0.360647
0.942916 0.891356 0.377859
0.138384 0.81416 0.388357
0.161791 0.837568 0.411765
0.161791 0.837568 0.411765
0.161791 0.837568 0.411765
0.343771 0.960754 0.472282
0.8215 0.90071 0.385412
0.946242 0.936568 0.467628
0.946288 0.936614 0.467674
0.979004 0.969329 0.500389
0.186709 0.86247 0.436667
0.177432 0.853208 0.427405
0.161791 0.837568 0.411765
0.161791 0.837568 0.411765
0.337377 0.985336 0.522972
0.806806 0.898283 0.378317
0.924697 0.915755 0.447532
0.983108 0.973434 0.504494
1 0.994598 0.525658
0.208637 0.884398 0.458595
0.202075 0.877852 0.452049
0.194476 0.870253 0.44445
0.274662 0.950423 0.52462
0.380819 1 0.577844
0.847227 0.941329 0.420478
0.968124 0.959197 0.490959
1 1 0.531395
1 1 0.548531
0.014847 0 0.089601
0.0602731 0 0.0914321
0.14699 0 0.0966354
0.32871 0 0.0596628
0.551308 0 0
0.661051 0 0
0.689784 0 0.0245975
0.716136 0.0224155 0.0542763
0.738964 0.0449683 0.0803235
0.0242313 0.00227359 0.100023
0.0502785 0 0.095613
0.160159 0.0120546 0.113146
0.364202 0.0136721 0.0944228
0.604608 0.00976577 0.0341192
0.727001 0.0302434 0.0551461
0.756054 0.0629892 0.0890059
0.779782 0.0864271 0.114595
0.800534 0.106538 0.141894
0.0340429 0.116747 0.129625
0.0441901 0.126802 0.140368
0.16733 0.14052 0.153079
0.425162 0.119265 0.139437
0.642115 0.0499886 0.0681926
0.768948 0.0750591 0.0897078
0.802365 0.110307 0.129778
0.807996 0.115373 0.138628
0.813855 0.120287 0.150973
0.0838941 0.314366 0.0562905
0.103853 0.33431 0.0762341
0.110842 0.341299 0.0832227
0.412589 0.373236 0.109422
0.712673 0.361181 0.0958877
0.861891 0.387778 0.144472
0.886091 0.39382 0.182864
0.9187 0.42208 0.218875
0.960174 0.462791 0.278996
0.0847944 0.534966 0.0536355
0.112947 0.563119 0.0817884
0.128023 0.577493 0.0967727
0.184298 0.619196 0.138979
0.65594 0.622202 0.124269
0.857893 0.653819 0.14815
0.88896 0.663661 0.16466
0.919844 0.69308 0.195071
0.960525 0.731823 0.235248
0.0901198 0.717494 0.194553
0.119142 0.746517 0.22359
0.142367 0.769726 0.246799
0.155291 0.780377 0.253849
0.505409 0.856321 0.251179
0.858763 0.851591 0.283421
0.920623 0.869078 0.355581
0.920211 0.86865 0.355154
0.958709 0.907164 0.393668
0.174105 0.849867 0.424063
0.170871 0.846632 0.420829
0.161791 0.837568 0.411765
0.161791 0.837568 0.411765
0.286793 0.904616 0.417517
0.809735 0.888945 0.373648
0.946288 0.936614 0.467674
0.957412 0.947738 0.478798
0.994736 0.985061 0.516121
0.208255 0.884031 0.458228
0.202884 0.878645 0.452842
0.192874 0.868635 0.442832
0.175235 0.850996 0.425193
0.305043 0.953201 0.49192
0.793698 0.885939 0.365743
0.948394 0.939452 0.471229
0.996521 0.986831 0.517891
1 1 0.536141
0.220813 0.89659 0.470787
0.215473 0.891234 0.465431
0.209934 0.88571 0.459907
0.237369 0.913146 0.487343
0.386984 1 0.586084
0.856474 0.950576 0.429725
0.976669 0.967727 0.499489
1 1 0.538796
1 1 0.556512
0.0486915 0 0.193759
0.0688792 0 0.212421
0.158328 0 0.233722
0.348531 0 0.211154
0.565179 0 0.150759
0.667552 0 0.13698
0.698375 0 0.178744
0.722683 0.0235599 0.203052
0.74255 0.0420996 0.236851
0.0614633 0 0.204669
0.0694896 0 0.212696
0.176028 0.00807202 0.256352
0.384924 0.0147097 0.251698
0.622629 0.0135195 0.208194
0.736339 0.0412604 0.2047
0.767346 0.0682078 0.2477
0.787869 0.0887465 0.268238
0.806134 0.105699 0.30045
0.109865 0.0326238 0.264027
0.102403 0.0254978 0.257053
0.158434 0.0207523 0.259037
0.392142 0.0298466 0.265309
0.649149 0.0439155 0.235538
0.783185 0.0884565 0.25098
0.811933 0.113359 0.288746
0.813748 0.115175 0.290578
0.816159 0.116548 0.304829
0.0646067 0.303365 0.309087
0.0846113 0.323354 0.329778
0.09131 0.330053 0.336477
0.385229 0.363851 0.352743
0.705074 0.347845 0.326833
0.858106 0.371435 0.344854
0.865736 0.357092 0.354528
0.901411 0.386816 0.389776
0.94873 0.43035 0.444724
0.0879072 0.563851 0.212696
0.114809 0.590753 0.239597
0.12639 0.601511 0.251102
0.163943 0.626535 0.28014
0.642573 0.643015 0.290181
0.854353 0.668025 0.350332
0.88423 0.671916 0.375219
0.901457 0.687388 0.394049
0.930846 0.718257 0.439857
0.145647 0.754894 0.212146
0.174136 0.783383 0.24065
0.190005 0.799146 0.256245
0.19556 0.803006 0.259617
0.511894 0.869566 0.26598
0.878172 0.869139 0.316594
0.939834 0.887556 0.410773
0.947097 0.894652 0.418997
0.958938 0.907973 0.460639
0.202731 0.878492 0.452689
0.207187 0.882948 0.457145
0.196582 0.872358 0.446555
0.179706 0.855482 0.429679
0.204807 0.828428 0.346105
0.797726 0.879255 0.363241
0.965499 0.955825 0.486885
0.989288 0.979599 0.510658
1 0.999496 0.530556
0.225162 0.900923 0.47512
0.221088 0.896849 0.471046
0.213993 0.889754 0.463966
0.204578 0.880354 0.454551
0.283085 0.935317 0.479011
0.814237 0.908339 0.387503
0.962249 0.953307 0.485084
1 0.999268 0.530327
1 1 0.545861
0.233021 0.908782 0.482979
0.22887 0.904646 0.478843
0.224674 0.90045 0.474647
0.222095 0.897856 0.472053
0.390097 1 0.596948
0.861936 0.95877 0.437079
0.983703 0.975372 0.50631
1 1 0.545373
1 1 0.563531
0.0436713 0 0.350484
0.0624857 0 0.369299
0.105364 0 0.411841
0.317433 0 0.402243
0.534569 0 0.358938
0.642725 0 0.34786
0.672816 0 0.38291
0.696254 0.0193942 0.406363
0.713359 0.0380407 0.435981
0.0614328 0 0.368246
0.0731365 0 0.37995
0.125994 0.0174868 0.432471
0.359762 0.0201267 0.446433
0.594461 0.0157931 0.419593
0.711742 0.0363622 0.413855
0.741314 0.0644541 0.451408
0.762341 0.085481 0.47245
0.779019 0.1037 0.501656
0.0767681 0 0.383581
0.086717 0 0.39353
0.0965744 0 0.403388
0.370962 0.0393225 0.466453
0.627237 0.0505379 0.451362
0.765484 0.090486 0.467185
0.794385 0.11751 0.504479
0.793103 0.116243 0.503212
0.791302 0.115984 0.513924
0.154482 0.18584 0.579446
0.166384 0.197162 0.591012
0.168521 0.198444 0.593149
0.442069 0.223178 0.617472
0.747662 0.211063 0.5879
0.861799 0.232609 0.57052
0.83505 0.192584 0.537438
0.914488 0.265095 0.615518
0.989303 0.328557 0.702007
0.0528725 0.534966 0.526436
0.080293 0.562387 0.553857
0.0916152 0.573678 0.56643
0.0945296 0.57351 0.566476
0.592035 0.619165 0.589151
0.828519 0.641138 0.604547
0.863783 0.642283 0.612024
0.879042 0.656321 0.627039
0.909972 0.683772 0.677302
0.0992294 0.74464 0.520287
0.132555 0.777951 0.553597
0.153277 0.798672 0.574319
0.161013 0.806363 0.582818
0.375082 0.900496 0.661234
0.839536 0.868009 0.64065
0.920272 0.878431 0.687388
0.919417 0.877592 0.686534
0.92549 0.884932 0.713268
0.211475 0.875517 0.604334
0.221653 0.885695 0.614511
0.217563 0.881605 0.610437
0.212284 0.877089 0.606622
0.235019 0.863249 0.58436
0.789654 0.913893 0.637354
0.962753 0.973968 0.730236
0.974701 0.985687 0.743297
0.971832 0.983871 0.754894
0.234089 0.895506 0.617761
0.231586 0.892989 0.615259
0.226749 0.888151 0.610422
0.220081 0.881773 0.604562
0.225437 0.873045 0.593103
0.775784 0.911528 0.62475
0.940444 0.951751 0.695262
0.985061 0.995102 0.745495
0.992996 1 0.769589
0.238895 0.900175 0.621103
0.23592 0.8972 0.618143
0.232898 0.894179 0.615106
0.231037 0.892317 0.613245
0.381552 1 0.753902
0.814435 0.954208 0.664393
0.954467 0.965942 0.706371
0.993515 1 0.748241
1 1 0.778912
0.0608072 0 0.504723
0.0741436 0 0.518059
0.118441 0 0.562356
0.180926 0.0137179 0.613916
0.464881 0 0.547753
0.585672 0 0.534783
0.627298 0 0.556786
0.650843 0.0196689 0.580331
0.667933 0.0412604 0.602304
0.0819562 0 0.525872
0.0964981 0 0.540413
0.128847 0 0.572763
0.221637 0.0575875 0.656947
0.521248 0.0202945 0.604959
0.649638 0.0344244 0.599145
0.692531 0.0613565 0.622019
0.718105 0.0869154 0.647578
0.73875 0.112093 0.673136
0.101534 0 0.543984
0.115785 0 0.558236
0.124773 0 0.567208
0.241443 0.0818036 0.679561
0.562799 0.0654459 0.650278
0.711269 0.0971237 0.662348
0.76228 0.130282 0.690684
0.758801 0.12726 0.687816
0.753994 0.127337 0.68838
0.193713 0.0449683 0.636393
0.124315 0 0.566995
0.13048 0 0.573159
0.220584 0.0733196 0.666987
0.562005 0.0821546 0.666728
0.738567 0.12813 0.693538
0.773602 0.14136 0.701183
0.771267 0.139025 0.698848
0.897795 0.271122 0.832166
0.0904707 0.460258 0.71725
0.113649 0.483452 0.740444
0.123583 0.49337 0.750362
0.12755 0.491936 0.754086
0.607294 0.5346 0.77145
0.822721 0.56875 0.782406
0.857298 0.575174 0.77995
0.881224 0.596231 0.80351
0.924254 0.633143 0.850477
0.0732586 0.721584 0.727352
0.106615 0.754955 0.760708
0.12961 0.777935 0.783688
0.138476 0.786786 0.792844
0.328313 0.874861 0.877623
0.800534 0.848585 0.837873
0.908309 0.855344 0.860899
0.907256 0.853635 0.860273
0.916304 0.862394 0.877852
0.165682 0.873777 0.818753
0.187747 0.895827 0.840818
0.18819 0.896269 0.84126
0.186847 0.894926 0.84036
0.194949 0.887831 0.83566
0.766049 0.935256 0.858381
0.941711 0.983139 0.911818
0.94786 0.974929 0.911727
0.944015 0.971252 0.9196
0.190021 0.900359 0.840665
0.18938 0.899718 0.840009
0.186923 0.897261 0.837552
0.183124 0.893462 0.833768
0.180468 0.890822 0.831113
0.739681 0.92639 0.843336
0.908415 0.96231 0.878462
0.965469 0.996551 0.923018
0.969299 1 0.937072
0.191821 0.902159 0.842451
0.189944 0.900298 0.840589
0.187976 0.898314 0.838621
0.186343 0.896681 0.836988
0.332952 1 0.983597
0.769329 0.960876 0.877501
0.915877 0.972091 0.888029
0.965637 0.996597 0.922362
0.977798 1 0.945556
0.0870832 0 0.545861
0.099733 0 0.558511
0.134524 0 0.593286
0.180117 0.00863661 0.64596
0.405676 0 0.593469
0.536858 0 0.534371
0.551659 0.0403143 0.533104
0.575998 0.0646525 0.557458
0.59942 0.0880751 0.58088
0.109422 0 0.568185
0.123888 0 0.582666
0.134844 0 0.593606
0.215656 0.0441901 0.681514
0.454398 0.0345464 0.643992
0.594522 0.0523537 0.592859
0.61413 0.102785 0.59559
0.644602 0.133257 0.626062
0.671962 0.160601 0.653407
0.130022 0 0.5888
0.144884 0 0.603647
0.156039 0 0.614801
0.245014 0.0717632 0.709957
0.503227 0.0853285 0.695338
0.659922 0.11783 0.658839
0.689616 0.178256 0.671061
0.696895 0.18555 0.678355
0.694728 0.183368 0.676173
0.145083 0 0.603845
0.158587 0 0.61735
0.168566 0 0.627329
0.235813 0.0560311 0.69749
0.505364 0.110552 0.723598
0.702007 0.155932 0.706767
0.714305 0.204852 0.694591
0.712154 0.201984 0.692882
0.708171 0.196811 0.689616
0.128023 0.389502 0.764294
0.140047 0.401511 0.776318
0.135653 0.397116 0.771923
0.133822 0.389929 0.768811
0.574914 0.438682 0.783078
0.770977 0.485359 0.783062
0.805814 0.503929 0.784924
0.846311 0.543069 0.825895
0.919738 0.613031 0.899428
0.0763104 0.699504 0.768811
0.105501 0.728695 0.798016
0.124178 0.747372 0.816693
0.135622 0.758312 0.82797
0.300145 0.842145 0.908644
0.787045 0.815564 0.885191
0.897307 0.828519 0.908598
0.905486 0.833875 0.914458
0.922759 0.850111 0.932799
0.1691 0.8645 0.876387
0.201526 0.896925 0.908797
0.2121 0.9075 0.919371
0.212222 0.907362 0.919753
0.212711 0.906401 0.920012
0.770947 0.941146 0.943282
0.922423 0.967407 0.972412
0.941314 0.964401 0.978897
0.940581 0.963806 0.980789
0.19826 0.907027 0.90866
0.199237 0.908019 0.909651
0.198886 0.907668 0.909285
0.197253 0.905852 0.907973
0.196246 0.904768 0.907118
0.751003 0.944854 0.937224
0.906752 0.975891 0.962966
0.960494 1 1
0.963287 1 1
0.197421 0.906523 0.90724
0.196338 0.905425 0.906142
0.194934 0.904036 0.904753
0.245319 0.954421 0.955139
0.355749 1 1
0.778363 0.975814 0.968429
0.912444 0.983703 0.969558
0.955367 1 0.994339
0.968872 1 1
0.0953078 0 0.55407
0.108064 0 0.566827
0.124712 0 0.58349
0.178744 0.00549325 0.643687
0.399161 0 0.592676
0.534081 0 0.532815
0.54847 0.0371252 0.529931
0.575402 0.0640421 0.556848
0.601755 0.0904097 0.5832
0.117678 0 0.57644
0.130724 0 0.589487
0.140368 0 0.59913
0.207187 0.0339361 0.672129
0.442267 0.0262913 0.635782
0.58616 0.0440681 0.585077
0.609934 0.0985733 0.591379
0.644327 0.132982 0.625788
0.675029 0.163684 0.656489
0.137697 0 0.59646
0.15079 0 0.609552
0.160983 0 0.619745
0.237873 0.0637369 0.702373
0.489326 0.0777142 0.687587
0.64892 0.108644 0.649317
0.682643 0.171283 0.664088
0.708568 0.197223 0.690013
0.706096 0.194736 0.687541
0.153582 0 0.612345
0.165911 0 0.624689
0.170657 0 0.629419
0.236866 0.057084 0.698528
0.491478 0.10753 0.71986
0.687037 0.145251 0.694926
0.715282 0.203937 0.696742
0.715282 0.203937 0.696742
0.715282 0.203937 0.696742
0.118898 0.34345 0.744793
0.112459 0.337011 0.738354
0.140063 0.36463 0.765972
0.159548 0.377386 0.783429
0.597818 0.436774 0.809201
0.790066 0.48838 0.806394
0.838163 0.521004 0.819059
0.884245 0.565881 0.865675
0.943923 0.625559 0.925353
0.0677806 0.682582 0.765408
0.0928511 0.707652 0.790478
0.121416 0.735775 0.818845
0.136767 0.751141 0.834211
0.311879 0.854597 0.934951
0.788983 0.812253 0.897902
0.904555 0.82887 0.917388
0.913939 0.836454 0.924788
0.931792 0.854307 0.942641
0.165591 0.857298 0.885039
0.195682 0.887388 0.915129
0.213016 0.904494 0.932403
0.213428 0.904234 0.932662
0.211246 0.900435 0.930419
0.770245 0.937163 0.95668
0.916121 0.955917 0.985779
0.941604 0.959533 0.988281
0.944793 0.962722 0.99147
0.204318 0.910475 0.924392
0.204318 0.910475 0.924392
0.204318 0.910475 0.924392
0.204364 0.910384 0.924758
0.303288 1 1
0.771878 0.966567 0.974533
0.91783 0.986389 0.997055
0.960632 1 1
0.964462 1 1
0.204196 0.910689 0.923598
0.204196 0.910689 0.923598
0.204196 0.910689 0.923598
0.322606 1 1
0.391257 1 1
0.798459 0.99823 1
0.921889 0.996033 1
0.958709 1 1
0.969223 1 1
0.103655 0 0.562417
0.116014 0 0.574777
0.125917 0 0.58468
0.173449 0.000198367 0.638392
0.394476 0 0.587991
0.527001 0 0.526497
0.543969 0.0326238 0.525429
0.574029 0.0626688 0.555474
0.270253 0.311086 0.324712
0.125231 0 0.583993
0.136584 0 0.595346
0.144839 0 0.603601
0.198505 0.0252537 0.663447
0.432792 0.0189212 0.628595
0.577813 0.0381018 0.57731
0.605341 0.0939956 0.586801
0.642573 0.131212 0.624018
0.343359 0.384192 0.397803
0.144045 0 0.602808
0.155077 0 0.61384
0.163378 0 0.622156
0.233494 0.0582895 0.697475
0.476524 0.0680247 0.678141
0.635828 0.095552 0.636225
0.67155 0.160204 0.652995
0.713161 0.201801 0.694606
0.382223 0.423041 0.436667
0.159838 0 0.618616
0.170306 0 0.629068
0.170657 0 0.629419
0.24715 0.066453 0.70837
0.483604 0.102052 0.714549
0.672831 0.131304 0.681132
0.714778 0.203418 0.696223
0.715282 0.203937 0.696742
0.425803 0.466636 0.480262
0.0885786 0.302556 0.711086
0.108293 0.322271 0.7308
0.148028 0.360555 0.769955
0.205905 0.408347 0.824445
0.623362 0.450462 0.833738
0.812055 0.50425 0.828717
0.880995 0.559182 0.862089
0.927352 0.602289 0.908965
0.757351 0.798184 0.811795
0.0570077 0.670466 0.754086
0.090013 0.703487 0.787091
0.116411 0.72987 0.813489
0.133974 0.746349 0.830579
0.334646 0.876585 0.958618
0.795544 0.816083 0.903548
0.914595 0.838285 0.927626
0.92781 0.848539 0.938079
0.872816 0.913649 0.92726
0.165881 0.854871 0.887419
0.190768 0.879759 0.912306
0.205035 0.894026 0.926574
0.208469 0.897459 0.930007
0.311681 0.998642 1
0.777279 0.943542 0.966217
0.915251 0.954467 0.985077
0.945113 0.962173 0.991455
0.936843 0.977676 0.991302
0.20473 0.909453 0.928634
0.20473 0.909453 0.928634
0.20473 0.909453 0.928634
0.20473 0.909453 0.928634
0.35845 1 1
0.791043 0.983948 0.996902
0.925429 0.989914 1
0.959472 0.999695 1
0.962737 1 1
0.20473 0.909453 0.928634
0.20473 0.909453 0.928634
0.295125 0.999832 1
0.373785 1 1
0.422904 1 1
0.817456 1 1
0.933486 1 1
0.9617 1 1
0.969818 1 1
