LUT/LogC3/709/looks/Alexa_LogC3_709_D65_Kodak_B.cube
LUT_3D_SIZE 33
0 0 0
0 0 0
0.0242313 0.0122377 0.0199741
0.039765 0.0217441 0.0285801
0.0534524 0.0272374 0.0318608
0.0666056 0.030457 0.0332036
0.0838331 0.031754 0.0327459
0.104829 0.0315404 0.032929
0.130724 0.0290837 0.0340581
0.163745 0.0173953 0.0214694
0.203006 0.00271611 0.00335698
0.247166 0 0
0.294545 0 0
0.348913 0 0
0.398901 0 0
0.434485 0 0
0.472557 0 0
0.512901 0 0
0.533776 0 0
0.549813 0 0
0.566888 0 0
0.582254 0 0
0.590646 0 0
0.598184 0 0
0.603555 0 0
0.60856 0 0
0.612085 0 0
0.615259 0 0
0.617166 0 0
0.617166 0 0
0.617166 0 0
0.617166 0 0
0.617166 0 0
0 0 0
0 0 0
0.0186923 0.00669871 0.0151675
0.0350805 0.0192264 0.0262608
0.0492714 0.0256199 0.0309911
0.0612497 0.0300603 0.033341
0.0794232 0.0314336 0.0328527
0.100282 0.0319982 0.0327153
0.127092 0.0294194 0.0339055
0.159915 0.0192874 0.0238193
0.199969 0.00369268 0.00454719
0.244526 0 0
0.292378 0 0
0.347189 0 0
0.398077 0 0
0.433753 0 0
0.472007 0 0
0.512489 0 0
0.533669 0 0
0.549691 0 0
0.566827 0 0
0.582223 0 0
0.590616 0 0
0.598184 0 0
0.603555 0 0
0.60856 0 0
0.61207 0 0
0.615244 0 0
0.617166 0 0
0.617166 0 0
0.617166 0 0
0.617166 0 0
0.617166 0 0
0.0164492 0.0256352 0.0217746
0.0159915 0.0248722 0.0210574
0.0172274 0.0218051 0.0197299
0.0341192 0.0247196 0.0276341
0.0487984 0.0311589 0.0333867
0.0606241 0.034287 0.0343633
0.0782635 0.0338293 0.0342412
0.0975509 0.0337987 0.0331273
0.123369 0.0297551 0.0337377
0.156085 0.0211948 0.026154
0.196918 0.004654 0.00573739
0.242039 0 0
0.290272 0 0
0.34548 0 0
0.397238 0 0
0.433143 0 0
0.471473 0 0
0.512062 0 0
0.533501 0 0
0.54963 0 0
0.566705 0 0
0.582193 0 0
0.590585 0 0
0.598169 0 0
0.60354 0 0
0.608545 0 0
0.61207 0 0
0.615244 0 0
0.617166 0 0
0.617166 0 0
0.617166 0 0
0.617166 0 0
0.617166 0 0
0.022797 0.0383307 0.0326085
0.0225376 0.0376287 0.032105
0.0222477 0.0368811 0.0315557
0.0350195 0.0383917 0.033341
0.0504768 0.0439918 0.0389563
0.0629435 0.0475624 0.0398108
0.0803082 0.0497444 0.0394598
0.105882 0.0515145 0.0386969
0.1364 0.0512245 0.0347906
0.170474 0.046952 0.0277409
0.211749 0.0197452 0.00700389
0.251499 0 0
0.288334 0 0
0.343572 0 0
0.396399 0 0
0.432532 0 0
0.470924 0 0
0.51165 0 0
0.533394 0 0
0.549508 0 0
0.566644 0 0
0.582162 0 0
0.590555 0 0
0.598169 0 0
0.60354 0 0
0.608545 0 0
0.61207 0 0
0.615244 0 0
0.617166 0 0
0.617166 0 0
0.617166 0 0
0.617166 0 0
0.617166 0 0
0.0242008 0.0506447 0.0400702
0.0246433 0.049958 0.0398718
0.0251011 0.0492256 0.0396735
0.0338598 0.0515602 0.0398718
0.0514839 0.055024 0.0411536
0.0669566 0.0598306 0.0421912
0.082826 0.0647746 0.0425574
0.110582 0.0686656 0.0412757
0.14313 0.0720531 0.0338445
0.179492 0.0715648 0.0256657
0.227619 0.0600137 0.00767529
0.274601 0.0318303 0
0.320287 0.00144961 0
0.361715 0 0
0.39556 0 0
0.431922 0 0
0.470375 0 0
0.511238 0 0
0.533272 0 0
0.549401 0 0
0.566567 0 0
0.582132 0 0
0.590555 0 0
0.598138 0 0
0.60351 0 0
0.60853 0 0
0.612055 0 0
0.615228 0 0
0.617166 0 0
0.617166 0 0
0.617166 0 0
0.617166 0 0
0.617166 0 0
0.0169528 0.0625162 0.0434424
0.017258 0.0619669 0.0432898
0.0175937 0.0613718 0.043122
0.024094 0.0618143 0.0429999
0.0446784 0.0667735 0.0431983
0.0638132 0.0721294 0.043061
0.0810254 0.0771954 0.0435035
0.112657 0.0831006 0.0400244
0.147616 0.0877089 0.0276188
0.185367 0.0910201 0.0181735
0.238605 0.0846418 0.00721752
0.290043 0.0632029 0
0.341863 0.0263371 0
0.392828 0 0
0.431006 0 0
0.431189 0 0
0.469825 0 0
0.510811 0 0
0.533165 0 0
0.549279 0 0
0.566445 0 0
0.582101 0 0
0.590524 0 0
0.598123 0 0
0.60351 0 0
0.60853 0 0
0.612055 0 0
0.615228 0 0
0.617166 0 0
0.617166 0 0
0.617166 0 0
0.617166 0 0
0.617166 0 0
0.00956741 0.0762188 0.0457008
0.00987259 0.0756085 0.045655
0.010193 0.0749981 0.0456092
0.010544 0.0743267 0.0455634
0.03505 0.0783856 0.0457313
0.0562905 0.0849012 0.0446784
0.0789197 0.0903792 0.0435492
0.110536 0.0967575 0.0399786
0.148699 0.102876 0.0284581
0.190524 0.107958 0.0080415
0.248737 0.106874 0.00349432
0.306722 0.0992142 0
0.36286 0.0733654 0
0.419257 0.0206607 0
0.465446 0 0
0.481498 0 0
0.472114 0 0
0.510262 0 0
0.532998 0 0
0.549172 0 0
0.566384 0 0
0.582071 0 0
0.590494 0 0
0.598123 0 0
0.603494 0 0
0.608499 0 0
0.612055 0 0
0.615228 0 0
0.617166 0 0
0.617166 0 0
0.617166 0 0
0.617166 0 0
0.617166 0 0
0.00231937 0.0935531 0.046952
0.00248722 0.0930343 0.0469062
0.00265507 0.0925307 0.0468757
0.00282292 0.0920119 0.0468452
0.00299077 0.0930037 0.0467689
0.038941 0.0991684 0.0465248
0.0724041 0.107393 0.0432288
0.105806 0.115114 0.0382696
0.14786 0.123842 0.0292668
0.196704 0.131609 0.00627146
0.256855 0.136309 0.00218204
0.32047 0.132586 0
0.382513 0.120867 0
0.445136 0.07393 0
0.502449 0.0144961 0
0.523827 0 0
0.536416 0 0
0.520912 0 0
0.532769 0 0
0.549004 0 0
0.566262 0 0
0.58201 0 0
0.590463 0 0
0.598093 0 0
0.603464 0 0
0.608499 0 0
0.612039 0 0
0.615213 0 0
0.617166 0 0
0.617166 0 0
0.617166 0 0
0.617166 0 0
0.617166 0 0
0 0.112902 0.046952
0 0.112474 0.0469673
0 0.112047 0.0469825
0 0.11162 0.047013
0 0.111192 0.0470283
0.00120546 0.115099 0.0463722
0.0524758 0.123857 0.0446326
0.0936904 0.133501 0.0364233
0.142229 0.145739 0.0234226
0.197543 0.157046 0.00793469
0.26157 0.164858 0
0.330755 0.167971 0
0.398779 0.163455 0
0.466209 0.150179 0
0.531518 0.100618 0
0.562676 0.0500649 0
0.585779 0 0
0.594705 0 0
0.556115 0 0
0.548836 0 0
0.566079 0 0
0.581949 0 0
0.590402 0 0
0.598047 0 0
0.603449 0 0
0.608484 0 0
0.612024 0 0
0.615213 0 0
0.617166 0 0
0.617166 0 0
0.617166 0 0
0.617166 0 0
0.617166 0 0
0 0.13402 0.0461433
0 0.133654 0.0461585
0 0.133349 0.0461738
0 0.132982 0.0461891
0 0.132616 0.0462043
0 0.132311 0.0462196
0.000701915 0.139116 0.0440681
0.0734874 0.152834 0.0349737
0.129488 0.168566 0.0120851
0.191714 0.185504 0.00526436
0.26154 0.19942 0
0.340047 0.208804 0
0.414038 0.210666 0
0.487648 0.205875 0
0.558465 0.188754 0
0.593729 0.164767 0
0.624949 0.116823 0
0.649989 0.0390784 0
0.641306 0 0
0.589517 0 0
0.565835 0 0
0.581842 0 0
0.590341 0 0
0.598001 0 0
0.603418 0 0
0.608469 0 0
0.612024 0 0
0.615198 0 0
0.617166 0 0
0.617166 0 0
0.617166 0 0
0.617166 0 0
0.617166 0 0
0 0.160143 0.03682
0 0.159777 0.0369726
0 0.159503 0.0370947
0 0.159121 0.0372473
0 0.158846 0.0373541
0 0.15848 0.0375067
0 0.158099 0.0376593
0.000946059 0.170291 0.0216678
0.0937667 0.191852 0.013901
0.172213 0.214862 0
0.250568 0.236851 0
0.342565 0.252399 0
0.425574 0.260288 0
0.50457 0.260746 0
0.583169 0.25388 0
0.625162 0.239002 0
0.661097 0.215915 0
0.693477 0.173281 0
0.698528 0.104982 0
0.68188 0.0179141 0
0.626612 0 0
0.58172 0 0
0.590204 0 0
0.597955 0 0
0.603372 0 0
0.608438 0 0
0.611978 0 0
0.615183 0 0
0.617166 0 0
0.617166 0 0
0.617166 0 0
0.617166 0 0
0.617166 0 0
0 0.188525 0.0256962
0 0.188205 0.0258793
0 0.188006 0.0260166
0 0.187686 0.0261997
0 0.187488 0.0263218
0 0.187167 0.0265202
0 0.186862 0.0267033
0 0.18645 0.0269627
0.000137331 0.209171 0.000335698
0.128786 0.241794 0.000503548
0.231083 0.273121 0
0.333028 0.297688 0
0.42977 0.31342 0
0.518166 0.321889 0
0.603479 0.323705 0
0.655131 0.315984 0
0.694957 0.301015 0
0.73344 0.278599 0
0.747509 0.243397 0
0.742565 0.179446 0
0.723415 0.0675517 0
0.669444 0 0
0.590082 0 0
0.597894 0 0
0.603311 0 0
0.608392 0 0
0.611963 0 0
0.615167 0 0
0.617166 0 0
0.617166 0 0
0.617166 0 0
0.617166 0 0
0.617166 0 0
0 0.219272 0.00830091
0 0.219059 0.00839246
0 0.218845 0.00846876
0 0.218631 0.00856031
0 0.218418 0.00865187
0 0.218204 0.00872816
0 0.21799 0.00881971
0 0.217563 0.00898756
0 0.217136 0.00915541
0.0112764 0.252628 0
0.181201 0.296345 0
0.304204 0.335225 0
0.421012 0.360815 0
0.520531 0.375738 0
0.614893 0.385275 0
0.67892 0.385458 0
0.723842 0.3785 0
0.768475 0.368902 0
0.791836 0.349386 0
0.793713 0.31487 0
0.788144 0.264271 0
0.768582 0.152636 0
0.711269 0.00260929 0
0.597787 0 0
0.60325 0 0
0.608316 0 0
0.611917 0 0
0.615122 0 0
0.617166 0 0
0.617166 0 0
0.617166 0 0
0.617166 0 0
0.617166 0 0
0 0.251987 0
0 0.251743 0
0 0.251637 0
0 0.251392 0
0 0.251286 0
0 0.251041 0
0 0.250813 0
0 0.250568 0
0 0.250217 0
0 0.249638 0
0.0417639 0.302068 0
0.246571 0.361013 0
0.392691 0.402182 0
0.512139 0.426047 0
0.616861 0.441184 0
0.695766 0.4477 0
0.745998 0.446036 0
0.793927 0.441627 0
0.824842 0.431556 0
0.834272 0.413001 0
0.838956 0.386892 0
0.836301 0.343252 0
0.809934 0.263401 0
0.756741 0.0605173 0
0.603128 0 0
0.608255 0 0
0.611856 0 0
0.615076 0 0
0.617166 0 0
0.617166 0 0
0.617166 0 0
0.617166 0 0
0.617166 0 0
0 0.28719 0
0 0.287068 0
0 0.286946 0
0 0.286824 0
0 0.286702 0
0 0.28658 0
0 0.286336 0
0 0.286213 0
0 0.285847 0
0 0.285496 0
0 0.285008 0
0.0722667 0.362387 0
0.32665 0.434714 0
0.488548 0.475975 0
0.613428 0.500237 0
0.713802 0.514397 0
0.766567 0.514382 0
0.819974 0.516106 0
0.856062 0.509804 0
0.868147 0.497673 0
0.87715 0.480339 0
0.881956 0.454887 0
0.873625 0.416999 0
0.854383 0.355322 0
0.806561 0.22533 0
0.697078 0 0
0.611795 0 0
0.61503 0 0
0.617166 0 0
0.617166 0 0
0.617166 0 0
0.617166 0 0
0.617166 0 0
0 0.315969 0
0 0.315892 0
0 0.315801 0
0 0.315724 0
0 0.315648 0
0 0.315648 0
0 0.315557 0
0 0.315389 0
0 0.315236 0
0 0.315068 0
0 0.314824 0
0 0.314412 0
0.163821 0.421164 0
0.419791 0.501793 0
0.58291 0.541497 0
0.713832 0.567529 0
0.78027 0.574456 0
0.83743 0.580026 0
0.886137 0.584772 0
0.900862 0.579782 0
0.912596 0.568811 0
0.921721 0.552773 0
0.918334 0.527092 0
0.910338 0.491386 0
0.891814 0.436988 0
0.859541 0.34995 0
0.787533 0.127886 0
0.614939 0 0
0.617166 0 0
0.617166 0 0
0.617166 0 0
0.617166 0 0
0.617166 0 0
0 0.340246 0
0 0.340169 0
0 0.340169 0
0 0.340078 0
0 0.340002 0
0 0.340002 0
0 0.33991 0
0 0.339834 0
0 0.339666 0
0 0.33959 0
0 0.33933 0
0 0.339086 0
0 0.338674 0
0.247669 0.478294 0
0.50988 0.557977 0
0.674281 0.595773 0
0.77734 0.614511 0
0.840803 0.62211 0
0.89897 0.629328 0
0.918013 0.628397 0
0.933455 0.625025 0
0.947814 0.620691 0
0.952483 0.611704 0
0.953552 0.598733 0
0.944778 0.567742 0
0.929335 0.520806 0
0.90573 0.45716 0
0.866804 0.357519 0
0.778866 0.0893568 0
0.617166 0 0
0.617166 0 0
0.617166 0 0
0.617166 0 0
0 0.365988 0
0 0.365988 0
0 0.365911 0
0 0.365911 0
0 0.36582 0
0 0.36582 0
0 0.365728 0
0 0.365637 0
0 0.365545 0
0 0.365454 0
0 0.365286 0
0 0.365011 0
0 0.364752 0
0 0.364401 0
0.336522 0.539574 0
0.6047 0.616007 0
0.765255 0.650828 0
0.839368 0.661845 0
0.904875 0.672129 0
0.931945 0.673274 0
0.950439 0.672709 0
0.965713 0.670359 0
0.972534 0.664439 0
0.975692 0.65568 0
0.974578 0.643046 0
0.970947 0.625223 0
0.964767 0.604181 0
0.950408 0.563622 0
0.92604 0.49926 0
0.890227 0.411032 0
0.828244 0.259709 0
0.701076 0 0
0.617166 0 0
0 0.390433 0
0 0.390433 0
0 0.390433 0
0 0.390402 0
0 0.390402 0
0 0.390402 0
0 0.390372 0
0 0.390326 0
0 0.390326 0
0 0.390295 0
0 0.390234 0
0 0.390158 0
0 0.390097 0
0 0.389944 0
0 0.389807 0
0.441123 0.604654 0
0.705623 0.674891 0
0.828565 0.698741 0
0.904204 0.712215 0
0.946746 0.717861 0
0.965194 0.717266 0
0.981933 0.71635 0
0.990799 0.713054 0
0.993896 0.70724 0
0.995651 0.697612 0
0.994675 0.687022 0
0.991836 0.674464 0
0.988022 0.65832 0
0.981933 0.639338 0
0.972381 0.615488 0
0.957351 0.577661 0
0.935225 0.522026 0
0.910384 0.460502 0
0 0.400381 0
0 0.400351 0
0 0.400351 0
0 0.400351 0
0 0.400351 0
0 0.40032 0
0 0.40032 0
0 0.40032 0
0 0.400275 0
0 0.400244 0
0 0.400214 0
0 0.400183 0
0 0.400107 0
0 0.4 0
0 0.399893 0
0 0.399725 0
0.53872 0.647181 0
0.786358 0.708049 0
0.879194 0.724575 0
0.946593 0.737819 0
0.968734 0.739849 0
0.988174 0.742138 0
0.999039 0.743069 0
1 0.742565 0
1 0.740353 0
1 0.736492 0
1 0.731319 0
1 0.721782 0
1 0.710185 0
0.998596 0.695888 0
0.995819 0.680568 0
0.992096 0.664897 0
0.985931 0.649378 0
0 0.410422 0
0 0.410422 0
0 0.410376 0
0 0.410376 0
0 0.410376 0
0 0.410376 0
0 0.410376 0
0 0.410346 0
0 0.410346 0
0 0.4103 0
0 0.410269 0
0 0.410224 0
0 0.410193 0
0 0.410117 0
0 0.409995 0
0 0.409888 0
0 0.409705 0
0.635309 0.687312 0
0.836789 0.731868 0
0.930831 0.749935 0
0.96669 0.755459 0
0.988983 0.758541 0
0.999969 0.760479 0
1 0.760281 0
1 0.759304 0
1 0.757259 0
1 0.754818 0
1 0.752499 0
1 0.750591 0
1 0.747005 0
1 0.74316 0
1 0.739376 0
1 0.731182 0
0 0.420798 0
0 0.420798 0
0 0.420798 0
0 0.420798 0
0 0.420798 0
0 0.420752 0
0 0.420752 0
0 0.420752 0
0 0.420752 0
0 0.420722 0
0 0.420676 0
0 0.420676 0
0 0.4206 0
0 0.420569 0
0 0.420493 0
0 0.420371 0
0 0.420264 0
0 0.477607 0
0.735912 0.723476 0
0.891325 0.755673 0
0.961868 0.768643 0
0.988113 0.772259 0
0.999985 0.775265 0
1 0.775998 0
1 0.775631 0
1 0.774578 0
1 0.773449 0
1 0.772213 0
1 0.770626 0
1 0.768261 0
1 0.765743 0
1 0.763241 0
1 0.760845 0
0 0.42829 0
0 0.42829 0
0 0.42829 0
0 0.428275 0
0 0.428275 0
0 0.428275 0
0 0.428275 0
0 0.428275 0
0 0.428275 0
0 0.42826 0
0 0.42826 0
0 0.428244 0
0 0.428229 0
0 0.428214 0
0 0.428183 0
0 0.428153 0
0 0.428138 0
0 0.428077 0
0.183963 0.569696 0
0.8168 0.751797 0
0.945678 0.777356 0
0.983734 0.783459 0
0.999649 0.787335 0
1 0.78938 0
1 0.790463 0
1 0.790112 0
1 0.789227 0
1 0.788647 0
1 0.787747 0
1 0.78616 0
1 0.784405 0
1 0.782696 0
1 0.78114 0
0 0.431952 0
0 0.431952 0
0 0.431937 0
0 0.431937 0
0 0.431937 0
0 0.431937 0
0 0.431937 0
0 0.431937 0
0 0.431937 0
0 0.431922 0
0 0.431922 0
0 0.431907 0
0 0.431907 0
0 0.431891 0
0 0.431876 0
0 0.431846 0
0 0.43183 0
0 0.431785 0
0 0.431724 0
0.439033 0.658061 0
0.876768 0.770123 0
0.972503 0.788373 0
0.999588 0.793194 0
1 0.796139 0
1 0.797513 0
1 0.797848 0
1 0.797711 0
1 0.797986 0
1 0.798169 0
1 0.797848 0
1 0.797177 0
1 0.796536 0
1 0.795941 0
0 0.435462 0
0 0.435462 0
0 0.435462 0
0 0.435462 0
0 0.435462 0
0 0.435462 0
0 0.435462 0
0 0.435462 0
0 0.435447 0
0 0.435447 0
0 0.435447 0
0 0.435447 0
0 0.435431 0
0 0.435416 0
0 0.435401 0
0 0.435386 0
0 0.435355 0
0 0.435325 0
0 0.435279 0
0 0.435218 0
0.649042 0.724208 0
0.937697 0.787503 0
0.992111 0.797162 0
1 0.801984 0
1 0.803494 0
1 0.804318 0
1 0.804761 0
1 0.805188 0
1 0.805493 0
1 0.805493 0
1 0.804944 0
1 0.804456 0
1 0.804028 0
0 0.438819 0
0 0.438819 0
0 0.438819 0
0 0.438819 0
0 0.438819 0
0 0.438819 0
0 0.438819 0
0 0.438819 0
0 0.438819 0
0 0.438804 0
0 0.438804 0
0 0.438804 0
0 0.438788 0
0 0.438788 0
0 0.438773 0
0 0.438758 0
0 0.438743 0
0 0.438712 0
0 0.438666 0
0 0.438621 0
0 0.43856 0
0.810941 0.765484 0
0.974792 0.797833 0
1 0.803738 0
1 0.80679 0
1 0.808026 0
1 0.808637 0
1 0.809018 0
1 0.809461 0
1 0.809934 0
1 0.80972 0
1 0.809506 0
1 0.809308 0
0 0.441871 0
0 0.441871 0
0 0.441871 0
0 0.441871 0
0 0.441871 0
0 0.441871 0
0 0.441871 0
0 0.441871 0
0 0.441871 0
0 0.441871 0
0 0.441871 0
0 0.441871 0
0 0.441871 0
0 0.441855 0
0 0.44184 0
0 0.44184 0
0 0.44181 0
0 0.44181 0
0 0.441779 0
0 0.441764 0
0 0.441703 0
0 0.441642 0
0.900664 0.786725 0
0.994965 0.804639 0
1 0.809506 0
1 0.811231 0
1 0.812024 0
1 0.812558 0
1 0.812924 0
1 0.81326 0
1 0.813214 0
1 0.813046 0
1 0.812894 0
0 0.444114 0
0 0.444114 0
0 0.444114 0
0 0.444114 0
0 0.444114 0
0 0.444114 0
0 0.444114 0
0 0.444114 0
0 0.444099 0
