LUT/LogC3/709/looks/Alexa_LogC3_709_D50_Kodak_B.cube
LUT_3D_SIZE 9
0 0 0
0.0533913 0.0251926 0.0269932
0.130617 0.0269017 0.0288701
0.29453 0 0
0.472496 0 0
0.566873 0 0
0.603555 0 0
0.617166 0 0
0.617166 0 0
0.0241703 0.0468452 0.0339666
0.0514229 0.0509194 0.0348669
0.14287 0.0666361 0.0286259
0.320226 0.0011902 0
0.470314 0 0
0.566567 0 0
0.60351 0 0
0.617166 0 0
0.617166 0 0
0 0.104417 0.0397955
0 0.102846 0.0398566
0.142138 0.134813 0.0192874
0.398596 0.151278 0
0.585718 0 0
0.566064 0 0
0.603449 0 0
0.617166 0 0
0.617166 0 0
0 0.202853 0.00622568
0 0.20206 0.00648508
0 0.200855 0.00686656
0.420798 0.3337 0
0.723812 0.350195 0
0.788098 0.244358 0
0.60325 0 0
0.617166 0 0
0.617166 0 0
0 0.3149 0
0 0.314672 0
0 0.314366 0
0 0.313436 0
0.777218 0.568719 0
0.93344 0.578424 0
0.944762 0.525368 0
0.778866 0.0822461 0
0.617166 0 0
0 0.379873 0
0 0.379843 0
0 0.379797 0
0 0.37966 0
0 0.379202 0
0.96669 0.699229 0
1 0.70277 0
1 0.694713 0
1 0.676738 0
0 0.403037 0
0 0.403037 0
0 0.403021 0
0 0.403021 0
0 0.402945 0
0.649027 0.670298 0
1 0.743694 0
1 0.745525 0
1 0.744167 0
0 0.412879 0
0 0.412879 0
0 0.412879 0
0 0.412879 0
0 0.412848 0
0 0.412772 0
0.997482 0.748974 0
1 0.756313 0
1 0.756649 0
0 0.414527 0
0 0.414527 0
0 0.414527 0
0 0.414527 0
0 0.414527 0
0 0.414527 0
0 0.414527 0
1 0.757977 0
1 0.758923 0
0.0161135 0.0218814 0.0366827
0.0517128 0.0323186 0.0489967
0.138293 0.0261845 0.0562753
0.306706 0 0.0378882
0.481071 0 0
0.566812 0 0
0.603555 0 0
0.617166 0 0
0.617166 0 0
0.0156252 0.0430152 0.0488899
0.0454108 0.0459449 0.0502174
0.143084 0.0561227 0.054612
0.306722 0 0.00827039
0.471443 0 0
0.566506 0 0
0.60351 0 0
0.617166 0 0
0.617166 0 0
0 0.101442 0.0489357
0 0.099321 0.0479133
0.139193 0.128496 0.0369268
0.393179 0.139574 0
0.570001 0 0
0.566003 0 0
0.603449 0 0
0.617166 0 0
0.617166 0 0
0 0.199863 0.007187
0 0.199069 0.00743114
0 0.197879 0.00781262
0.416297 0.328374 0
0.72047 0.343908 0
0.781964 0.231312 0
0.60322 0 0
0.617166 0 0
0.617166 0 0
0 0.314137 0
0 0.313985 0
0 0.31368 0
0 0.312749 0
0.776196 0.567437 0
0.932754 0.576928 0
0.943175 0.521706 0
0.769574 0.0583352 0
0.617166 0 0
0 0.379767 0
0 0.379736 0
0 0.37969 0
0 0.379553 0
0 0.379095 0
0.966567 0.699077 0
1 0.702571 0
1 0.694514 0
1 0.676112 0
0 0.403021 0
0 0.403021 0
0 0.403021 0
0 0.403006 0
0 0.40293 0
0.646983 0.669764 0
1 0.743679 0
1 0.74551 0
1 0.744121 0
0 0.412879 0
0 0.412879 0
0 0.412879 0
0 0.412879 0
0 0.412848 0
0 0.412772 0
0.997467 0.748959 0
1 0.756298 0
1 0.756634 0
0 0.414527 0
0 0.414527 0
0 0.414527 0
0 0.414527 0
0 0.414527 0
0 0.414527 0
0 0.414527 0
1 0.757961 0
1 0.758923 0
0 0.0287022 0.0914931
0.0429236 0.0341192 0.107454
0.139376 0.0203403 0.125353
0.318807 0 0.131167
0.496529 0 0.115084
0.583093 0 0.0403601
0.60354 0 0
0.617166 0 0
0.617166 0 0
0 0.0387579 0.0977646
0.017319 0.0368811 0.098146
0.120867 0.03093 0.115267
0.309514 0 0.122042
0.493416 0 0.103304
0.581064 0 0.017258
0.603494 0 0
0.617166 0 0
0.617166 0 0
0 0.110719 0.126497
0 0.108644 0.125154
0.126284 0.137011 0.140154
0.414145 0.137224 0.137652
0.57174 0 0.0955062
0.577569 0 0
0.603418 0 0
0.617166 0 0
0.617166 0 0
0 0.218891 0.0944991
0 0.217533 0.0932937
0 0.215518 0.0913863
0.437354 0.348989 0.00215152
0.743816 0.350637 0
0.77229 0.207507 0
0.60322 0 0
0.617166 0 0
0.617166 0 0
0 0.313054 0
0 0.312825 0
0 0.31252 0
0 0.311589 0
0.774777 0.565408 0
0.931594 0.574502 0
0.940826 0.51632 0
0.754314 0.0276799 0
0.617166 0 0
0 0.379599 0
0 0.379553 0
0 0.379522 0
0 0.379385 0
0 0.378927 0
0.966339 0.698817 0
1 0.702266 0
1 0.694163 0
1 0.674968 0
0 0.403006 0
0 0.403006 0
0 0.403006 0
0 0.402975 0
0 0.402899 0
0.643458 0.668833 0
1 0.743633 0
1 0.745449 0
1 0.744076 0
0 0.412879 0
0 0.412879 0
0 0.412863 0
0 0.412863 0
0 0.412848 0
0 0.412757 0
0.997452 0.748943 0
1 0.756283 0
1 0.756619 0
0 0.414527 0
0 0.414527 0
0 0.414527 0
0 0.414527 0
0 0.414527 0
0 0.414527 0
0 0.414527 0
1 0.757961 0
1 0.758923 0
0 0.0107424 0.199344
0 0.0104067 0.210895
0.11577 0 0.241794
0.317113 0 0.267124
0.503502 0 0.2748
0.59501 0 0.266896
0.626673 0 0.218936
0.627726 0 0
0.617166 0 0
0 0.0126345 0.196674
0 0.0128481 0.196384
0.0914931 0 0.233494
0.308019 0 0.263111
0.501366 0 0.271046
0.594644 0 0.262852
0.626398 0 0.21265
0.625452 0 0
0.617166 0 0
0 0.0872206 0.244923
0 0.0835737 0.2421
0.0206607 0.0892958 0.275837
0.348943 0 0.299123
0.498009 0 0.265232
0.594003 0 0.256123
0.62594 0 0.202548
0.619745 0 0
0.617166 0 0
0 0.256489 0.29897
0 0.255329 0.298299
0 0.253285 0.297139
0.40267 0.3738 0.360662
0.732723 0.364904 0.35668
0.769848 0.186114 0.316091
0.623713 0 0.162234
0.617166 0 0
0.617166 0 0
0 0.382055 0.232959
0 0.381567 0.232044
0 0.380926 0.230823
0 0.378714 0.226444
0.790387 0.63473 0.127474
0.948669 0.627451 0
0.932876 0.498009 0
0.684199 0 0
0.617166 0 0
0 0.379065 0
0 0.379034 0
0 0.379004 0
0 0.378851 0
0 0.378393 0
0.965728 0.698009 0
1 0.701381 0
1 0.693049 0
1 0.671275 0
0 0.40293 0
0 0.402914 0
0 0.402914 0
0 0.402884 0
0 0.402838 0
0.632929 0.666041 0
1 0.743542 0
1 0.745296 0
1 0.743893 0
0 0.412848 0
0 0.412848 0
0 0.412848 0
0 0.412833 0
0 0.412802 0
0 0.412726 0
0.997375 0.748867 0
1 0.756252 0
1 0.756603 0
0 0.414527 0
0 0.414527 0
0 0.414527 0
0 0.414527 0
0 0.414527 0
0 0.414527 0
0 0.414527 0
1 0.757961 0
1 0.758923 0
0 0 0.301595
0 0 0.301518
0.0165713 0 0.340505
0.302678 0 0.389883
0.506188 0 0.409049
0.599725 0 0.414969
0.631922 0 0.413306
0.642176 0 0.401389
0.64181 0 0.371847
0 0 0.301091
0 0 0.30103
0 0 0.330343
0.292287 0 0.388113
0.50396 0 0.408072
0.59939 0 0.414069
0.631815 0 0.412451
0.6421 0 0.400397
0.641794 0 0.369909
0 0 0.300221
0 0 0.30016
0 0 0.312428
0.275547 0 0.385061
0.500557 0 0.406638
0.598871 0 0.412787
0.631647 0 0.411078
0.641962 0 0.398825
0.641794 0 0.366995
0 0.199969 0.424414
0 0.197803 0.423301
0 0.194232 0.421485
0.287678 0.251453 0.511681
0.642893 0.141314 0.525231
0.597223 0 0.408698
0.631113 0 0.40679
0.64184 0 0.391852
0.641764 0 0.357427
0 0.435554 0.498024
0 0.435279 0.497856
0 0.434821 0.497627
0 0.433417 0.496788
0.749859 0.676188 0.603067
0.918929 0.671748 0.600229
0.920897 0.562661 0.573831
0.641794 0 0.365332
0.641443 0 0.320455
0 0.505043 0.446647
0 0.504936 0.446326
0 0.504814 0.445869
0 0.504372 0.444602
0 0.502968 0.440284
0.953109 0.820325 0.507256
1 0.814435 0.452583
1 0.779065 0.266896
1 0.659175 0
0 0.402686 0
0 0.402686 0
0 0.40267 0
0 0.402655 0
0 0.402579 0
0.596613 0.656458 0
1 0.743236 0
1 0.744778 0
1 0.743374 0
0 0.412757 0
0 0.412757 0
0 0.412757 0
0 0.412741 0
0 0.412726 0
0 0.412634 0
0.997131 0.748638 0
1 0.756161 0
1 0.756512 0
0 0.414527 0
0 0.414527 0
0 0.414527 0
0 0.414527 0
0 0.414527 0
0 0.414527 0
0 0.414527 0
1 0.757961 0
1 0.758923 0
0 0 0.359625
0 0 0.359579
0 0 0.359579
0.217945 0 0.448676
0.500343 0 0.486305
0.606363 0 0.498619
0.640345 0 0.502327
0.652003 0 0.503502
0.651667 0 0.500786
0 0 0.359518
0 0 0.359518
0 0 0.359487
0.19765 0 0.444984
0.498054 0 0.485908
0.606058 0 0.498451
0.640284 0 0.50219
0.651987 0 0.503365
0.651652 0 0.500648
0 0 0.35935
0 0 0.35935
0 0 0.35935
0.164813 0 0.438605
0.494545 0 0.485313
0.605646 0 0.498161
0.640208 0 0.501961
0.651957 0 0.503151
0.651621 0 0.500435
0 0 0.358877
0 0 0.358877
0 0 0.358877
0.000106813 0 0.409369
0.482918 0 0.483436
0.604242 0 0.497337
0.639963 0 0.50132
0.651865 0 0.502449
0.65153 0 0.499687
0 0.379721 0.570672
0 0.37882 0.570367
0 0.377661 0.569924
0 0.373648 0.568475
0.665171 0.551568 0.703807
0.850202 0.491142 0.703517
0.639155 0 0.499168
0.651606 0 0.500313
0.65124 0 0.497383
0 0.537697 0.616098
0 0.537667 0.616083
0 0.537606 0.616068
0 0.537438 0.615915
0 0.536934 0.615503
0.923949 0.841932 0.748608
0.984329 0.841962 0.74847
0.989914 0.81976 0.74197
0.977798 0.768246 0.729046
0 0.558175 0.600488
0 0.55816 0.600397
0 0.558129 0.600305
0 0.558083 0.600137
0 0.5579 0.59942
0.199969 0.775799 0.68777
0.99321 0.887343 0.715434
1 0.886641 0.704738
1 0.883238 0.688045
0 0.412482 0
0 0.412482 0
0 0.412482 0
0 0.412467 0
0 0.412436 0
0 0.41236 0
0.995315 0.747921 0
1 0.755856 0
1 0.756252 0
0 0.414527 0
0 0.414527 0
0 0.414527 0
0 0.414527 0
0 0.414527 0
0 0.414527 0
0 0.414527 0
1 0.757931 0
1 0.758923 0
0 0 0.387442
0 0 0.387442
0 0 0.387442
0 0 0.387427
0.459709 0 0.5178
0.604608 0 0.535409
0.644327 0 0.541756
0.656809 0 0.544121
0.656733 0 0.543542
0 0 0.387427
0 0 0.387427
0 0 0.387427
0 0 0.387411
0.456672 0 0.517418
0.604288 0 0.535348
0.644282 0 0.541726
0.656794 0 0.544091
0.656733 0 0.543526
0 0 0.387396
0 0 0.387396
0 0 0.387396
0 0 0.387396
0.451774 0 0.516793
0.603815 0 0.535225
0.644221 0 0.541695
0.656794 0 0.54403
0.656733 0 0.543465
0 0 0.387304
0 0 0.387304
0 0 0.387304
0 0 0.387304
0.428489 0 0.513726
0.602243 0 0.53489
0.644007 0 0.541512
0.656779 0 0.543893
0.656718 0 0.543328
0 0 0.38703
0 0 0.38703
0 0 0.38703
0 0 0.387015
0.299763 0 0.495155
0.597131 0 0.533761
0.643366 0 0.540993
0.656733 0 0.543435
0.656657 0 0.54287
0 0.520974 0.648539
0 0.520806 0.648493
0 0.520546 0.648417
0 0.51986 0.648188
0 0.517464 0.64744
0.888426 0.793088 0.797559
0.960052 0.775723 0.797757
0.944656 0.674891 0.784222
0.6701 0 0.555871
0 0.569757 0.661646
0 0.569741 0.661631
0 0.569741 0.661616
0 0.569711 0.661601
0 0.569619 0.661524
0 0.569375 0.661265
0.980529 0.895155 0.810788
0.999054 0.895613 0.811109
1 0.893767 0.810086
0 0.576242 0.660456
0 0.576242 0.660456
0 0.576226 0.660426
0 0.576226 0.660426
0 0.576196 0.660349
0 0.57612 0.660151
0.930922 0.898894 0.803571
0.999435 0.906767 0.805615
1 0.906477 0.804364
0 0.575097 0.648646
0 0.575097 0.648646
0 0.575097 0.648615
0 0.575082 0.648585
0 0.575067 0.648478
0 0.57499 0.648142
0 0.574807 0.647242
0.997482 0.906416 0.78645
1 0.906569 0.784955
0 0 0.399451
0 0 0.399451
0 0 0.399451
0 0 0.399451
0.178286 0 0.488792
0.599939 0 0.550835
0.648798 0 0.55848
0.662348 0 0.560876
0.662272 0 0.560723
0 0 0.399451
0 0 0.399451
0 0 0.399451
0 0 0.399435
0.154879 0 0.484184
0.599557 0 0.550774
0.648753 0 0.558465
0.662333 0 0.560876
0.662272 0 0.560708
0 0 0.399435
0 0 0.399435
0 0 0.399435
0 0 0.399435
0.107622 0 0.476204
0.598886 0 0.550668
0.648692 0 0.55845
0.662287 0 0.560845
0.662257 0 0.560678
0 0 0.39942
0 0 0.399405
0 0 0.399405
0 0 0.399405
0 0 0.436149
0.596872 0 0.550332
0.648478 0 0.558358
0.662226 0 0.5608
0.662242 0 0.560647
0 0 0.399313
0 0 0.399313
0 0 0.399313
0 0 0.399313
0 0 0.399298
0.590112 0 0.549294
0.647822 0 0.558129
0.661936 0 0.560601
0.662196 0 0.56051
0 0 0.398993
0 0 0.398993
0 0 0.398993
0 0 0.398993
0 0 0.398993
0.548852 0 0.543236
0.645747 0 0.557366
0.661112 0 0.560037
0.662013 0 0.560098
0 0.56846 0.671412
0 0.568444 0.671397
0 0.568429 0.671397
0 0.568414 0.671382
0 0.568322 0.671336
0 0.568048 0.671214
0.971832 0.888365 0.829862
0.993927 0.886656 0.829648
0.994873 0.880339 0.828412
0 0.578729 0.675608
0 0.578729 0.675608
0 0.578729 0.675608
0 0.578729 0.675593
0 0.578698 0.675578
0 0.578637 0.675517
0.898024 0.896147 0.827878
0.995911 0.908721 0.832212
1 0.908415 0.831815
0 0.581155 0.676326
0 0.581155 0.676326
0 0.581155 0.676326
0 0.581155 0.67631
0 0.581155 0.67631
0 0.581155 0.676295
0 0.58114 0.676219
0.991089 0.910445 0.831083
1 0.911528 0.831067
0 0 0.402365
0 0 0.402365
0 0 0.402365
0 0 0.402365
0 0 0.402365
0.588769 0 0.552743
0.649653 0 0.562417
0.663691 0 0.564996
0.664118 0 0.565072
0 0 0.402365
0 0 0.402365
0 0 0.402365
0 0 0.402365
0 0 0.402365
0.588281 0 0.552651
0.649622 0 0.562417
0.663676 0 0.564996
0.664118 0 0.565072
0 0 0.402365
0 0 0.402365
0 0 0.402365
0 0 0.402365
0 0 0.402365
0.587533 0 0.552529
0.649546 0 0.562402
0.663661 0 0.564981
0.664118 0 0.565072
0 0 0.402365
0 0 0.402365
0 0 0.402365
0 0 0.402365
0 0 0.402365
0.585016 0 0.552117
0.649363 0 0.562371
0.663584 0 0.564981
0.664118 0 0.565072
0 0 0.402365
0 0 0.402365
0 0 0.402365
0 0 0.402365
0 0 0.402365
0.574243 0 0.5505
0.648722 0 0.562249
0.663371 0 0.564935
0.664118 0 0.565072
0 0 0.402365
0 0 0.402365
0 0 0.402365
0 0 0.402365
0 0 0.402365
0.484108 0 0.539437
0.646036 0 0.561807
0.662715 0 0.564813
0.664118 0 0.565072
0 0.555795 0.670497
0 0.555764 0.670497
0 0.555734 0.670481
0 0.555627 0.670451
0 0.55523 0.670329
0 0.55407 0.669978
0.962722 0.863416 0.831205
0.985031 0.85391 0.830304
0.982238 0.830869 0.827298
0 0.578592 0.678462
0 0.578592 0.678462
0 0.578592 0.678462
0 0.578576 0.678462
0 0.578546 0.678447
0 0.57847 0.678401
0.845792 0.887938 0.829908
0.993408 0.907012 0.837415
0.99968 0.907301 0.83743
0 0.582147 0.680232
0 0.582147 0.680232
0 0.582147 0.680232
0 0.582147 0.680232
0 0.582147 0.680232
0 0.582147 0.680232
0 0.582147 0.680232
0.988251 0.910735 0.838437
1 0.911681 0.838727
