LUT/LogC3/709/looks/Alexa_LogC3_709_D65_FujiEterna_A.cube
LUT_3D_SIZE 9
0 0 0
0.0399786 0.0213474 0.0252232
0.122026 0.0353704 0.028397
0.293599 0 0
0.487938 0 0
0.605509 0 0
0.649332 0 0
0.66482 0 0
0.66482 0 0
0.0179446 0.0531472 0.0413519
0.039765 0.0537881 0.0395666
0.131197 0.0695354 0.0297398
0.315282 0.00216678 0
0.485435 0 0
0.605127 0 0
0.649287 0 0
0.66482 0 0
0.66482 0 0
0 0.127337 0.051545
0 0.125185 0.0514382
0.119524 0.146593 0.0284581
0.366979 0.155505 0
0.569574 0 0
0.604517 0 0
0.64921 0 0
0.66482 0 0
0.66482 0 0
0 0.258305 0.0131838
0 0.257374 0.0137331
0 0.25597 0.0145418
0.377783 0.35787 0
0.679988 0.351568 0
0.766903 0.212772 0
0.648966 0 0
0.66482 0 0
0.66482 0 0
0 0.37496 0
0 0.374762 0
0 0.374502 0
0 0.373724 0
0.711315 0.592905 0
0.89369 0.589075 0
0.915816 0.526772 0
0.77847 0.016907 0
0.66482 0 0
0 0.428183 0
0 0.428153 0
0 0.428122 0
0 0.428016 0
0 0.427634 0
0.924941 0.746563 0
0.992523 0.752132 0
0.999374 0.742901 0
0.992874 0.718746 0
0 0.449775 0
0 0.449775 0
0 0.449744 0
0 0.449714 0
0 0.449577 0
0.589166 0.718181 0
1 0.806622 0
1 0.809705 0
1 0.808469 0
0 0.472694 0
0 0.472694 0
0 0.472694 0
0 0.472663 0
0 0.472602 0
0 0.472404 0
0.97789 0.817639 0
1 0.829511 0
1 0.830503 0
0 0.47689 0
0 0.47689 0
0 0.47689 0
0 0.47689 0
0 0.47689 0
0 0.47689 0
0 0.47689 0
1 0.831891 0
1 0.835126 0
0.00926223 0.0226291 0.0420996
0.0407416 0.0335851 0.0498817
0.134615 0.0366522 0.0559701
0.319081 0 0.010071
0.510414 0 0
0.605432 0 0
0.649332 0 0
0.66482 0 0
0.66482 0 0
0.00560006 0.047837 0.0544442
0.0306706 0.0431983 0.0482795
0.132891 0.0594492 0.0487984
0.315602 0 0.00105287
0.489815 0 0
0.605051 0 0
0.649287 0 0
0.66482 0 0
0.66482 0 0
0 0.123018 0.0620432
0 0.119829 0.0607462
0.120699 0.138949 0.0439612
0.364736 0.143023 0
0.559075 0 0
0.60444 0 0
0.64921 0 0
0.66482 0 0
0.66482 0 0
0 0.25481 0.0152132
0 0.25388 0.0157473
0 0.252476 0.016556
0.374014 0.352361 0
0.677073 0.344778 0
0.761654 0.19733 0
0.648936 0 0
0.66482 0 0
0.66482 0 0
0 0.374304 0
0 0.374182 0
0 0.373922 0
0 0.373144 0
0.710369 0.591516 0
0.893034 0.58732 0
0.914366 0.522759 0
0.771221 0 0
0.66482 0 0
0 0.428092 0
0 0.428061 0
0 0.428046 0
0 0.427924 0
0 0.427543 0
0.924758 0.746349 0
0.992432 0.751858 0
0.999298 0.742641 0
0.992584 0.717906 0
0 0.449744 0
0 0.449744 0
0 0.449714 0
0 0.449699 0
0 0.449546 0
0.587289 0.717632 0
1 0.806592 0
1 0.809674 0
1 0.808423 0
0 0.472694 0
0 0.472694 0
0 0.472663 0
0 0.472663 0
0 0.472572 0
0 0.472404 0
0.977813 0.817624 0
1 0.829496 0
1 0.830472 0
0 0.47689 0
0 0.47689 0
0 0.47689 0
0 0.47689 0
0 0.47689 0
0 0.47689 0
0 0.47689 0
1 0.831876 0
1 0.835126 0
0 0.0300603 0.125978
0.0194247 0.035996 0.130175
0.131991 0.0391241 0.141375
0.330129 0 0.134096
0.534981 0 0.0834516
0.638071 0 0
0.649317 0 0
0.66482 0 0
0.66482 0 0
0 0.0413214 0.12604
6.10361e-05 0.038407 0.116258
0.110536 0.0422522 0.130312
0.320165 0 0.123812
0.531044 0 0.0576181
0.635157 0 0
0.649256 0 0
0.66482 0 0
0.66482 0 0
0 0.135515 0.169406
0 0.132555 0.166918
0.0966659 0.147387 0.156298
0.397665 0.135821 0.121157
0.588891 0 0.0199435
0.629953 0 0
0.64918 0 0
0.66482 0 0
0.66482 0 0
0 0.286641 0.143023
0 0.284901 0.140887
0 0.282307 0.13753
0.399069 0.375219 0.00233463
0.710918 0.34609 0
0.753613 0.165286 0
0.648936 0 0
0.66482 0 0
0.66482 0 0
0 0.373404 0
0 0.373205 0
0 0.372946 0
0 0.372168 0
0.709102 0.589303 0
0.891951 0.584436 0
0.912215 0.516838 0
0.759411 0 0
0.66482 0 0
0 0.427955 0
0 0.427924 0
0 0.427893 0
0 0.427771 0
0 0.42739 0
0.924437 0.745983 0
0.992279 0.751446 0
0.999191 0.742153 0
0.992081 0.716396 0
0 0.449699 0
0 0.449699 0
0 0.449699 0
0 0.449638 0
0 0.449485 0
0.584054 0.716701 0
1 0.806531 0
1 0.809628 0
1 0.808377 0
0 0.472663 0
0 0.472663 0
0 0.472633 0
0 0.472633 0
0 0.472572 0
0 0.472374 0
0.977737 0.817594 0
1 0.82948 0
1 0.830457 0
0 0.47689 0
0 0.47689 0
0 0.47689 0
0 0.47689 0
0 0.47689 0
0 0.47689 0
0 0.47689 0
1 0.831876 0
1 0.835126 0
0 0.011017 0.272831
0 0.00756847 0.274434
0.104448 0.00675975 0.290806
0.328145 0 0.299489
0.544625 0 0.2916
0.654154 0 0.280186
0.687633 0 0.223651
0.683085 0 0
0.66482 0 0
0 0.0126345 0.270054
0 0.0128176 0.269749
0.0747234 0.00825513 0.283619
0.318318 0 0.296284
0.542138 0 0.287678
0.653788 0 0.275822
0.687343 0 0.21503
0.679896 0 0
0.66482 0 0
0 0.0961166 0.321904
0 0.0916457 0.317082
0.0155947 0.0899367 0.314427
0.344167 0.00828565 0.304295
0.538231 0 0.281575
0.653071 0 0.267704
0.686885 0 0.201205
0.669352 0 0
0.66482 0 0
0 0.338216 0.449653
0 0.336858 0.448615
0 0.334417 0.446845
0.362264 0.404929 0.425528
0.726116 0.360388 0.373632
0.78294 0.0412909 0.297063
0.684428 0 0.147295
0.66482 0 0
0.66482 0 0
0 0.477943 0.385931
0 0.477409 0.384466
0 0.476707 0.382544
0 0.474235 0.375601
0.765148 0.701457 0.144533
0.946059 0.667872 0
0.904952 0.496742 0
0.709911 0 0
0.66482 0 0
0 0.427512 0
0 0.427482 0
0 0.427451 0
0 0.427344 0
0 0.426963 0
0.923491 0.744808 0
0.991867 0.750301 0
0.998825 0.740658 0
0.990463 0.711513 0
0 0.449546 0
0 0.449516 0
0 0.449516 0
0 0.449454 0
0 0.449332 0
0.574411 0.713893 0
1 0.806363 0
1 0.809461 0
1 0.808194 0
0 0.472572 0
0 0.472572 0
0 0.472572 0
0 0.472557 0
0 0.472496 0
0 0.472297 0
0.977401 0.817487 0
1 0.829419 0
1 0.830396 0
0 0.47689 0
0 0.47689 0
0 0.47689 0
0 0.47689 0
0 0.47689 0
0 0.47689 0
0 0.47689 0
1 0.831876 0
1 0.835126 0
0 0 0.383169
0 0 0.383108
0 0 0.399756
0.302663 0 0.430838
0.542916 0 0.438682
0.65539 0 0.443336
0.690974 0 0.447532
0.701228 0 0.444312
0.701366 0 0.411139
0 0 0.382681
0 0 0.382605
0 0 0.392889
0.290929 0 0.429755
0.540337 0 0.437705
0.655055 0 0.442359
0.690944 0 0.446662
0.701213 0 0.443366
0.701381 0 0.408911
0 0 0.381796
0 0 0.381735
0 0 0.382864
0.271901 0 0.42771
0.5364 0 0.436286
0.654551 0 0.441001
0.690898 0 0.445258
0.701198 0 0.441855
0.701396 0 0.40557
0 0.237934 0.561105
0 0.234928 0.558984
0 0.229984 0.55555
0.254734 0.245212 0.579614
0.641047 0.0581521 0.544625
0.652903 0 0.436652
0.69073 0 0.440894
0.701228 0 0.434073
0.701473 0 0.394553
0 0.530938 0.701671
0 0.530724 0.701488
0 0.530358 0.701228
0 0.529259 0.700313
0.726726 0.73875 0.721523
0.925597 0.706279 0.698253
0.92108 0.5608 0.655253
0.701411 0 0.403662
0.701411 0 0.353765
0 0.584298 0.674601
0 0.584222 0.674281
0 0.584115 0.673823
0 0.583795 0.672511
0 0.582788 0.66807
0.95407 0.911421 0.637354
1 0.902388 0.577371
1 0.865415 0.368902
0.985168 0.695506 0
0 0.448997 0
0 0.448997 0
0 0.448966 0
0 0.448936 0
0 0.448798 0
0.541192 0.704234 0
1 0.805814 0
1 0.808896 0
1 0.807645 0
0 0.472343 0
0 0.472343 0
0 0.472343 0
0 0.472328 0
0 0.472267 0
0 0.472068 0
0.976333 0.817151 0
1 0.829236 0
1 0.830228 0
0 0.47689 0
0 0.47689 0
0 0.47689 0
0 0.47689 0
0 0.47689 0
0 0.47689 0
0 0.47689 0
1 0.831846 0
1 0.835126 0
0 0 0.441886
0 0 0.441855
0 0 0.441855
0.203037 0 0.497734
0.526406 0 0.521614
0.655818 0 0.531197
0.693004 0 0.539666
0.704189 0 0.545968
0.703975 0 0.54316
0 0 0.441794
0 0 0.441794
0 0 0.441764
0.182635 0 0.495109
0.52372 0 0.521431
0.655451 0 0.530983
0.692958 0 0.539498
0.704189 0 0.54583
0.70396 0 0.543023
0 0 0.441657
0 0 0.441657
0 0 0.441657
0.149203 0 0.490562
0.519615 0 0.521141
0.654963 0 0.530663
0.692897 0 0.539239
0.704173 0 0.545602
0.703944 0 0.542794
0 0 0.44123
0 0 0.44123
0 0 0.44123
0 0 0.467903
0.505913 0 0.52018
0.65333 0 0.529671
0.692699 0 0.538506
0.704112 0 0.544884
0.703883 0 0.542016
0 0.456474 0.748547
0 0.455344 0.748043
0 0.45388 0.747356
0 0.448905 0.745098
0.632181 0.561975 0.805951
0.851942 0.43859 0.775677
0.692058 0 0.536065
0.703929 0 0.542657
0.7037 0 0.539605
0 0.607309 0.812497
0 0.607294 0.812482
0 0.607263 0.812451
0 0.607187 0.812329
0 0.606943 0.811978
0.929244 0.928557 0.890791
0.988251 0.925795 0.891447
0.990295 0.898787 0.886046
0.978103 0.828443 0.86479
0 0.619516 0.812299
0 0.619501 0.812253
0 0.619471 0.812177
0 0.61944 0.812055
0 0.619272 0.811566
0.122835 0.845396 0.877531
0.992477 0.976211 0.883772
1 0.976135 0.879393
1 0.973159 0.864195
0 0.471641 0
0 0.471641 0
0 0.471641 0
0 0.471611 0
0 0.47155 0
0 0.471351 0
0.972854 0.816144 0
1 0.828672 0
1 0.829694 0
0 0.47689 0
0 0.47689 0
0 0.47689 0
0 0.47689 0
0 0.47689 0
0 0.47689 0
0 0.47689 0
1 0.831785 0
1 0.835126 0
0 0 0.464958
0 0 0.464958
0 0 0.464958
0 0 0.464942
0.472419 0 0.553552
0.651209 0 0.566049
0.694896 0 0.574639
0.706111 0 0.580407
0.706096 0 0.57998
0 0 0.464942
0 0 0.464942
0 0 0.464942
0 0 0.464942
0.468742 0 0.553338
0.650843 0 0.565972
0.69485 0 0.574609
0.706111 0 0.580392
0.706096 0 0.57995
0 0 0.464927
0 0 0.464927
0 0 0.464927
0 0 0.464927
0.462791 0 0.552987
0.650263 0 0.56585
0.694804 0 0.574563
0.706111 0 0.580346
0.706096 0 0.579904
0 0 0.464851
0 0 0.464851
0 0 0.464851
0 0 0.464851
0.435309 0 0.550866
0.648371 0 0.565469
0.694606 0 0.57438
0.706111 0 0.58024
0.706096 0 0.579812
0 0 0.464637
0 0 0.464637
0 0 0.464637
0 0 0.464622
0.287617 0 0.537209
0.642176 0 0.564202
0.694026 0 0.573846
0.706096 0 0.579889
0.706081 0 0.579446
0 0.593515 0.829129
0 0.593378 0.829068
0 0.593164 0.828977
0 0.592599 0.828733
0 0.5906 0.827909
0.894316 0.86276 0.922423
0.966705 0.82948 0.918929
0.943862 0.681163 0.891295
0.714488 0 0.589899
0 0.62327 0.842939
0 0.62327 0.842924
0 0.62327 0.842924
0 0.623255 0.842908
0 0.623224 0.842847
0 0.623148 0.84268
0.986267 0.979477 0.949126
0.999054 0.980453 0.950927
0.999893 0.979553 0.950484
0 0.638041 0.849973
0 0.638041 0.849973
0 0.638025 0.849958
0 0.638025 0.849958
0 0.637964 0.849897
0 0.637842 0.849744
0.937148 0.980346 0.948913
0.998566 0.989639 0.953201
1 0.989578 0.952926
0 0.641764 0.847974
0 0.641764 0.847974
0 0.641749 0.847959
0 0.641749 0.847959
0 0.641749 0.847913
0 0.641733 0.847776
0 0.641688 0.847425
0.996323 0.989822 0.94342
1 0.990448 0.944503
0 0 0.474372
0 0 0.474372
0 0 0.474372
0 0 0.474372
0.162188 0 0.536171
0.641108 0 0.579553
0.695766 0 0.588342
0.708476 0 0.593576
0.708446 0 0.593454
0 0 0.474372
0 0 0.474372
0 0 0.474372
0 0 0.474357
0.139239 0 0.533013
0.640635 0 0.579522
0.69572 0 0.588312
0.708461 0 0.593576
0.708446 0 0.593454
0 0 0.474357
0 0 0.474357
0 0 0.474357
0 0 0.474357
0.0959182 0 0.527199
0.639796 0 0.579446
0.695674 0 0.588281
0.708446 0 0.593545
0.708446 0 0.593439
0 0 0.474342
0 0 0.474327
0 0 0.474327
0 0 0.474327
0 0 0.494057
0.637308 0 0.579232
0.695476 0 0.588159
0.708385 0 0.593484
0.708446 0 0.593408
0 0 0.474266
0 0 0.474266
0 0 0.474266
0 0 0.474266
0 0 0.47425
0.628962 0 0.578576
0.694865 0 0.587808
0.708156 0 0.593256
0.708415 0 0.593301
0 0 0.474037
0 0 0.474037
0 0 0.474037
0 0 0.474037
0 0 0.474037
0.577096 0 0.573999
0.692927 0 0.586694
0.707515 0 0.592599
0.708339 0 0.593011
0 0.622187 0.84712
0 0.622187 0.847105
0 0.622187 0.847105
0 0.622171 0.847089
0 0.622126 0.847059
0 0.621988 0.846937
0.981918 0.973404 0.960296
0.996262 0.971557 0.960678
0.996506 0.965347 0.959457
0 0.63679 0.855711
0 0.63679 0.855711
0 0.63679 0.855711
0 0.636774 0.855695
0 0.636728 0.855665
0 0.636606 0.855573
0.907088 0.976654 0.961715
0.997299 0.990143 0.966506
0.999985 0.989975 0.966186
0 0.643107 0.859159
0 0.643107 0.859159
0 0.643107 0.859159
0 0.643107 0.859159
0 0.643107 0.859144
0 0.643107 0.859144
0 0.643107 0.859098
0.993866 0.991211 0.966155
1 0.991989 0.966796
0 0 0.476463
0 0 0.476463
0 0 0.476463
0 0 0.476463
0 0 0.476463
0.62446 0 0.581292
0.695033 0 0.590768
0.708858 0 0.596475
0.70927 0 0.596643
0 0 0.476463
0 0 0.476463
0 0 0.476463
0 0 0.476463
0 0 0.476463
0.623835 0 0.581231
0.695003 0 0.590753
0.708843 0 0.596475
0.70927 0 0.596643
0 0 0.476463
0 0 0.476463
0 0 0.476463
0 0 0.476463
0 0 0.476463
0.622858 0 0.58114
0.694926 0 0.590723
0.708827 0 0.596475
0.70927 0 0.596643
0 0 0.476463
0 0 0.476463
0 0 0.476463
0 0 0.476463
0 0 0.476463
0.619608 0 0.580835
0.694728 0 0.590646
0.708751 0 0.596445
0.70927 0 0.596643
0 0 0.476463
0 0 0.476463
0 0 0.476463
0 0 0.476463
0 0 0.476463
0.60592 0 0.579736
0.694087 0 0.590356
0.708553 0 0.596368
0.70927 0 0.596643
0 0 0.476463
0 0 0.476463
0 0 0.476463
0 0 0.476463
0 0 0.476463
0.496254 0 0.572824
0.691402 0 0.589624
0.707912 0 0.596124
0.70927 0 0.596643
0 0.614466 0.845029
0 0.61445 0.845029
0 0.614435 0.845014
0 0.614374 0.844984
0 0.614145 0.844892
0 0.613626 0.844678
0.975311 0.947662 0.958328
0.989929 0.935363 0.957061
0.986191 0.905165 0.951934
0 0.634424 0.855833
0 0.634409 0.855817
0 0.634409 0.855817
0 0.634394 0.855817
0 0.634333 0.855772
0 0.63415 0.85568
0.847807 0.966735 0.962707
0.996674 0.989258 0.969314
0.999649 0.989395 0.969024
0 0.642695 0.860945
0 0.642695 0.860945
0 0.642695 0.860945
0 0.642695 0.860945
0 0.642695 0.860945
0 0.642695 0.860945
0 0.642695 0.860945
0.992706 0.991318 0.970443
1 0.99234 0.970703
