LUT/LogC3/709/looks/Alexa_LogC3_709_D65_Kodak_B.cube
LUT_3D_SIZE 9
0 0 0
0.0534524 0.0272374 0.0318608
0.130724 0.0290837 0.0340581
0.294545 0 0
0.472557 0 0
0.566888 0 0
0.603555 0 0
0.617166 0 0
0.617166 0 0
0.0242008 0.0506447 0.0400702
0.0514839 0.055024 0.0411536
0.14313 0.0720531 0.0338445
0.320287 0.00144961 0
0.470375 0 0
0.566567 0 0
0.60351 0 0
0.617166 0 0
0.617166 0 0
0 0.112902 0.046952
0 0.111192 0.0470283
0.142229 0.145739 0.0234226
0.398779 0.163455 0
0.585779 0 0
0.566079 0 0
0.603449 0 0
0.617166 0 0
0.617166 0 0
0 0.219272 0.00830091
0 0.218418 0.00865187
0 0.217136 0.00915541
0.421012 0.360815 0
0.723842 0.3785 0
0.788144 0.264271 0
0.60325 0 0
0.617166 0 0
0.617166 0 0
0 0.340246 0
0 0.340002 0
0 0.339666 0
0 0.338674 0
0.77734 0.614511 0
0.933455 0.625025 0
0.944778 0.567742 0
0.778866 0.0893568 0
0.617166 0 0
0 0.410422 0
0 0.410376 0
0 0.410346 0
0 0.410193 0
0 0.409705 0
0.96669 0.755459 0
1 0.759304 0
1 0.750591 0
1 0.731182 0
0 0.435462 0
0 0.435462 0
0 0.435447 0
0 0.435431 0
0 0.435355 0
0.649042 0.724208 0
1 0.803494 0
1 0.805493 0
1 0.804028 0
0 0.446097 0
0 0.446097 0
0 0.446097 0
0 0.446082 0
0 0.446052 0
0 0.445975 0
0.997482 0.809216 0
1 0.817136 0
1 0.817517 0
0 0.447868 0
0 0.447868 0
0 0.447868 0
0 0.447868 0
0 0.447868 0
0 0.447868 0
0 0.447868 0
1 0.818921 0
1 0.819974 0
0.0161135 0.0236362 0.0432898
0.0518044 0.0349279 0.0578317
0.13843 0.0283207 0.0664073
0.306706 0 0.0450752
0.481147 0 0
0.566827 0 0
0.603555 0 0
0.617166 0 0
0.617166 0 0
0.0157931 0.0465705 0.0578164
0.0454871 0.0497139 0.0593271
0.143328 0.0606546 0.0644846
0.306828 0 0.0107271
0.471504 0 0
0.566506 0 0
0.60351 0 0
0.617166 0 0
0.617166 0 0
0 0.109651 0.0577554
0 0.107332 0.0565347
0.1393 0.138857 0.0436713
0.393454 0.150958 0
0.570123 0 0
0.566018 0 0
0.603449 0 0
0.617166 0 0
0.617166 0 0
0 0.216068 0.00958267
0 0.215213 0.00991836
0 0.213931 0.0104219
0.41648 0.355032 0
0.7205 0.371679 0
0.781994 0.25005 0
0.60322 0 0
0.617166 0 0
0.617166 0 0
0 0.339422 0
0 0.339254 0
0 0.338918 0
0 0.337926 0
0.776318 0.613123 0
0.932769 0.623423 0
0.943191 0.563806 0
0.769589 0.0636606 0
0.617166 0 0
0 0.4103 0
0 0.410269 0
0 0.410224 0
0 0.410071 0
0 0.409583 0
0.966567 0.755291 0
1 0.759075 0
1 0.750378 0
1 0.730495 0
0 0.435447 0
0 0.435447 0
0 0.435431 0
0 0.435416 0
0 0.43534 0
0.647013 0.723629 0
1 0.803479 0
1 0.805463 0
1 0.803967 0
0 0.446097 0
0 0.446097 0
0 0.446082 0
0 0.446082 0
0 0.446052 0
0 0.445975 0
0.997467 0.809186 0
1 0.817121 0
1 0.817502 0
0 0.447868 0
0 0.447868 0
0 0.447868 0
0 0.447868 0
0 0.447868 0
0 0.447868 0
0 0.447868 0
1 0.818921 0
1 0.819974 0
0 0.0310216 0.108034
0.0429999 0.0368658 0.126864
0.139574 0.0225376 0.147982
0.318807 0 0.154788
0.49659 0 0.135912
0.583108 0 0.0485237
0.60354 0 0
0.617166 0 0
0.617166 0 0
0 0.041886 0.115373
0.0173648 0.0398566 0.115801
0.12105 0.0335393 0.136019
0.309575 0 0.14403
0.493477 0 0.122194
0.581094 0 0.0229801
0.603494 0 0
0.617166 0 0
0.617166 0 0
0 0.119677 0.149355
0 0.117464 0.147784
0.126543 0.148211 0.16556
0.414481 0.148562 0.162722
0.571817 0 0.112978
0.577585 0 0
0.603418 0 0
0.617166 0 0
0.617166 0 0
0 0.236713 0.11162
0 0.235233 0.110185
0 0.233036 0.107927
0.437522 0.377295 0.0028687
0.743832 0.378897 0
0.772305 0.22443 0
0.60322 0 0
0.617166 0 0
0.617166 0 0
0 0.338262 0
0 0.338003 0
0 0.337682 0
0 0.336675 0
0.774899 0.610941 0
0.931609 0.620798 0
0.940841 0.558022 0
0.754345 0.0328832 0
0.617166 0 0
0 0.410117 0
0 0.410071 0
0 0.41004 0
0 0.409888 0
0 0.4094 0
0.966354 0.755016 0
1 0.75874 0
1 0.749996 0
1 0.729259 0
0 0.435416 0
0 0.435416 0
0 0.435416 0
0 0.435386 0
0 0.435309 0
0.643503 0.722622 0
1 0.803449 0
1 0.805402 0
1 0.803922 0
0 0.446082 0
0 0.446082 0
0 0.446067 0
0 0.446067 0
0 0.446052 0
0 0.44596 0
0.997452 0.809171 0
1 0.817105 0
1 0.817487 0
0 0.447868 0
0 0.447868 0
0 0.447868 0
0 0.447868 0
0 0.447868 0
0 0.447868 0
0 0.447868 0
1 0.818921 0
1 0.819974 0
0 0.0129244 0.235355
0 0.0124514 0.249027
0.11606 0 0.285512
0.317174 0 0.315312
0.503563 0 0.324376
0.59501 0 0.314961
0.626673 0 0.258503
0.627726 0 0
0.617166 0 0
0 0.0148318 0.232197
0 0.0150454 0.231846
0.0915236 0 0.275639
0.308141 0 0.310582
0.501411 0 0.319936
0.594644 0 0.310155
0.626398 0 0.251026
0.625452 0 0
0.617166 0 0
0 0.0943313 0.289158
0 0.0903487 0.285801
0.0233158 0.0964828 0.325628
0.349264 0 0.353109
0.498054 0 0.313039
0.594003 0 0.302205
0.62594 0 0.239017
0.619745 0 0
0.617166 0 0
0 0.277165 0.352773
0 0.275914 0.351965
0 0.273686 0.350591
0.40267 0.403861 0.425544
0.732754 0.394553 0.42092
0.769879 0.201434 0.373297
0.623713 0 0.191791
0.617166 0 0
0.617166 0 0
0 0.412833 0.275029
0 0.412299 0.27396
0 0.411612 0.272526
0 0.409247 0.267414
0.790524 0.685939 0.156542
0.948699 0.67805 0
0.932906 0.538323 0
0.684215 0 0
0.617166 0 0
0 0.409552 0
0 0.409506 0
0 0.409476 0
0 0.409323 0
0 0.40882 0
0.965743 0.754147 0
1 0.757809 0
1 0.748806 0
1 0.725277 0
0 0.43534 0
0 0.435325 0
0 0.435325 0
0 0.435294 0
0 0.435233 0
0.633036 0.719615 0
1 0.803342 0
1 0.805234 0
1 0.803723 0
0 0.446052 0
0 0.446052 0
0 0.446052 0
0 0.446036 0
0 0.446006 0
0 0.44593 0
0.997375 0.809094 0
1 0.817075 0
1 0.817456 0
0 0.447868 0
0 0.447868 0
0 0.447868 0
0 0.447868 0
0 0.447868 0
0 0.447868 0
0 0.447868 0
1 0.818921 0
1 0.819974 0
0 0 0.355856
0 0 0.355779
0.0187076 0 0.401801
0.302876 0 0.460029
0.506218 0 0.482673
0.599741 0 0.489662
0.631922 0 0.487709
0.642176 0 0.473594
0.64181 0 0.438834
0 0 0.355261
0 0 0.355184
0 0 0.389776
0.292561 0 0.457954
0.50399 0 0.481514
0.599405 0 0.488594
0.631815 0 0.486702
0.6421 0 0.472419
0.641794 0 0.436545
0 0 0.354238
0 0 0.354162
0 0 0.368658
0.275776 0 0.454353
0.500572 0 0.47982
0.598886 0 0.487098
0.631662 0 0.485069
0.641962 0 0.470573
0.641794 0 0.433127
0 0.21622 0.500832
0 0.213901 0.499519
0 0.210056 0.497383
0.288457 0.271977 0.603861
0.642954 0.154528 0.619867
0.597238 0 0.482277
0.631128 0 0.480003
0.64184 0 0.462364
0.641764 0 0.421805
0 0.470665 0.587671
0 0.470359 0.587457
0 0.469856 0.587198
0 0.468345 0.586191
0.74995 0.730663 0.71162
0.918929 0.72578 0.708232
0.920897 0.607965 0.677043
0.641794 0 0.431159
0.641443 0 0.378195
0 0.545663 0.527031
0 0.545556 0.52665
0 0.545419 0.526116
0 0.544945 0.52462
0 0.54342 0.519509
0.953124 0.88632 0.59855
1 0.879973 0.534371
1 0.841733 0.315053
1 0.712245 0
0 0.435065 0
0 0.435065 0
0 0.43505 0
0 0.43505 0
0 0.434974 0
0.596933 0.70927 0
1 0.803021 0
1 0.804685 0
1 0.803159 0
0 0.445945 0
0 0.445945 0
0 0.445945 0
0 0.445945 0
0 0.445914 0
0 0.445838 0
0.997131 0.808835 0
1 0.816968 0
1 0.817365 0
0 0.447868 0
0 0.447868 0
0 0.447868 0
0 0.447868 0
0 0.447868 0
0 0.447868 0
0 0.447868 0
1 0.818906 0
1 0.819974 0
0 0 0.424292
0 0 0.424262
0 0 0.424262
0.218265 0 0.529381
0.500343 0 0.57377
0.606363 0 0.588296
0.640345 0 0.592676
0.652003 0 0.594064
0.651667 0 0.59086
0 0 0.42417
0 0 0.42417
0 0 0.42414
0.198215 0 0.525017
0.498054 0 0.573312
0.606058 0 0.588083
0.640284 0 0.592508
0.651987 0 0.593896
0.651652 0 0.590707
0 0 0.423972
0 0 0.423972
0 0 0.423972
0.165148 0 0.517494
0.49456 0 0.572595
0.605646 0 0.587762
0.640208 0 0.592248
0.651957 0 0.593652
0.651621 0 0.590448
0 0 0.423423
0 0 0.423423
0 0 0.423423
0.000122072 0 0.482994
0.482979 0 0.570382
0.604242 0 0.586786
0.639963 0 0.591501
0.651865 0 0.592828
0.65153 0 0.589578
0 0.410285 0.67332
0 0.409308 0.672953
0 0.408026 0.672435
0 0.403693 0.670726
0.665187 0.596048 0.830411
0.850217 0.530678 0.83006
0.63917 0 0.588952
0.651606 0 0.590295
0.65124 0 0.586847
0 0.580957 0.726925
0 0.580926 0.726909
0 0.580865 0.726894
0 0.580667 0.726711
0 0.580133 0.726238
0.923964 0.909667 0.883284
0.984329 0.909682 0.883116
0.989914 0.885725 0.875441
0.977798 0.830045 0.860182
0 0.603067 0.708507
0 0.603052 0.708415
0 0.603021 0.708309
0 0.602975 0.708095
0 0.602792 0.707256
0.209262 0.838224 0.811536
0.99321 0.958709 0.844175
1 0.957961 0.831525
1 0.954269 0.81181
0 0.445655 0
0 0.445655 0
0 0.445655 0
0 0.44564 0
0 0.445609 0
0 0.445533 0
0.995315 0.808057 0
1 0.816648 0
1 0.81709 0
0 0.447868 0
0 0.447868 0
0 0.447868 0
0 0.447868 0
0 0.447868 0
0 0.447868 0
0 0.447868 0
1 0.818891 0
1 0.819974 0
0 0 0.457115
0 0 0.457115
0 0 0.457115
0 0 0.457099
0.459754 0 0.610925
0.604608 0 0.631724
0.644327 0 0.639185
0.656809 0 0.641978
0.656733 0 0.641321
0 0 0.457099
0 0 0.457099
0 0 0.457099
0 0 0.457084
0.456703 0 0.610483
0.604288 0 0.631632
0.644282 0 0.639155
0.656794 0 0.641947
0.656733 0 0.641276
0 0 0.457053
0 0 0.457053
0 0 0.457053
0 0 0.457053
0.451789 0 0.609735
0.603815 0 0.63151
0.644221 0 0.639124
0.656794 0 0.641886
0.656733 0 0.641215
0 0 0.456962
0 0 0.456962
0 0 0.456962
0 0 0.456962
0.42858 0 0.606134
0.602243 0 0.631113
0.644007 0 0.638911
0.656779 0 0.641733
0.656718 0 0.641062
0 0 0.456641
0 0 0.456641
0 0 0.456641
0 0 0.456611
0.300038 0 0.584222
0.597131 0 0.62977
0.643366 0 0.638285
0.656733 0 0.641184
0.656657 0 0.640513
0 0.562905 0.765194
0 0.562722 0.765133
0 0.562448 0.765042
0 0.5617 0.764767
0 0.559121 0.763897
0.888441 0.856916 0.941024
0.960052 0.838132 0.941253
0.944671 0.729366 0.925292
0.670115 0 0.655879
0 0.615579 0.780667
0 0.615579 0.780636
0 0.615564 0.780621
0 0.615534 0.780606
0 0.615442 0.780499
0 0.615183 0.780194
0.980529 0.967147 0.956619
0.999054 0.967651 0.957
1 0.965652 0.955779
0 0.622599 0.779248
0 0.622599 0.779248
0 0.622583 0.779217
0 0.622583 0.779217
0 0.622553 0.77911
0 0.622461 0.778897
0.930938 0.971191 0.948104
0.999435 0.97969 0.95053
1 0.979385 0.94905
0 0.621347 0.765316
0 0.621347 0.765316
0 0.621347 0.76527
0 0.621332 0.76524
0 0.621317 0.765118
0 0.621241 0.764706
0 0.621027 0.763653
0.997482 0.979309 0.927901
1 0.979477 0.926146
0 0 0.471305
0 0 0.471305
0 0 0.471305
0 0 0.471305
0.179065 0 0.57673
0.599939 0 0.649897
0.648798 0 0.658946
0.662348 0 0.661753
0.662272 0 0.66157
0 0 0.471305
0 0 0.471305
0 0 0.471305
0 0 0.47129
0.155306 0 0.571298
0.599557 0 0.649836
0.648753 0 0.658915
0.662333 0 0.661753
0.662272 0 0.661555
0 0 0.47129
0 0 0.47129
0 0 0.47129
0 0 0.47129
0.108919 0 0.561868
0.598886 0 0.649714
0.648692 0 0.6589
0.662287 0 0.661723
0.662257 0 0.661524
0 0 0.47126
0 0 0.471244
0 0 0.471244
0 0 0.471244
0 0 0.514595
0.596872 0 0.649317
0.648478 0 0.658793
0.662226 0 0.661662
0.662242 0 0.661494
0 0 0.471138
0 0 0.471138
0 0 0.471138
0 0 0.471138
0 0 0.471122
0.590127 0 0.648081
0.647822 0 0.658518
0.661936 0 0.661433
0.662196 0 0.661326
0 0 0.470771
0 0 0.470771
0 0 0.470771
0 0 0.470771
0 0 0.470756
0.548943 0 0.64094
0.645747 0 0.657618
0.661112 0 0.660777
0.662013 0 0.660838
0 0.614176 0.792172
0 0.61416 0.792157
0 0.614145 0.792157
0 0.614115 0.792142
0 0.614023 0.792096
0 0.613733 0.791943
0.971832 0.959808 0.979126
0.993927 0.957977 0.978866
0.994873 0.951156 0.977401
0 0.625284 0.797116
0 0.625284 0.797116
0 0.625284 0.797116
0 0.625269 0.797101
0 0.625254 0.79707
0 0.625193 0.797024
0.898024 0.968215 0.976791
0.995911 0.981811 0.981903
1 0.981476 0.98143
0 0.627909 0.797971
0 0.627909 0.797971
0 0.627909 0.797971
0 0.627909 0.797955
0 0.627909 0.79794
0 0.627894 0.797925
0 0.627878 0.797848
0.991089 0.983673 0.980575
1 0.984848 0.980529
0 0 0.474739
0 0 0.474739
0 0 0.474739
0 0 0.474739
0 0 0.474739
0.588785 0 0.652155
0.649653 0 0.663584
0.663691 0 0.666606
0.664118 0 0.666697
0 0 0.474739
0 0 0.474739
0 0 0.474739
0 0 0.474739
0 0 0.474739
0.588296 0 0.652064
0.649622 0 0.663569
0.663676 0 0.666606
0.664118 0 0.666697
0 0 0.474739
0 0 0.474739
0 0 0.474739
0 0 0.474739
0 0 0.474739
0.587549 0 0.651911
0.649546 0 0.663554
0.663661 0 0.66659
0.664118 0 0.666697
0 0 0.474739
0 0 0.474739
0 0 0.474739
0 0 0.474739
0 0 0.474739
0.585031 0 0.651423
0.649363 0 0.663508
0.663584 0 0.666575
0.664118 0 0.666697
0 0 0.474739
0 0 0.474739
0 0 0.474739
0 0 0.474739
0 0 0.474739
0.574243 0 0.649516
0.648722 0 0.663371
0.663371 0 0.666529
0.664118 0 0.666697
0 0 0.474739
0 0 0.474739
0 0 0.474739
0 0 0.474739
0 0 0.474739
0.484184 0 0.636469
0.646036 0 0.662837
0.662715 0 0.666392
0.664118 0 0.666697
0 0.600504 0.791089
0 0.600473 0.791074
0 0.600443 0.791074
0 0.60032 0.791028
0 0.599908 0.79089
0 0.598642 0.790478
0.962722 0.93286 0.980713
0.985031 0.922606 0.979629
0.982238 0.897719 0.976089
0 0.625147 0.800488
0 0.625132 0.800488
0 0.625132 0.800488
0 0.625116 0.800488
0 0.625101 0.800473
0 0.62501 0.800427
0.845884 0.959365 0.979187
0.993408 0.979965 0.988037
0.99968 0.98027 0.988052
0 0.628962 0.802563
0 0.628962 0.802563
0 0.628962 0.802563
0 0.628962 0.802563
0 0.628962 0.802563
0 0.628962 0.802563
0 0.628962 0.802563
0.988235 0.983978 0.989227
1 0.985 0.989578
