LUT/LogC3/709/looks/Alexa_LogC3_709_D50_Kodak_B.cube
LUT_3D_SIZE 5
0 0 0
0.130617 0.0269017 0.0288701
0.472496 0 0
0.603555 0 0
0.617166 0 0
0 0.104417 0.0397955
0.142138 0.134813 0.0192874
0.585718 0 0
0.603449 0 0
0.617166 0 0
0 0.3149 0
0 0.314366 0
0.777218 0.568719 0
0.944762 0.525368 0
0.617166 0 0
0 0.403037 0
0 0.403021 0
0 0.402945 0
1 0.743694 0
1 0.744167 0
0 0.414527 0
0 0.414527 0
0 0.414527 0
0 0.414527 0
1 0.758923 0
0 0.0287022 0.0914931
0.139376 0.0203403 0.125353
0.496529 0 0.115084
0.60354 0 0
0.617166 0 0
0 0.110719 0.126497
0.126284 0.137011 0.140154
0.57174 0 0.0955062
0.603418 0 0
0.617166 0 0
0 0.313054 0
0 0.31252 0
0.774777 0.565408 0
0.940826 0.51632 0
0.617166 0 0
0 0.403006 0
0 0.403006 0
0 0.402899 0
1 0.743633 0
1 0.744076 0
0 0.414527 0
0 0.414527 0
0 0.414527 0
0 0.414527 0
1 0.758923 0
0 0 0.301595
0.0165713 0 0.340505
0.506188 0 0.409049
0.631922 0 0.413306
0.64181 0 0.371847
0 0 0.300221
0 0 0.312428
0.500557 0 0.406638
0.631647 0 0.411078
0.641794 0 0.366995
0 0.435554 0.498024
0 0.434821 0.497627
0.749859 0.676188 0.603067
0.920897 0.562661 0.573831
0.641443 0 0.320455
0 0.402686 0
0 0.40267 0
0 0.402579 0
1 0.743236 0
1 0.743374 0
0 0.414527 0
0 0.414527 0
0 0.414527 0
0 0.414527 0
1 0.758923 0
0 0 0.387442
0 0 0.387442
0.459709 0 0.5178
0.644327 0 0.541756
0.656733 0 0.543542
0 0 0.387396
0 0 0.387396
0.451774 0 0.516793
0.644221 0 0.541695
0.656733 0 0.543465
0 0 0.38703
0 0 0.38703
0.299763 0 0.495155
0.643366 0 0.540993
0.656657 0 0.54287
0 0.569757 0.661646
0 0.569741 0.661616
0 0.569619 0.661524
0.980529 0.895155 0.810788
1 0.893767 0.810086
0 0.575097 0.648646
0 0.575097 0.648615
0 0.575067 0.648478
0 0.574807 0.647242
1 0.906569 0.784955
0 0 0.402365
0 0 0.402365
0 0 0.402365
0.649653 0 0.562417
0.664118 0 0.565072
0 0 0.402365
0 0 0.402365
0 0 0.402365
0.649546 0 0.562402
0.664118 0 0.565072
0 0 0.402365
0 0 0.402365
0 0 0.402365
0.648722 0 0.562249
0.664118 0 0.565072
0 0.555795 0.670497
0 0.555734 0.670481
0 0.55523 0.670329
0.962722 0.863416 0.831205
0.982238 0.830869 0.827298
0 0.582147 0.680232
0 0.582147 0.680232
0 0.582147 0.680232
0 0.582147 0.680232
1 0.911681 0.838727
