LUT/LogC3/709/looks/Alexa_LogC3_709_D65_5219_A.cube
LUT_3D_SIZE 9
0.042 0.042 0.038
0.058 0.046 0.041
0.245 0.061 0.019
0.444 0.067 0.007
0.600 0.089 0.017
0.706 0.181 0.026
0.871 0.431 0.213
0.974 0.692 0.478
0.995 0.835 0.557
0.032 0.049 0.041
0.047 0.055 0.043
0.191 0.077 0.031
0.399 0.096 0.008
0.606 0.136 0.010
0.730 0.228 0.016
0.882 0.452 0.211
0.975 0.698 0.477
0.995 0.836 0.557
0.006 0.089 0.047
0.004 0.115 0.045
0.150 0.152 0.040
0.411 0.182 0.005
0.615 0.223 0.000
0.766 0.294 0.004
0.896 0.481 0.205
0.977 0.703 0.474
0.995 0.837 0.559
0.000 0.229 0.075
0.000 0.264 0.049
0.000 0.298 0.024
0.371 0.360 0.000
0.689 0.395 0.000
0.847 0.445 0.000
0.927 0.552 0.176
0.980 0.721 0.469
0.995 0.842 0.564
0.000 0.498 0.040
0.000 0.519 0.002
0.000 0.533 0.000
0.070 0.547 0.000
0.685 0.606 0.000
0.927 0.628 0.000
0.969 0.672 0.072
0.986 0.764 0.458
0.995 0.858 0.590
0.000 0.663 0.185
0.000 0.664 0.186
0.000 0.664 0.188
0.000 0.668 0.191
0.473 0.711 0.171
0.883 0.770 0.118
0.976 0.790 0.256
0.992 0.837 0.493
0.993 0.899 0.705
0.000 0.690 0.447
0.000 0.692 0.449
0.000 0.695 0.450
0.024 0.705 0.458
0.351 0.740 0.475
0.700 0.826 0.517
0.952 0.880 0.539
0.989 0.907 0.606
0.992 0.942 0.773
0.322 0.777 0.675
0.327 0.778 0.675
0.337 0.780 0.676
0.363 0.787 0.680
0.442 0.807 0.690
0.629 0.859 0.718
0.868 0.938 0.765
0.972 0.967 0.794
0.992 0.978 0.831
0.763 0.946 0.856
0.763 0.946 0.856
0.766 0.947 0.857
0.770 0.948 0.857
0.783 0.952 0.859
0.821 0.962 0.865
0.887 0.977 0.875
0.947 0.988 0.880
0.983 0.989 0.888
0.043 0.045 0.052
0.050 0.046 0.052
0.251 0.058 0.030
0.471 0.066 0.020
0.604 0.074 0.030
0.700 0.158 0.058
0.868 0.424 0.236
0.973 0.690 0.483
0.994 0.835 0.559
0.037 0.047 0.049
0.050 0.050 0.050
0.215 0.068 0.034
0.427 0.088 0.012
0.613 0.116 0.018
0.726 0.210 0.048
0.878 0.446 0.236
0.974 0.694 0.482
0.995 0.836 0.561
0.007 0.086 0.051
0.003 0.107 0.051
0.161 0.144 0.048
0.410 0.170 0.010
0.612 0.210 0.002
0.762 0.282 0.025
0.892 0.476 0.234
0.976 0.702 0.480
0.995 0.837 0.563
0.000 0.223 0.075
0.000 0.257 0.051
0.000 0.292 0.026
0.370 0.353 0.000
0.687 0.390 0.000
0.844 0.443 0.000
0.925 0.551 0.213
0.980 0.719 0.475
0.995 0.842 0.568
0.000 0.494 0.045
0.000 0.516 0.003
0.000 0.530 0.000
0.067 0.546 0.000
0.687 0.604 0.000
0.927 0.626 0.000
0.967 0.674 0.116
0.986 0.763 0.463
0.995 0.856 0.591
0.000 0.663 0.183
0.000 0.664 0.186
0.000 0.664 0.188
0.000 0.668 0.189
0.473 0.711 0.171
0.883 0.769 0.112
0.976 0.790 0.254
0.992 0.837 0.500
0.993 0.899 0.705
0.000 0.689 0.447
0.000 0.691 0.448
0.000 0.695 0.450
0.023 0.705 0.458
0.349 0.739 0.475
0.700 0.826 0.517
0.952 0.880 0.539
0.989 0.907 0.606
0.992 0.942 0.774
0.322 0.777 0.675
0.327 0.778 0.675
0.337 0.780 0.676
0.363 0.787 0.680
0.442 0.807 0.690
0.629 0.859 0.718
0.868 0.938 0.765
0.972 0.967 0.794
0.992 0.978 0.831
0.763 0.946 0.856
0.763 0.946 0.856
0.766 0.947 0.857
0.770 0.948 0.857
0.783 0.952 0.859
0.821 0.962 0.865
0.887 0.977 0.875
0.947 0.988 0.880
0.983 0.989 0.888
0.047 0.053 0.142
0.052 0.054 0.141
0.207 0.059 0.139
0.460 0.056 0.110
0.600 0.054 0.109
0.693 0.131 0.118
0.861 0.412 0.266
0.973 0.688 0.492
0.994 0.835 0.565
0.047 0.053 0.138
0.057 0.056 0.136
0.219 0.058 0.134
0.460 0.068 0.106
0.612 0.087 0.103
0.718 0.179 0.118
0.871 0.433 0.268
0.973 0.692 0.490
0.994 0.835 0.565
0.000 0.100 0.151
0.000 0.115 0.159
0.141 0.135 0.138
0.421 0.153 0.103
0.622 0.183 0.083
0.756 0.259 0.112
0.886 0.467 0.270
0.975 0.699 0.489
0.994 0.837 0.567
0.000 0.243 0.169
0.000 0.270 0.159
0.000 0.298 0.124
0.382 0.351 0.062
0.673 0.391 0.015
0.836 0.443 0.014
0.920 0.548 0.258
0.979 0.717 0.484
0.995 0.841 0.571
0.000 0.486 0.103
0.000 0.506 0.041
0.000 0.522 0.009
0.039 0.534 0.000
0.675 0.605 0.000
0.913 0.630 0.000
0.964 0.679 0.203
0.986 0.763 0.470
0.995 0.856 0.594
0.000 0.663 0.183
0.000 0.664 0.184
0.000 0.664 0.187
0.000 0.667 0.187
0.473 0.711 0.169
0.883 0.769 0.112
0.976 0.790 0.254
0.992 0.837 0.508
0.994 0.898 0.705
0.000 0.689 0.445
0.000 0.691 0.447
0.000 0.694 0.450
0.023 0.705 0.458
0.349 0.739 0.475
0.703 0.827 0.515
0.952 0.880 0.539
0.989 0.907 0.606
0.992 0.942 0.775
0.322 0.777 0.675
0.327 0.778 0.675
0.337 0.780 0.676
0.363 0.787 0.680
0.442 0.807 0.690
0.629 0.859 0.718
0.868 0.938 0.765
0.972 0.967 0.794
0.992 0.978 0.831
0.763 0.946 0.856
0.763 0.946 0.856
0.766 0.947 0.857
0.770 0.948 0.857
0.783 0.952 0.859
0.821 0.962 0.865
0.887 0.977 0.875
0.947 0.988 0.880
0.983 0.989 0.888
0.069 0.047 0.353
0.069 0.047 0.353
0.171 0.069 0.315
0.400 0.048 0.269
0.591 0.030 0.277
0.688 0.106 0.255
0.848 0.387 0.341
0.969 0.678 0.518
0.994 0.833 0.579
0.068 0.047 0.351
0.068 0.047 0.351
0.182 0.069 0.314
0.404 0.046 0.267
0.592 0.031 0.277
0.704 0.139 0.261
0.856 0.406 0.345
0.970 0.681 0.518
0.994 0.835 0.581
0.028 0.080 0.349
0.027 0.085 0.352
0.186 0.122 0.335
0.429 0.098 0.301
0.621 0.115 0.286
0.734 0.208 0.275
0.870 0.437 0.350
0.971 0.690 0.517
0.994 0.836 0.581
0.000 0.259 0.343
0.000 0.281 0.351
0.000 0.314 0.371
0.354 0.352 0.351
0.658 0.358 0.317
0.813 0.424 0.312
0.904 0.523 0.357
0.976 0.708 0.510
0.994 0.840 0.585
0.000 0.482 0.339
0.000 0.498 0.331
0.000 0.513 0.324
0.000 0.530 0.300
0.638 0.612 0.329
0.875 0.644 0.308
0.953 0.685 0.343
0.984 0.757 0.495
0.995 0.855 0.604
0.000 0.650 0.251
0.000 0.652 0.254
0.000 0.653 0.256
0.000 0.658 0.259
0.434 0.708 0.266
0.865 0.778 0.290
0.969 0.801 0.372
0.991 0.840 0.535
0.994 0.896 0.700
0.000 0.689 0.445
0.000 0.690 0.446
0.000 0.693 0.449
0.019 0.704 0.456
0.341 0.738 0.473
0.700 0.826 0.515
0.952 0.880 0.538
0.989 0.906 0.605
0.992 0.942 0.782
0.317 0.777 0.675
0.325 0.778 0.675
0.331 0.780 0.676
0.359 0.786 0.680
0.440 0.806 0.689
0.626 0.858 0.718
0.868 0.938 0.765
0.972 0.967 0.794
0.992 0.978 0.831
0.762 0.946 0.856
0.763 0.946 0.856
0.766 0.947 0.857
0.770 0.948 0.857
0.782 0.951 0.859
0.821 0.962 0.865
0.887 0.977 0.875
0.947 0.988 0.880
0.983 0.989 0.888
0.097 0.137 0.583
0.097 0.137 0.583
0.100 0.137 0.584
0.387 0.171 0.526
0.570 0.070 0.471
0.705 0.141 0.463
0.851 0.390 0.498
0.964 0.653 0.595
0.992 0.829 0.634
0.098 0.136 0.583
0.098 0.136 0.583
0.105 0.138 0.583
0.392 0.170 0.525
0.571 0.069 0.470
0.705 0.141 0.463
0.858 0.405 0.504
0.965 0.657 0.595
0.992 0.830 0.634
0.098 0.135 0.582
0.098 0.135 0.582
0.115 0.140 0.580
0.397 0.169 0.525
0.572 0.068 0.469
0.713 0.162 0.466
0.868 0.427 0.510
0.966 0.662 0.594
0.992 0.831 0.636
0.000 0.254 0.511
0.000 0.256 0.510
0.000 0.285 0.543
0.412 0.314 0.566
0.635 0.276 0.521
0.799 0.353 0.517
0.897 0.496 0.533
0.969 0.680 0.594
0.992 0.837 0.637
0.000 0.456 0.465
0.000 0.470 0.475
0.000 0.495 0.500
0.000 0.541 0.565
0.629 0.628 0.610
0.860 0.627 0.587
0.940 0.672 0.565
0.975 0.733 0.582
0.993 0.851 0.643
0.000 0.615 0.467
0.000 0.621 0.476
0.000 0.628 0.486
0.000 0.649 0.512
0.320 0.732 0.536
0.845 0.809 0.596
0.959 0.825 0.577
0.988 0.842 0.594
0.994 0.889 0.696
0.000 0.682 0.486
0.000 0.683 0.488
0.000 0.686 0.490
0.000 0.696 0.500
0.242 0.734 0.518
0.668 0.832 0.568
0.944 0.891 0.617
0.987 0.911 0.667
0.990 0.943 0.798
0.309 0.775 0.673
0.312 0.776 0.674
0.325 0.778 0.675
0.352 0.783 0.678
0.436 0.804 0.688
0.624 0.858 0.716
0.868 0.938 0.765
0.973 0.966 0.792
0.992 0.978 0.830
0.760 0.945 0.855
0.760 0.946 0.856
0.763 0.946 0.856
0.768 0.947 0.857
0.782 0.951 0.859
0.820 0.962 0.865
0.887 0.977 0.875
0.947 0.988 0.879
0.983 0.989 0.888
0.025 0.402 0.685
0.025 0.402 0.685
0.025 0.402 0.685
0.062 0.411 0.694
0.612 0.385 0.710
0.747 0.320 0.681
0.856 0.434 0.700
0.969 0.657 0.749
0.990 0.821 0.766
0.025 0.402 0.685
0.025 0.402 0.685
0.025 0.402 0.685
0.071 0.413 0.695
0.612 0.385 0.710
0.747 0.320 0.681
0.856 0.434 0.700
0.970 0.661 0.750
0.990 0.822 0.766
0.026 0.400 0.684
0.026 0.400 0.684
0.026 0.400 0.684
0.093 0.415 0.698
0.615 0.384 0.709
0.747 0.320 0.681
0.856 0.434 0.700
0.970 0.666 0.752
0.990 0.824 0.766
0.026 0.400 0.684
0.026 0.400 0.684
0.026 0.400 0.684
0.170 0.422 0.703
0.618 0.380 0.708
0.747 0.319 0.680
0.871 0.459 0.707
0.972 0.682 0.753
0.990 0.828 0.765
0.000 0.468 0.623
0.000 0.468 0.623
0.000 0.469 0.622
0.000 0.530 0.696
0.649 0.569 0.765
0.849 0.545 0.742
0.938 0.620 0.750
0.975 0.729 0.759
0.989 0.840 0.764
0.000 0.574 0.545
0.000 0.583 0.558
0.000 0.595 0.577
0.000 0.637 0.647
0.146 0.741 0.749
0.831 0.828 0.805
0.954 0.818 0.783
0.981 0.830 0.764
0.992 0.877 0.766
0.000 0.680 0.639
0.000 0.683 0.644
0.000 0.687 0.651
0.000 0.702 0.670
0.016 0.749 0.711
0.618 0.861 0.755
0.931 0.915 0.803
0.978 0.926 0.793
0.987 0.942 0.836
0.185 0.770 0.707
0.199 0.771 0.709
0.208 0.773 0.709
0.256 0.779 0.713
0.367 0.799 0.723
0.568 0.855 0.747
0.855 0.939 0.795
0.969 0.967 0.829
0.989 0.978 0.856
0.757 0.944 0.855
0.758 0.945 0.855
0.758 0.945 0.855
0.763 0.946 0.856
0.778 0.950 0.858
0.818 0.961 0.864
0.886 0.976 0.874
0.947 0.988 0.879
0.983 0.989 0.888
0.358 0.666 0.830
0.358 0.666 0.830
0.358 0.666 0.830
0.358 0.666 0.830
0.439 0.678 0.839
0.811 0.607 0.850
0.893 0.574 0.859
0.971 0.659 0.876
0.982 0.849 0.885
0.358 0.666 0.830
0.358 0.666 0.830
0.358 0.666 0.830
0.358 0.666 0.830
0.442 0.678 0.839
0.811 0.607 0.850
0.893 0.574 0.859
0.971 0.659 0.876
0.982 0.850 0.886
0.358 0.666 0.830
0.358 0.666 0.830
0.358 0.666 0.830
0.358 0.666 0.830
0.447 0.679 0.840
0.812 0.607 0.850
0.893 0.574 0.859
0.971 0.659 0.876
0.982 0.851 0.885
0.355 0.665 0.829
0.355 0.665 0.829
0.355 0.665 0.829
0.355 0.665 0.829
0.461 0.681 0.842
0.813 0.605 0.850
0.893 0.574 0.859
0.972 0.660 0.876
0.982 0.853 0.886
0.355 0.665 0.829
0.355 0.665 0.829
0.355 0.665 0.829
0.355 0.665 0.829
0.501 0.684 0.846
0.815 0.602 0.849
0.893 0.573 0.859
0.977 0.684 0.876
0.981 0.861 0.886
0.000 0.661 0.764
0.000 0.661 0.764
0.000 0.661 0.764
0.000 0.661 0.764
0.348 0.754 0.845
0.840 0.785 0.892
0.950 0.766 0.875
0.978 0.807 0.881
0.984 0.879 0.888
0.000 0.665 0.674
0.000 0.671 0.682
0.000 0.679 0.695
0.000 0.703 0.730
0.000 0.773 0.808
0.586 0.877 0.881
0.927 0.922 0.902
0.976 0.916 0.893
0.991 0.915 0.888
0.019 0.817 0.833
0.024 0.817 0.834
0.033 0.819 0.835
0.063 0.825 0.839
0.219 0.841 0.848
0.518 0.886 0.867
0.841 0.951 0.885
0.963 0.970 0.902
0.987 0.974 0.904
0.714 0.943 0.873
0.716 0.944 0.873
0.718 0.944 0.873
0.724 0.945 0.873
0.740 0.949 0.874
0.789 0.959 0.879
0.869 0.975 0.889
0.940 0.988 0.892
0.978 0.989 0.900
0.724 0.862 0.936
0.724 0.862 0.936
0.724 0.862 0.936
0.724 0.862 0.936
0.724 0.862 0.936
0.769 0.865 0.942
0.940 0.782 0.940
0.978 0.750 0.943
0.988 0.831 0.934
0.724 0.862 0.936
0.724 0.862 0.936
0.724 0.862 0.936
0.724 0.862 0.936
0.724 0.862 0.936
0.770 0.865 0.942
0.941 0.781 0.940
0.978 0.750 0.943
0.988 0.831 0.934
0.724 0.862 0.936
0.724 0.862 0.936
0.724 0.862 0.936
0.724 0.862 0.936
0.724 0.862 0.936
0.770 0.865 0.942
0.941 0.781 0.940
0.978 0.750 0.943
0.988 0.831 0.934
0.724 0.862 0.936
0.724 0.862 0.936
0.724 0.862 0.936
0.724 0.862 0.936
0.724 0.862 0.936
0.772 0.865 0.943
0.941 0.781 0.940
0.978 0.750 0.943
0.988 0.831 0.934
0.724 0.862 0.936
0.724 0.862 0.936
0.724 0.862 0.936
0.724 0.862 0.936
0.724 0.862 0.936
0.780 0.865 0.944
0.942 0.781 0.940
0.979 0.750 0.943
0.988 0.831 0.934
0.722 0.862 0.936
0.722 0.862 0.936
0.722 0.862 0.936
0.722 0.862 0.936
0.722 0.862 0.936
0.800 0.865 0.946
0.943 0.779 0.939
0.979 0.748 0.943
0.986 0.846 0.933
0.338 0.860 0.909
0.338 0.860 0.909
0.334 0.860 0.909
0.334 0.860 0.909
0.332 0.860 0.909
0.725 0.905 0.947
0.936 0.905 0.948
0.972 0.883 0.938
0.981 0.905 0.939
0.000 0.858 0.910
0.000 0.860 0.911
0.000 0.863 0.914
0.000 0.873 0.918
0.021 0.898 0.930
0.492 0.936 0.941
0.843 0.967 0.944
0.960 0.965 0.943
0.983 0.960 0.941
0.690 0.971 0.941
0.692 0.971 0.941
0.694 0.971 0.940
0.701 0.972 0.940
0.719 0.973 0.939
0.768 0.976 0.938
0.864 0.984 0.937
0.946 0.989 0.936
0.972 0.987 0.932
0.909 0.943 0.984
0.909 0.943 0.984
0.909 0.943 0.984
0.909 0.943 0.984
0.909 0.943 0.984
0.909 0.943 0.984
0.930 0.939 0.985
0.981 0.861 0.979
0.988 0.865 0.965
0.909 0.943 0.984
0.909 0.943 0.984
0.909 0.943 0.984
0.909 0.943 0.984
0.909 0.943 0.984
0.909 0.943 0.984
0.930 0.939 0.985
0.981 0.861 0.979
0.988 0.865 0.965
0.909 0.943 0.984
0.909 0.943 0.984
0.909 0.943 0.984
0.909 0.943 0.984
0.909 0.943 0.984
0.909 0.943 0.984
0.930 0.939 0.985
0.981 0.861 0.979
0.988 0.865 0.965
0.909 0.943 0.984
0.909 0.943 0.984
0.909 0.943 0.984
0.909 0.943 0.984
0.909 0.943 0.984
0.909 0.943 0.984
0.931 0.938 0.985
0.981 0.861 0.979
0.988 0.865 0.965
0.909 0.943 0.984
0.909 0.943 0.984
0.909 0.943 0.984
0.909 0.943 0.984
0.909 0.943 0.984
0.909 0.943 0.984
0.932 0.938 0.985
0.981 0.861 0.979
0.988 0.865 0.965
0.908 0.943 0.984
0.908 0.943 0.984
0.908 0.943 0.984
0.908 0.943 0.984
0.908 0.943 0.984
0.908 0.943 0.984
0.934 0.937 0.985
0.982 0.861 0.979
0.988 0.865 0.965
0.908 0.943 0.984
0.908 0.943 0.984
0.908 0.943 0.984
0.908 0.943 0.984
0.908 0.943 0.984
0.908 0.943 0.984
0.941 0.933 0.986
0.982 0.859 0.978
0.988 0.865 0.965
0.670 0.969 0.980
0.670 0.969 0.980
0.670 0.969 0.980
0.670 0.969 0.980
0.670 0.969 0.980
0.666 0.970 0.980
0.872 0.971 0.983
0.973 0.939 0.977
0.986 0.926 0.966
0.611 0.988 0.988
0.613 0.989 0.988
0.617 0.989 0.988
0.633 0.989 0.988
0.662 0.989 0.988
0.746 0.990 0.988
0.875 0.991 0.983
0.952 0.991 0.968
0.968 0.982 0.951
