LUT/LogC3/709/looks/Alexa_LogC3_709_D50_FujiEterna_A.cube
LUT_3D_SIZE 33
0 0 0
0 0 0
0.0119326 0.00927749 0.0106966
0.0276951 0.0169528 0.0184482
0.0399329 0.0197452 0.0213779
0.0527199 0.0224918 0.0225223
0.0720836 0.0271763 0.0223239
0.0950179 0.0308843 0.0227359
0.12192 0.0327306 0.0240635
0.157168 0.0198672 0.0146029
0.200137 0.00288396 0.002121
0.245304 0 0
0.293584 0 0
0.351217 0 0
0.405234 0 0
0.444785 0 0
0.487846 0 0
0.534112 0 0
0.561639 0 0
0.584482 0 0
0.605478 0 0
0.624369 0 0
0.634134 0 0
0.642954 0 0
0.649332 0 0
0.655253 0 0
0.659175 0 0
0.662699 0 0
0.66482 0 0
0.66482 0 0
0.66482 0 0
0.66482 0 0
0.66482 0 0
0 0 0
0 0 0
0.0125124 0.00903334 0.0106508
0.0216831 0.0141604 0.01561
0.0363165 0.019089 0.020676
0.0467994 0.0210422 0.0225834
0.0669871 0.0259709 0.0223697
0.0903639 0.0305486 0.0224918
0.11809 0.0324712 0.0238804
0.153048 0.0223087 0.0164034
0.19678 0.00390631 0.0028687
0.242664 0 0
0.29131 0 0
0.349371 0 0
0.404303 0 0
0.443976 0 0
0.487236 0 0
0.533639 0 0
0.561486 0 0
0.584329 0 0
0.605402 0 0
0.624338 0 0
0.634104 0 0
0.642954 0 0
0.649332 0 0
0.655253 0 0
0.659159 0 0
0.662684 0 0
0.66482 0 0
0.66482 0 0
0.66482 0 0
0.66482 0 0
0.66482 0 0
0.0168612 0.0198367 0.0179751
0.0163882 0.0187686 0.0173953
0.0157931 0.0172885 0.0158083
0.0239872 0.0195926 0.018616
0.0376593 0.0238956 0.0227359
0.0476539 0.025452 0.0241093
0.0650034 0.0276036 0.0233463
0.0873426 0.0316777 0.0226596
0.114168 0.0322118 0.0236973
0.148928 0.0247654 0.018204
0.193423 0.00492866 0.00363165
0.240162 0 0
0.289174 0 0
0.347539 0 0
0.403372 0 0
0.44329 0 0
0.48661 0 0
0.53315 0 0
0.561242 0 0
0.584253 0 0
0.605249 0 0
0.624292 0 0
0.634073 0 0
0.642924 0 0
0.649317 0 0
0.655238 0 0
0.659159 0 0
0.662684 0 0
0.66482 0 0
0.66482 0 0
0.66482 0 0
0.66482 0 0
0.66482 0 0
0.021622 0.0359808 0.0274052
0.0215915 0.0352483 0.0269017
0.021561 0.0344549 0.0263523
0.0273442 0.0341344 0.0261387
0.0405737 0.0369879 0.0273289
0.0506752 0.0388495 0.0293126
0.0668345 0.0412146 0.0300908
0.0941329 0.0450904 0.0285496
0.126802 0.0460975 0.023209
0.162371 0.0454414 0.018204
0.205524 0.0311284 0.00450141
0.248157 0.007187 0
0.287205 0 0
0.345495 0 0
0.402441 0 0
0.442603 0 0
0.485985 0 0
0.532677 0 0
0.56109 0 0
0.5841 0 0
0.605173 0 0
0.624262 0 0
0.634028 0 0
0.642924 0 0
0.649317 0 0
0.655238 0 0
0.659159 0 0
0.662684 0 0
0.66482 0 0
0.66482 0 0
0.66482 0 0
0.66482 0 0
0.66482 0 0
0.0176242 0.0491646 0.03505
0.0185702 0.0484169 0.0348669
0.0195621 0.0476234 0.0346532
0.0268559 0.0476081 0.0339055
0.039704 0.0497749 0.0335393
0.0530861 0.0526894 0.0335546
0.0681163 0.0558633 0.0333104
0.0962692 0.0612345 0.032105
0.130877 0.0643015 0.0251469
0.170169 0.0639963 0.0171359
0.21828 0.0562142 0.00419623
0.267018 0.0327764 0
0.315221 0.00177005 0
0.36144 0 0
0.401526 0 0
0.441932 0 0
0.485359 0 0
0.532204 0 0
0.560922 0 0
0.583932 0 0
0.605097 0 0
0.624216 0 0
0.634028 0 0
0.642908 0 0
0.649287 0 0
0.655222 0 0
0.659129 0 0
0.662669 0 0
0.66482 0 0
0.66482 0 0
0.66482 0 0
0.66482 0 0
0.66482 0 0
0.00444038 0.0621653 0.0383001
0.00483711 0.0615549 0.0381628
0.00526436 0.0608988 0.037995
0.00569161 0.0605783 0.0379492
0.018677 0.061387 0.0369879
0.0469978 0.0647135 0.0363012
0.0616159 0.0674754 0.0353704
0.0968948 0.0734569 0.0335088
0.133074 0.0788739 0.0236057
0.173968 0.0813458 0.0147402
0.225574 0.0764019 0.00454719
0.277073 0.0611124 0
0.329778 0.0305638 0
0.385473 0 0
0.432364 0 0
0.441108 0 0
0.484733 0 0
0.531716 0 0
0.560769 0 0
0.58378 0 0
0.604944 0 0
0.624186 0 0
0.633997 0 0
0.642878 0 0
0.649287 0 0
0.655222 0 0
0.659129 0 0
0.662669 0 0
0.66482 0 0
0.66482 0 0
0.66482 0 0
0.66482 0 0
0.66482 0 0
0 0.0770581 0.0407111
0 0.0764172 0.04065
0 0.075761 0.040589
0 0.0750439 0.040528
0 0.0751202 0.0406195
0.0268559 0.0777447 0.0396735
0.0563058 0.0808728 0.0377356
0.0897993 0.0862287 0.0349584
0.132692 0.0920577 0.0265202
0.176913 0.0971084 0.0105135
0.232288 0.0949264 0.00321965
0.288243 0.0879377 0
0.343328 0.0680095 0
0.402258 0.0148013 0
0.456046 0 0
0.483345 0 0
0.486366 0 0
0.531075 0 0
0.560525 0 0
0.583612 0 0
0.604868 0 0
0.624155 0 0
0.633951 0 0
0.642878 0 0
0.649256 0 0
0.655207 0 0
0.659129 0 0
0.662669 0 0
0.66482 0 0
0.66482 0 0
0.66482 0 0
0.66482 0 0
0.66482 0 0
0 0.0958267 0.0423896
0 0.0952773 0.0423438
0 0.0947127 0.042298
0 0.0941634 0.0422522
0 0.0938735 0.0422675
0 0.0949721 0.0424506
0.0341039 0.0995956 0.04094
0.0806134 0.105104 0.0363775
0.12932 0.112795 0.0281529
0.179156 0.119036 0.00579843
0.236439 0.121889 0.00299077
0.297154 0.116976 0
0.356313 0.105272 0
0.419318 0.0502327 0
0.480308 0 0
0.510826 0 0
0.536507 0 0
0.538598 0 0
0.560204 0 0
0.583383 0 0
0.604715 0 0
0.624079 0 0
0.633921 0 0
0.642847 0 0
0.649226 0 0
0.655207 0 0
0.659113 0 0
0.662654 0 0
0.66482 0 0
0.66482 0 0
0.66482 0 0
0.66482 0 0
0.66482 0 0
0 0.117754 0.0436866
0 0.11725 0.0436713
0 0.116762 0.0436408
0 0.116258 0.0436255
0 0.11577 0.0436103
0 0.115816 0.0436255
0 0.11902 0.0431067
0.0550546 0.12517 0.0401312
0.119371 0.135576 0.0234379
0.176776 0.143862 0.00726329
0.238117 0.148913 0
0.303151 0.149767 0
0.366827 0.143908 0
0.433799 0.129152 0
0.50132 0.0690318 0
0.537942 0.0259403 0
0.569497 0 0
0.593545 0 0
0.577188 0 0
0.583139 0 0
0.604486 0 0
0.624002 0 0
0.633844 0 0
0.642802 0 0
0.64921 0 0
0.655177 0 0
0.659098 0 0
0.662654 0 0
0.66482 0 0
0.66482 0 0
0.66482 0 0
0.66482 0 0
0.66482 0 0
0 0.142473 0.0447395
0 0.142046 0.0447242
0 0.141695 0.0447089
0 0.141253 0.0446937
0 0.140826 0.0446632
0 0.140475 0.0446479
0 0.140414 0.0444343
0.0114748 0.147417 0.0408026
0.0914168 0.159899 0.0137789
0.167163 0.1729 0.00480659
0.236057 0.182208 0
0.308919 0.187564 0
0.37818 0.186328 0
0.449561 0.178958 0
0.521904 0.159915 0
0.561837 0.131991 0
0.598733 0.0647135 0
0.63212 0 0
0.638331 0 0
0.612772 0 0
0.604196 0 0
0.623896 0 0
0.633768 0 0
0.642741 0 0
0.64918 0 0
0.655161 0 0
0.659098 0 0
0.662623 0 0
0.66482 0 0
0.66482 0 0
0.66482 0 0
0.66482 0 0
0.66482 0 0
0 0.173754 0.0408637
0 0.173312 0.0409247
0 0.172976 0.0409857
0 0.172519 0.0410468
0 0.172183 0.0410925
0 0.17174 0.0411688
0 0.171298 0.0412299
0 0.172442 0.0390936
0.0186618 0.186038 0.0187381
0.141878 0.205493 0
0.22443 0.220569 0
0.309499 0.230213 0
0.386069 0.2327 0
0.462547 0.229328 0
0.541268 0.218769 0
0.587015 0.200153 0
0.627558 0.172335 0
0.664805 0.09337 0
0.679835 0.00387579 0
0.677424 0 0
0.646616 0 0
0.623743 0 0
0.633616 0 0
0.642695 0 0
0.649119 0 0
0.655116 0 0
0.659052 0 0
0.662608 0 0
0.66482 0 0
0.66482 0 0
0.66482 0 0
0.66482 0 0
0.66482 0 0
0 0.207965 0.0344701
0 0.207645 0.0347448
0 0.207431 0.0349279
0 0.207126 0.0352026
0 0.206912 0.0353857
0 0.206607 0.0356603
0 0.206287 0.035935
0 0.205875 0.0363012
0 0.211902 0.025864
0.0463722 0.236179 0.000686656
0.198474 0.260304 0
0.299214 0.277073 0
0.388846 0.285451 0
0.472145 0.287449 0
0.558541 0.284306 0
0.612222 0.271946 0
0.655833 0.252293 0
0.697261 0.223865 0
0.718181 0.184649 0
0.723995 0.0887922 0
0.715679 0 0
0.683421 0 0
0.633478 0 0
0.642618 0 0
0.649042 0 0
0.65507 0 0
0.659037 0 0
0.662593 0 0
0.66482 0 0
0.66482 0 0
0.66482 0 0
0.66482 0 0
0.66482 0 0
0 0.238972 0.0099031
0 0.238758 0.0100099
0 0.238544 0.0101167
0 0.238315 0.0102083
0 0.238102 0.0103151
0 0.237888 0.0104067
0 0.237675 0.0105135
0 0.237232 0.0107118
0 0.236805 0.0109255
0 0.250797 0.00642405
0.134508 0.286061 0
0.267231 0.313497 0
0.377615 0.331014 0
0.469657 0.33814 0
0.564767 0.341588 0
0.632029 0.337133 0
0.679942 0.325261 0
0.726879 0.310018 0
0.755489 0.2869 0
0.76582 0.249592 0
0.766857 0.196612 0
0.75668 0.0641947 0
0.71606 0 0
0.642481 0 0
0.648966 0 0
0.654994 0 0
0.658976 0 0
0.662547 0 0
0.66482 0 0
0.66482 0 0
0.66482 0 0
0.66482 0 0
0.66482 0 0
0 0.271473 0
0 0.27126 0
0 0.271138 0
0 0.270909 0
0 0.270802 0
0 0.270573 0
0 0.270344 0
0 0.27013 0
0 0.269795 0
0 0.26923 0
0 0.295689 0
0.197269 0.341299 0
0.345739 0.370962 0
0.457832 0.385946 0
0.561074 0.393896 0
0.64271 0.394675 0
0.697368 0.388602 0
0.747967 0.37882 0
0.783475 0.364492 0
0.800183 0.343862 0
0.809888 0.317205 0
0.812589 0.272465 0
0.792935 0.190417 0
0.753994 0 0
0.648829 0 0
0.654902 0 0
0.65893 0 0
0.662501 0 0
0.66482 0 0
0.66482 0 0
0.66482 0 0
0.66482 0 0
0.66482 0 0
0 0.305241 0
0 0.305119 0
0 0.305013 0
0 0.304891 0
0 0.304768 0
0 0.304662 0
0 0.304433 0
0 0.304311 0
0 0.30396 0
0 0.303609 0
0 0.303151 0
0.0215305 0.350378 0
0.275685 0.404242 0
0.430823 0.433967 0
0.551141 0.448829 0
0.654368 0.456458 0
0.712627 0.452613 0
0.770611 0.448981 0
0.810712 0.438224 0
0.829389 0.423728 0
0.842954 0.405081 0
0.851865 0.378958 0
0.847822 0.343359 0
0.833768 0.285222 0
0.794598 0.151446 0
0.714488 0 0
0.658854 0 0
0.66244 0 0
0.66482 0 0
0.66482 0 0
0.66482 0 0
0.66482 0 0
0.66482 0 0
0 0.329458 0
0 0.329397 0
0 0.329335 0
0 0.329274 0
0 0.329213 0
0 0.329213 0
0 0.329152 0
0 0.329046 0
0 0.328923 0
0 0.328801 0
0 0.328618 0
0 0.328328 0
0.0739757 0.401587 0
0.361624 0.46244 0
0.515145 0.48896 0
0.647837 0.506706 0
0.720378 0.509468 0
0.783352 0.510262 0
0.837476 0.509483 0
0.858366 0.50106 0
0.874464 0.487984 0
0.887098 0.470497 0
0.88748 0.446952 0
0.882872 0.414008 0
0.868162 0.364294 0
0.841749 0.283467 0
0.78323 0.0483864 0
0.662348 0 0
0.66482 0 0
0.66482 0 0
0.66482 0 0
0.66482 0 0
0.66482 0 0
0 0.347036 0
0 0.34699 0
0 0.34699 0
0 0.346929 0
0 0.346868 0
0 0.346868 0
0 0.346807 0
0 0.346746 0
0 0.346624 0
0 0.346563 0
0 0.34638 0
0 0.346197 0
0 0.345907 0
0.155657 0.449836 0
0.444495 0.509529 0
0.60325 0.536049 0
0.711177 0.54873 0
0.781628 0.55227 0
0.846281 0.554635 0
0.872831 0.55082 0
0.89366 0.545113 0
0.911299 0.538216 0
0.918853 0.528893 0
0.922515 0.515816 0
0.915801 0.487419 0
0.903197 0.444633 0
0.88304 0.385763 0
0.849714 0.29218 0
0.77847 0.0138552 0
0.66482 0 0
0.66482 0 0
0.66482 0 0
0.66482 0 0
0 0.36643 0
0 0.36643 0
0 0.366354 0
0 0.366354 0
0 0.366293 0
0 0.366293 0
0 0.366232 0
0 0.366155 0
0 0.366094 0
0 0.366018 0
0 0.365881 0
0 0.365682 0
0 0.365484 0
0 0.365209 0
0.278157 0.503441 0
0.532494 0.560189 0
0.693385 0.587671 0
0.775586 0.594522 0
0.849073 0.600717 0
0.884474 0.599237 0
0.909468 0.596109 0
0.928801 0.591897 0
0.938613 0.585107 0
0.944564 0.576333 0
0.944762 0.563912 0
0.942229 0.546532 0
0.93666 0.524941 0
0.923873 0.485801 0
0.902556 0.426123 0
0.870771 0.343587 0
0.817594 0.19411 0
0.721416 0 0
0.66482 0 0
0 0.384726 0
0 0.384726 0
0 0.384726 0
0 0.38471 0
0 0.38471 0
0 0.38471 0
0 0.38468 0
0 0.384665 0
0 0.384665 0
0 0.384649 0
0 0.384604 0
0 0.384573 0
0 0.384527 0
0 0.384451 0
0 0.384375 0
0.375357 0.558679 0
0.630426 0.616129 0
0.75964 0.635706 0
0.845121 0.645777 0
0.897337 0.64921 0
0.924239 0.647135 0
0.946029 0.645365 0
0.958831 0.641627 0
0.965911 0.635584 0
0.967086 0.624949 0
0.967086 0.613718 0
0.964935 0.599893 0
0.960983 0.582803 0
0.955093 0.56257 0
0.945113 0.536904 0
0.930724 0.499367 0
0.910811 0.447272 0
0.888609 0.389883 0
0 0.390234 0
0 0.390219 0
0 0.390219 0
0 0.390219 0
0 0.390219 0
0 0.390204 0
0 0.390204 0
0 0.390204 0
0 0.390173 0
0 0.390158 0
0 0.390143 0
0 0.390127 0
0 0.390082 0
0 0.390021 0
0 0.38996 0
0 0.389868 0
0.469017 0.593164 0
0.713924 0.64654 0
0.817487 0.660243 0
0.895552 0.671519 0
0.9281 0.673091 0
0.953017 0.675166 0
0.970397 0.676265 0
0.980026 0.676555 0
0.985153 0.674784 0
0.987823 0.671031 0
0.988602 0.665263 0
0.986923 0.654276 0
0.984314 0.641306 0
0.978454 0.625086 0
0.972168 0.607797 0
0.965728 0.59028 0
0.959258 0.573449 0
0 0.396307 0
0 0.396307 0
0 0.396277 0
0 0.396277 0
0 0.396277 0
0 0.396277 0
0 0.396277 0
0 0.396246 0
0 0.396246 0
0 0.396231 0
0 0.396201 0
0 0.39617 0
0 0.396139 0
0 0.396094 0
0 0.396002 0
0 0.395926 0
0 0.395789 0
0.563943 0.627359 0
0.771923 0.669032 0
0.877348 0.685283 0
0.924926 0.69099 0
0.954635 0.694148 0
0.975845 0.696147 0
0.985977 0.696574 0
0.992523 0.696147 0
0.995865 0.694438 0
0.997635 0.692149 0
0.998947 0.689784 0
0.999374 0.687587 0
0.998367 0.683421 0
0.997238 0.678965 0
0.996124 0.674556 0
0.992859 0.665217 0
0 0.403708 0
0 0.403708 0
0 0.403708 0
0 0.403708 0
0 0.403708 0
0 0.403693 0
0 0.403693 0
0 0.403693 0
0 0.403693 0
0 0.403662 0
0 0.403632 0
0 0.403632 0
0 0.403571 0
0 0.403555 0
0 0.403494 0
0 0.403418 0
0 0.403326 0
0 0.446815 0
0.67042 0.664088 0
0.836881 0.694667 0
0.919432 0.707408 0
0.955062 0.711498 0
0.981201 0.714549 0
0.991897 0.715724 0
0.99855 0.715709 0
0.999588 0.71487 0
1 0.71397 0
1 0.712795 0
1 0.711116 0
1 0.708263 0
1 0.705226 0
1 0.702312 0
1 0.699519 0
0 0.409186 0
0 0.409186 0
0 0.409186 0
0 0.409171 0
0 0.409171 0
0 0.409171 0
0 0.409171 0
0 0.409171 0
0 0.409171 0
0 0.409171 0
0 0.409171 0
0 0.409155 0
0 0.40914 0
0 0.409125 0
0 0.40911 0
0 0.409079 0
0 0.409064 0
0 0.409018 0
0.0840009 0.533165 0
0.758175 0.6925 0
0.901488 0.71812 0
0.951202 0.725139 0
0.980835 0.729564 0
0.996674 0.732235 0
1 0.733959 0
1 0.733944 0
1 0.733166 0
1 0.732845 0
1 0.732067 0
1 0.730205 0
1 0.728038 0
1 0.725933 0
1 0.724025 0
0 0.41207 0
0 0.41207 0
0 0.412055 0
0 0.412055 0
0 0.412055 0
0 0.412055 0
0 0.412055 0
0 0.412055 0
0 0.412055 0
0 0.412055 0
0 0.412055 0
0 0.412039 0
0 0.412039 0
0 0.412024 0
0 0.412009 0
0 0.411994 0
0 0.411963 0
0 0.411933 0
0 0.411887 0
0.393973 0.608789 0
0.823285 0.709575 0
0.93576 0.72961 0
0.974655 0.735256 0
0.996796 0.738659 0
0.999985 0.740566 0
1 0.741436 0
1 0.741695 0
1 0.742107 0
1 0.742855 0
1 0.74287 0
1 0.742275 0
1 0.741711 0
1 0.741192 0
0 0.416297 0
0 0.416297 0
0 0.416297 0
0 0.416297 0
0 0.416297 0
0 0.416297 0
0 0.416297 0
0 0.416297 0
0 0.416266 0
0 0.416266 0
0 0.416266 0
0 0.416266 0
0 0.416236 0
0 0.41622 0
0 0.41619 0
0 0.416159 0
0 0.416098 0
0 0.416052 0
0 0.415961 0
0 0.415854 0
0.589151 0.664714 0
0.892897 0.727718 0
0.963821 0.739574 0
0.996918 0.744823 0
1 0.746578 0
1 0.747707 0
1 0.74847 0
1 0.749035 0
1 0.749432 0
1 0.749584 0
1 0.749096 0
1 0.748669 0
1 0.748287 0
0 0.422538 0
0 0.422538 0
0 0.422538 0
0 0.422538 0
0 0.422538 0
0 0.422538 0
0 0.422538 0
0 0.422538 0
0 0.422538 0
0 0.422507 0
0 0.422507 0
0 0.422507 0
0 0.422492 0
0 0.422492 0
0 0.422461 0
0 0.422431 0
0 0.4224 0
0 0.422354 0
0 0.422263 0
0 0.422187 0
0 0.422065 0
0.761501 0.707332 0
0.940963 0.741085 0
0.986419 0.748455 0
1 0.751965 0
1 0.753445 0
1 0.754345 0
1 0.755001 0
1 0.755505 0
1 0.755886 0
1 0.755505 0
1 0.755154 0
1 0.754833 0
0 0.42829 0
0 0.42829 0
0 0.42829 0
0 0.42829 0
0 0.42829 0
0 0.42829 0
0 0.42829 0
0 0.42829 0
0 0.42829 0
0 0.42826 0
0 0.42826 0
0 0.42826 0
0 0.42826 0
0 0.428229 0
0 0.428199 0
0 0.428199 0
0 0.428153 0
0 0.428122 0
0 0.428077 0
0 0.428016 0
0 0.427909 0
0 0.427802 0
0.861662 0.730983 0
0.972091 0.750774 0
1 0.756374 0
1 0.758541 0
1 0.759609 0
1 0.760403 0
1 0.760998 0
1 0.76144 0
1 0.761318 0
1 0.761044 0
1 0.7608 0
0 0.433173 0
0 0.433173 0
0 0.433173 0
0 0.433173 0
0 0.433173 0
0 0.433173 0
0 0.433173 0
0 0.433173 0
0 0.433158 0
