LUT/LogC3/709/looks/Alexa_LogC3_709_D65_FujiEterna_A.cube
LUT_3D_SIZE 5
0 0 0
0.122026 0.0353704 0.028397
0.487938 0 0
0.649332 0 0
0.66482 0 0
0 0.127337 0.051545
0.119524 0.146593 0.0284581
0.569574 0 0
0.64921 0 0
0.66482 0 0
0 0.37496 0
0 0.374502 0
0.711315 0.592905 0
0.915816 0.526772 0
0.66482 0 0
0 0.449775 0
0 0.449744 0
0 0.449577 0
1 0.806622 0
1 0.808469 0
0 0.47689 0
0 0.47689 0
0 0.47689 0
0 0.47689 0
1 0.835126 0
0 0.0300603 0.125978
0.131991 0.0391241 0.141375
0.534981 0 0.0834516
0.649317 0 0
0.66482 0 0
0 0.135515 0.169406
0.0966659 0.147387 0.156298
0.588891 0 0.0199435
0.64918 0 0
0.66482 0 0
0 0.373404 0
0 0.372946 0
0.709102 0.589303 0
0.912215 0.516838 0
0.66482 0 0
0 0.449699 0
0 0.449699 0
0 0.449485 0
1 0.806531 0
1 0.808377 0
0 0.47689 0
0 0.47689 0
0 0.47689 0
0 0.47689 0
1 0.835126 0
0 0 0.383169
0 0 0.399756
0.542916 0 0.438682
0.690974 0 0.447532
0.701366 0 0.411139
0 0 0.381796
0 0 0.382864
0.5364 0 0.436286
0.690898 0 0.445258
0.701396 0 0.40557
0 0.530938 0.701671
0 0.530358 0.701228
0.726726 0.73875 0.721523
0.92108 0.5608 0.655253
0.701411 0 0.353765
0 0.448997 0
0 0.448966 0
0 0.448798 0
1 0.805814 0
1 0.807645 0
0 0.47689 0
0 0.47689 0
0 0.47689 0
0 0.47689 0
1 0.835126 0
0 0 0.464958
0 0 0.464958
0.472419 0 0.553552
0.694896 0 0.574639
0.706096 0 0.57998
0 0 0.464927
0 0 0.464927
0.462791 0 0.552987
0.694804 0 0.574563
0.706096 0 0.579904
0 0 0.464637
0 0 0.464637
0.287617 0 0.537209
0.694026 0 0.573846
0.706081 0 0.579446
0 0.62327 0.842939
0 0.62327 0.842924
0 0.623224 0.842847
0.986267 0.979477 0.949126
0.999893 0.979553 0.950484
0 0.641764 0.847974
0 0.641749 0.847959
0 0.641749 0.847913
0 0.641688 0.847425
1 0.990448 0.944503
0 0 0.476463
0 0 0.476463
0 0 0.476463
0.695033 0 0.590768
0.70927 0 0.596643
0 0 0.476463
0 0 0.476463
0 0 0.476463
0.694926 0 0.590723
0.70927 0 0.596643
0 0 0.476463
0 0 0.476463
0 0 0.476463
0.694087 0 0.590356
0.70927 0 0.596643
0 0.614466 0.845029
0 0.614435 0.845014
0 0.614145 0.844892
0.975311 0.947662 0.958328
0.986191 0.905165 0.951934
0 0.642695 0.860945
0 0.642695 0.860945
0 0.642695 0.860945
0 0.642695 0.860945
1 0.99234 0.970703
