LUT/LogC3/709/looks/Alexa_LogC3_709_D65_FujiEterna_A.cube
LUT_3D_SIZE 33
0 0 0
0 0 0
0.0119326 0.0100252 0.0126192
0.0277256 0.0183261 0.0217746
0.0399786 0.0213474 0.0252232
0.0527962 0.0243229 0.0265812
0.0722362 0.0294041 0.0263371
0.0951247 0.0333715 0.0268254
0.122026 0.0353704 0.028397
0.157412 0.0225223 0.0180667
0.200229 0.00352483 0.00282292
0.245579 0 0
0.293599 0 0
0.351476 0 0
0.40528 0 0
0.444862 0 0
0.487938 0 0
0.534142 0 0
0.561669 0 0
0.584482 0 0
0.605509 0 0
0.624369 0 0
0.63415 0 0
0.642954 0 0
0.649332 0 0
0.655253 0 0
0.659175 0 0
0.662699 0 0
0.66482 0 0
0.66482 0 0
0.66482 0 0
0.66482 0 0
0.66482 0 0
0 0 0
0 0 0
0.0125124 0.00975052 0.0125582
0.0218357 0.0153658 0.0184787
0.0363928 0.0206149 0.0243992
0.0468147 0.0227359 0.0266575
0.0672007 0.0281071 0.0263981
0.090425 0.0330053 0.0265507
0.118242 0.0350958 0.0281834
0.153246 0.024979 0.0200504
0.196902 0.00477607 0.00383001
0.242908 0 0
0.291325 0 0
0.34966 0 0
0.404349 0 0
0.444038 0 0
0.487312 0 0
0.533669 0 0
0.561517 0 0
0.584329 0 0
0.605432 0 0
0.624338 0 0
0.634119 0 0
0.642954 0 0
0.649332 0 0
0.655253 0 0
0.659159 0 0
0.662684 0 0
0.66482 0 0
0.66482 0 0
0.66482 0 0
0.66482 0 0
0.66482 0 0
0.0168612 0.0214542 0.02121
0.0163882 0.0202792 0.0205386
0.0159152 0.0187991 0.0187839
0.0240635 0.0211948 0.0219883
0.0377203 0.0258335 0.0268406
0.047715 0.0275273 0.0284581
0.0652934 0.0299077 0.0275578
0.0873579 0.0342412 0.0267491
0.114366 0.0348058 0.0279545
0.149081 0.0274357 0.0220188
0.193576 0.00602731 0.00483711
0.240391 0 0
0.289189 0 0
0.347829 0 0
0.403418 0 0
0.443366 0 0
0.486686 0 0
0.533196 0 0
0.561273 0 0
0.584253 0 0
0.60528 0 0
0.624292 0 0
0.634073 0 0
0.642924 0 0
0.649317 0 0
0.655238 0 0
0.659159 0 0
0.662684 0 0
0.66482 0 0
0.66482 0 0
0.66482 0 0
0.66482 0 0
0.66482 0 0
0.021622 0.0389258 0.0323796
0.0215915 0.0381323 0.0317693
0.021561 0.0372778 0.0311131
0.0273442 0.0369268 0.0308537
0.0406043 0.0399939 0.0322423
0.050721 0.0420081 0.0345922
0.0670024 0.0445563 0.0354925
0.0941939 0.0487221 0.0336767
0.127108 0.0498054 0.0274205
0.162524 0.0491188 0.0218662
0.205753 0.0337224 0.00601205
0.248417 0.00827039 0
0.287236 0 0
0.3458 0 0
0.402487 0 0
0.442695 0 0
0.486061 0 0
0.532708 0 0
0.561105 0 0
0.5841 0 0
0.605203 0 0
0.624262 0 0
0.634043 0 0
0.642924 0 0
0.649317 0 0
0.655238 0 0
0.659159 0 0
0.662684 0 0
0.66482 0 0
0.66482 0 0
0.66482 0 0
0.66482 0 0
0.66482 0 0
0.0179446 0.0531472 0.0413519
0.0188144 0.0523384 0.0411383
0.0197452 0.0514687 0.0408942
0.0269932 0.0514534 0.0400092
0.039765 0.0537881 0.0395666
0.0531472 0.0569314 0.0395819
0.0681926 0.0603647 0.039292
0.0963912 0.0661936 0.0378882
0.131197 0.0695354 0.0297398
0.170245 0.0692149 0.0204013
0.21857 0.060853 0.00560006
0.267262 0.0361791 0
0.315282 0.00216678 0
0.361776 0 0
0.401556 0 0
0.442008 0 0
0.485435 0 0
0.532235 0 0
0.560952 0 0
0.583932 0 0
0.605127 0 0
0.624231 0 0
0.634043 0 0
0.642908 0 0
0.649287 0 0
0.655222 0 0
0.659129 0 0
0.662669 0 0
0.66482 0 0
0.66482 0 0
0.66482 0 0
0.66482 0 0
0.66482 0 0
0.00500496 0.067216 0.0451972
0.00544747 0.0665599 0.0450294
0.00593576 0.0658579 0.044831
0.00642405 0.0655375 0.0447852
0.019501 0.0664073 0.0436408
0.0470283 0.0700084 0.0428473
0.0616159 0.0729839 0.0417487
0.0971084 0.0794995 0.0395361
0.133379 0.0853285 0.0281071
0.173999 0.0879683 0.0175021
0.225895 0.0825971 0.00605783
0.277272 0.0661631 0
0.329854 0.0336919 0
0.385901 0 0
0.43241 0 0
0.441199 0 0
0.484825 0 0
0.531762 0 0
0.5608 0 0
0.58378 0 0
0.604974 0 0
0.624186 0 0
0.634012 0 0
0.642878 0 0
0.649287 0 0
0.655222 0 0
0.659129 0 0
0.662669 0 0
0.66482 0 0
0.66482 0 0
0.66482 0 0
0.66482 0 0
0.66482 0 0
0 0.0833295 0.0480354
0 0.0826276 0.0479591
0 0.0819104 0.0478828
0 0.0811322 0.0478065
0 0.0812085 0.0479133
0.0276493 0.0840467 0.0468147
0.0563668 0.0874189 0.0445258
0.0901961 0.0932174 0.0412451
0.13286 0.0994888 0.0315557
0.176944 0.104921 0.0124514
0.232639 0.102602 0.00428778
0.288441 0.0950637 0
0.343465 0.0738231 0
0.402686 0.0177768 0
0.456077 0 0
0.483436 0 0
0.486442 0 0
0.531121 0 0
0.560555 0 0
0.583612 0 0
0.604898 0 0
0.624155 0 0
0.633967 0 0
0.642878 0 0
0.649256 0 0
0.655207 0 0
0.659129 0 0
0.662669 0 0
0.66482 0 0
0.66482 0 0
0.66482 0 0
0.66482 0 0
0.66482 0 0
0 0.103609 0.0500038
0 0.103014 0.049958
0 0.102419 0.049897
0 0.101823 0.049836
0 0.101518 0.0498817
0 0.102724 0.0500954
0.0352789 0.107744 0.0482948
0.0809033 0.113725 0.0429236
0.129396 0.121996 0.0335546
0.179324 0.128786 0.00773632
0.236988 0.13193 0.0039826
0.297337 0.126574 0
0.356466 0.113909 0
0.419654 0.0574807 0
0.480339 0 0
0.510964 0 0
0.536614 0 0
0.538674 0 0
0.560235 0 0
0.583383 0 0
0.604746 0 0
0.624079 0 0
0.633936 0 0
0.642847 0 0
0.649226 0 0
0.655207 0 0
0.659113 0 0
0.662654 0 0
0.66482 0 0
0.66482 0 0
0.66482 0 0
0.66482 0 0
0.66482 0 0
0 0.127337 0.051545
0 0.126802 0.0515145
0 0.126268 0.0514839
0 0.125719 0.0514687
0 0.125185 0.0514382
0 0.125231 0.0514687
0 0.128679 0.0508583
0.055375 0.135332 0.0473487
0.119524 0.146593 0.0284581
0.177066 0.15555 0.00967422
0.238499 0.160967 0
0.303227 0.161852 0
0.366979 0.155505 0
0.434119 0.139635 0
0.501335 0.0791485 0
0.538079 0.031632 0
0.569574 0 0
0.593591 0 0
0.577218 0 0
0.583139 0 0
0.604517 0 0
0.624002 0 0
0.63386 0 0
0.642802 0 0
0.64921 0 0
0.655177 0 0
0.659098 0 0
0.662654 0 0
0.66482 0 0
0.66482 0 0
0.66482 0 0
0.66482 0 0
0.66482 0 0
0 0.153979 0.052781
0 0.153506 0.0527657
0 0.15314 0.0527504
0 0.152667 0.0527199
0 0.152193 0.0527047
0 0.151827 0.0526894
0 0.151766 0.05243
0.0129702 0.15935 0.0481575
0.0922713 0.1729 0.0183413
0.167575 0.186954 0.00640879
0.236332 0.197009 0
0.308949 0.202808 0
0.3785 0.201541 0
0.449943 0.193622 0
0.52195 0.173144 0
0.561975 0.142824 0
0.598795 0.0722667 0
0.632212 0 0
0.638376 0 0
0.612772 0 0
0.604212 0 0
0.623896 0 0
0.633783 0 0
0.642741 0 0
0.64918 0 0
0.655161 0 0
0.659098 0 0
0.662623 0 0
0.66482 0 0
0.66482 0 0
0.66482 0 0
0.66482 0 0
0.66482 0 0
0 0.187945 0.0482338
0 0.187472 0.0483101
0 0.187106 0.0483711
0 0.186618 0.0484474
0 0.186252 0.0485084
0 0.185763 0.0485847
0 0.185275 0.0486763
0 0.186542 0.0462043
0.0201114 0.201236 0.0237888
0.14197 0.222263 0
0.22446 0.238544 0
0.309712 0.248966 0
0.38645 0.251637 0
0.462791 0.247929 0
0.541329 0.236454 0
0.587121 0.216281 0
0.627619 0.186496 0
0.664912 0.106111 0
0.679866 0.0047303 0
0.67744 0 0
0.646662 0 0
0.623743 0 0
0.633631 0 0
0.642695 0 0
0.649119 0 0
0.655116 0 0
0.659052 0 0
0.662608 0 0
0.66482 0 0
0.66482 0 0
0.66482 0 0
0.66482 0 0
0.66482 0 0
0 0.224704 0.0408331
0 0.224369 0.0411383
0 0.22414 0.0413367
0 0.223789 0.0416266
0 0.223575 0.0418402
0 0.223224 0.0421302
0 0.222889 0.0424353
0 0.222431 0.0428321
0 0.228946 0.0305943
0.0518959 0.255207 0.000915541
0.198901 0.281285 0
0.299641 0.299428 0
0.389166 0.308507 0
0.472282 0.310689 0
0.558694 0.307393 0
0.612421 0.294102 0
0.655909 0.27306 0
0.697383 0.242267 0
0.718212 0.199588 0
0.724025 0.102373 0
0.715709 0 0
0.683436 0 0
0.633494 0 0
0.642618 0 0
0.649042 0 0
0.65507 0 0
0.659037 0 0
0.662593 0 0
0.66482 0 0
0.66482 0 0
0.66482 0 0
0.66482 0 0
0.66482 0 0
0 0.258305 0.0131838
0 0.258076 0.0133211
0 0.257847 0.0134585
0 0.257603 0.0135958
0 0.257374 0.0137331
0 0.257145 0.0138552
0 0.256916 0.0139925
0 0.256443 0.0142672
0 0.25597 0.0145418
0 0.271138 0.00856031
0.134569 0.309255 0
0.267536 0.338949 0
0.377783 0.35787 0
0.469688 0.36556 0
0.565042 0.369314 0
0.632181 0.364431 0
0.679988 0.351568 0
0.726955 0.335012 0
0.755505 0.310079 0
0.765866 0.270191 0
0.766903 0.212772 0
0.756695 0.0770428 0
0.71606 0 0
0.642481 0 0
0.648966 0 0
0.654994 0 0
0.658976 0 0
0.662547 0 0
0.66482 0 0
0.66482 0 0
0.66482 0 0
0.66482 0 0
0.66482 0 0
0 0.29337 0
0 0.293126 0
0 0.293004 0
0 0.29276 0
0 0.292638 0
0 0.292393 0
0 0.292149 0
0 0.291905 0
0 0.291539 0
0 0.290929 0
0 0.319554 0
0.197955 0.368856 0
0.345968 0.40087 0
0.45803 0.417029 0
0.561395 0.425605 0
0.642771 0.426413 0
0.697368 0.419898 0
0.748074 0.4094 0
0.78352 0.394003 0
0.800229 0.371862 0
0.809934 0.342901 0
0.812604 0.294636 0
0.79295 0.206119 0
0.753994 0 0
0.648829 0 0
0.654902 0 0
0.65893 0 0
0.662501 0 0
0.66482 0 0
0.66482 0 0
0.66482 0 0
0.66482 0 0
0.66482 0 0
0 0.329854 0
0 0.329732 0
0 0.32961 0
0 0.329488 0
0 0.329351 0
0 0.329229 0
0 0.328984 0
0 0.328862 0
0 0.328481 0
0 0.328099 0
0 0.327611 0
0.0243229 0.378729 0
0.275959 0.436912 0
0.431189 0.469078 0
0.551492 0.485145 0
0.654444 0.49337 0
0.712688 0.48925 0
0.77084 0.48542 0
0.810773 0.473732 0
0.829419 0.457984 0
0.842985 0.43772 0
0.851881 0.409537 0
0.847868 0.371374 0
0.833768 0.308324 0
0.794598 0.164813 0
0.714488 0 0
0.658854 0 0
0.66244 0 0
0.66482 0 0
0.66482 0 0
0.66482 0 0
0.66482 0 0
0.66482 0 0
0 0.355978 0
0 0.355917 0
0 0.355856 0
0 0.355779 0
0 0.355718 0
0 0.355718 0
0 0.355657 0
0 0.355535 0
0 0.355398 0
0 0.355276 0
0 0.355077 0
0 0.354757 0
0.0746777 0.433936 0
0.361944 0.499702 0
0.515175 0.528328 0
0.647913 0.547509 0
0.720455 0.5505 0
0.783475 0.551339 0
0.837476 0.550484 0
0.858366 0.541375 0
0.874495 0.527306 0
0.887114 0.508537 0
0.887526 0.483238 0
0.882887 0.447379 0
0.868177 0.393896 0
0.841749 0.306477 0
0.783261 0.0590219 0
0.662348 0 0
0.66482 0 0
0.66482 0 0
0.66482 0 0
0.66482 0 0
0.66482 0 0
0 0.37496 0
0 0.374884 0
0 0.374884 0
0 0.374823 0
0 0.374762 0
0 0.374762 0
0 0.374701 0
0 0.374624 0
0 0.374502 0
0 0.374441 0
0 0.374243 0
0 0.374044 0
0 0.373724 0
0.158312 0.486091 0
0.4448 0.550561 0
0.603616 0.579232 0
0.711315 0.592905 0
0.781704 0.59675 0
0.846296 0.599298 0
0.872862 0.595209 0
0.89369 0.589075 0
0.911315 0.581628 0
0.918868 0.571511 0
0.922515 0.557321 0
0.915816 0.526772 0
0.903212 0.480629 0
0.883055 0.416953 0
0.849714 0.315862 0
0.77847 0.016907 0
0.66482 0 0
0.66482 0 0
0.66482 0 0
0.66482 0 0
0 0.395941 0
0 0.395941 0
0 0.395865 0
0 0.395865 0
0 0.395789 0
0 0.395789 0
0 0.395712 0
0 0.395651 0
0 0.395575 0
0 0.395499 0
0 0.395346 0
0 0.395132 0
0 0.394919 0
0 0.394629 0
0.278355 0.54403 0
0.53254 0.605341 0
0.693446 0.635035 0
0.775631 0.64242 0
0.849134 0.649119 0
0.88452 0.647501 0
0.909483 0.644114 0
0.928801 0.639536 0
0.938613 0.632181 0
0.944564 0.622705 0
0.944778 0.609354 0
0.942245 0.590585 0
0.93666 0.567208 0
0.923888 0.525063 0
0.902556 0.460487 0
0.870787 0.371466 0
0.817594 0.209934 0
0.721416 0 0
0.66482 0 0
0 0.415656 0
0 0.415656 0
0 0.415656 0
0 0.415641 0
0 0.415641 0
0 0.415641 0
0 0.41561 0
0 0.415595 0
0 0.415595 0
0 0.415579 0
0 0.415534 0
0 0.415488 0
0 0.415442 0
0 0.415366 0
0 0.415274 0
0.375769 0.603632 0
0.630777 0.665721 0
0.759716 0.686839 0
0.845212 0.697734 0
0.897368 0.701442 0
0.924239 0.699214 0
0.946029 0.697322 0
0.958846 0.693309 0
0.965927 0.686793 0
0.967102 0.675334 0
0.967102 0.663157 0
0.964935 0.648157 0
0.960998 0.629709 0
0.955108 0.607904 0
0.945113 0.580133 0
0.930739 0.539635 0
0.910826 0.483452 0
0.888624 0.421378 0
0 0.421622 0
0 0.421607 0
0 0.421607 0
0 0.421607 0
0 0.421607 0
0 0.421592 0
0 0.421592 0
0 0.421592 0
0 0.421561 0
0 0.421546 0
0 0.421515 0
0 0.4215 0
0 0.421454 0
0 0.421393 0
0 0.421332 0
0 0.421225 0
0.469368 0.640909 0
0.713954 0.698543 0
0.817578 0.713375 0
0.895552 0.725536 0
0.9281 0.727245 0
0.953033 0.729503 0
0.970397 0.730678 0
0.980026 0.730983 0
0.985153 0.729061 0
0.987823 0.725002 0
0.988602 0.718776 0
0.986923 0.70695 0
0.984329 0.692988 0
0.978469 0.675456 0
0.972183 0.656718 0
0.965728 0.637766 0
0.959274 0.619638 0
0 0.428183 0
0 0.428183 0
0 0.428153 0
0 0.428153 0
0 0.428153 0
0 0.428153 0
0 0.428153 0
0 0.428122 0
0 0.428122 0
0 0.428092 0
0 0.428061 0
0 0.428046 0
0 0.428016 0
0 0.427955 0
0 0.427863 0
0 0.427771 0
0 0.427634 0
0.563973 0.677806 0
0.772 0.722835 0
0.877394 0.740398 0
0.924941 0.746563 0
0.95465 0.749966 0
0.975845 0.752148 0
0.985977 0.752605 0
0.992523 0.752132 0
0.995865 0.750301 0
0.99765 0.747829 0
0.998962 0.745281 0
0.999374 0.742901 0
0.998367 0.738399 0
0.997238 0.733577 0
0.996124 0.728817 0
0.992874 0.718746 0
0 0.436194 0
0 0.436194 0
0 0.436194 0
0 0.436194 0
0 0.436194 0
0 0.436164 0
0 0.436164 0
0 0.436164 0
0 0.436164 0
0 0.436133 0
0 0.436103 0
0 0.436103 0
0 0.436042 0
0 0.436011 0
0 0.43595 0
0 0.435874 0
0 0.435782 0
0 0.482765 0
0.670726 0.71754 0
0.836973 0.750561 0
0.919463 0.764309 0
0.955077 0.768734 0
0.981216 0.77203 0
0.991913 0.773312 0
0.99855 0.773281 0
0.999588 0.772366 0
1 0.771405 0
1 0.770138 0
1 0.768307 0
1 0.765225 0
1 0.761944 0
1 0.758801 0
1 0.755795 0
0 0.4421 0
0 0.4421 0
0 0.4421 0
0 0.442084 0
0 0.442084 0
0 0.442084 0
0 0.442084 0
0 0.442084 0
0 0.442084 0
0 0.442069 0
0 0.442069 0
0 0.442069 0
0 0.442054 0
0 0.442039 0
0 0.442008 0
0 0.441993 0
0 0.441962 0
0 0.441917 0
0.0842908 0.576043 0
0.758267 0.748211 0
0.901503 0.775876 0
0.951202 0.783459 0
0.98085 0.788251 0
0.996674 0.791135 0
1 0.792996 0
1 0.792981 0
1 0.792142 0
1 0.791806 0
1 0.790951 0
1 0.788952 0
1 0.786618 0
1 0.784344 0
1 0.782284 0
0 0.445212 0
0 0.445212 0
0 0.445197 0
0 0.445197 0
0 0.445197 0
0 0.445197 0
0 0.445197 0
0 0.445197 0
0 0.445197 0
0 0.445182 0
0 0.445182 0
0 0.445167 0
0 0.445167 0
0 0.445167 0
0 0.445151 0
0 0.445121 0
0 0.445106 0
0 0.44506 0
0 0.445014 0
0.394537 0.657786 0
0.823316 0.766629 0
0.935775 0.788296 0
0.974685 0.7944 0
0.996811 0.798077 0
0.999985 0.800122 0
1 0.801083 0
1 0.801328 0
1 0.801785 0
1 0.802609 0
1 0.802625 0
1 0.801984 0
1 0.801358 0
1 0.800793 0
0 0.449775 0
0 0.449775 0
0 0.449775 0
0 0.449775 0
0 0.449775 0
0 0.449775 0
0 0.449775 0
0 0.449775 0
0 0.449744 0
0 0.449744 0
0 0.449744 0
0 0.449744 0
0 0.449714 0
0 0.449699 0
0 0.449668 0
0 0.449638 0
0 0.449577 0
0 0.449516 0
0 0.449424 0
0 0.449302 0
0.589166 0.718181 0
0.892958 0.786252 0
0.963821 0.799069 0
0.996918 0.80473 0
1 0.806622 0
1 0.807843 0
1 0.808682 0
1 0.809262 0
1 0.809705 0
1 0.809857 0
1 0.809339 0
1 0.808881 0
1 0.808469 0
0 0.456519 0
0 0.456519 0
0 0.456519 0
0 0.456519 0
0 0.456519 0
0 0.456519 0
0 0.456519 0
0 0.456519 0
0 0.456519 0
0 0.456489 0
0 0.456489 0
0 0.456489 0
0 0.456458 0
0 0.456458 0
0 0.456428 0
0 0.456397 0
0 0.456367 0
0 0.456306 0
0 0.456214 0
0 0.456123 0
0 0.456016 0
0.761547 0.764233 0
0.940993 0.800687 0
0.986435 0.808652 0
1 0.812451 0
1 0.814038 0
1 0.815015 0
1 0.815732 0
1 0.816281 0
1 0.816693 0
1 0.816281 0
1 0.8159 0
1 0.815549 0
0 0.462715 0
0 0.462715 0
0 0.462715 0
0 0.462715 0
0 0.462715 0
0 0.462715 0
0 0.462715 0
0 0.462715 0
0 0.462715 0
0 0.462684 0
0 0.462684 0
0 0.462684 0
0 0.462684 0
0 0.462669 0
0 0.462638 0
0 0.462638 0
0 0.462577 0
0 0.462547 0
0 0.462486 0
0 0.46244 0
0 0.462318 0
0 0.462196 0
0.861723 0.789792 0
0.972091 0.81117 0
1 0.817212 0
1 0.819562 0
1 0.820706 0
1 0.821576 0
1 0.822217 0
1 0.82269 0
1 0.822568 0
1 0.822263 0
1 0.822003 0
0 0.468009 0
0 0.468009 0
0 0.468009 0
0 0.468009 0
0 0.468009 0
0 0.468009 0
0 0.468009 0
0 0.468009 0
0 0.467979 0
