LUT/LogC3/709/looks/Alexa_LogC3_709_D65_2383_A.cube
LUT_3D_SIZE 5
0.0453193 0.0579538 0.064332
0.166125 0.0771496 0.0619821
0.628397 0.00257877 0.00317388
0.741619 0.000137331 0.05832
0.741787 0.000137331 0.064271
0.0168307 0.132555 0.0826734
0.163699 0.154726 0.076936
0.626719 0.00627146 0.00291447
0.741405 0.000137331 0.0176394
0.740978 0.000137331 0.0369268
0.0336004 0.531044 0.0134279
0.0336004 0.531044 0.0134279
0.847181 0.701152 7.62951e-05
0.992889 0.690639 7.62951e-05
0.992416 0.68748 7.62951e-05
3.0518e-05 0.580468 0.329046
3.0518e-05 0.580468 0.329046
0.160998 0.693339 0.168414
0.996094 0.87277 0.000122072
0.996094 0.87277 0.000122072
3.0518e-05 0.580468 0.329046
3.0518e-05 0.580468 0.329046
1.5259e-05 0.627863 0.267185
0.996094 0.873137 0.000122072
0.996094 0.87277 0.000122072
0.0263218 0.0613107 0.137087
0.161196 0.0806287 0.146471
0.630991 9.15541e-05 0.139803
0.749508 0.000137331 0.193683
0.751003 0.000137331 0.205463
0.000427253 0.131121 0.154238
0.132769 0.15079 0.160433
0.628702 9.15541e-05 0.129625
0.748882 0.000137331 0.183474
0.749798 0.000137331 0.196765
0.0336156 0.529763 0.0136416
0.0336309 0.529183 0.0137484
0.846479 0.698085 7.62951e-05
0.992416 0.68748 7.62951e-05
0.992172 0.684062 7.62951e-05
3.0518e-05 0.580468 0.329046
3.0518e-05 0.580468 0.329046
0.147021 0.691188 0.173037
0.996094 0.87277 0.000122072
0.996094 0.87277 0.000122072
3.0518e-05 0.580468 0.329046
3.0518e-05 0.580468 0.329046
1.5259e-05 0.626673 0.274983
0.996094 0.873137 0.000122072
0.996094 0.87277 0.000122072
4.57771e-05 0.00131228 0.446601
4.57771e-05 0.00123598 0.446387
0.651331 0.0242008 0.545739
0.783566 0.000137331 0.559808
0.784192 0.000137331 0.563088
4.57771e-05 0.00131228 0.446601
4.57771e-05 0.00131228 0.446601
0.647334 0.0252537 0.542611
0.783566 0.000137331 0.559808
0.784192 0.000137331 0.563088
0.000106813 0.516747 0.617807
0.000106813 0.516823 0.618997
0.7243 0.712077 0.666087
0.953674 0.713344 0.697368
0.95227 0.70779 0.708675
9.15541e-05 0.711666 0.599741
9.15541e-05 0.711666 0.599741
0.027863 0.774243 0.59321
0.994522 0.928786 0.653223
0.99472 0.92958 0.657496
9.15541e-05 0.711498 0.589578
9.15541e-05 0.711498 0.589578
9.15541e-05 0.731594 0.589578
0.993332 0.926848 0.641321
0.99472 0.929351 0.65594
0.000106813 0.138094 0.649531
0.000106813 0.138094 0.649531
0.553079 0.346471 0.771328
0.836118 0.335439 0.792676
0.836118 0.335439 0.792676
0.000106813 0.138094 0.649531
0.000106813 0.138094 0.649531
0.54609 0.343832 0.769497
0.836118 0.335439 0.792676
0.836118 0.335439 0.792676
0.000167849 0.426093 0.764981
0.000167849 0.426093 0.764981
0.617624 0.585534 0.842603
0.912322 0.585306 0.859785
0.909255 0.577447 0.85803
0.000198367 0.658381 0.829923
0.000198367 0.658381 0.829923
0.000198367 0.657511 0.830411
0.960891 0.94995 0.913481
0.974701 0.952331 0.91873
0.000198367 0.665125 0.833783
0.000198367 0.665125 0.833783
0.000198367 0.665125 0.834195
0.954513 0.957595 0.912612
0.974701 0.960891 0.918349
0.000106813 0.138094 0.649531
0.000106813 0.138094 0.649531
0.544213 0.345769 0.769955
0.836118 0.335439 0.792676
0.974701 0.961563 0.927886
0.000106813 0.138094 0.649531
0.000106813 0.138094 0.649531
0.533043 0.344854 0.768429
0.836118 0.335439 0.792676
0.974701 0.961563 0.927886
0.00015259 0.401953 0.756146
0.00015259 0.401083 0.755901
0.598001 0.550713 0.832731
0.900801 0.552773 0.852033
0.974701 0.961563 0.927886
0.000198367 0.657343 0.840681
0.000198367 0.657343 0.840681
0.000198367 0.656489 0.840604
0.955444 0.94757 0.92549
0.974701 0.961563 0.927886
0.000198367 0.666987 0.843732
0.000198367 0.666987 0.843732
0.000198367 0.666987 0.843732
0.948165 0.957855 0.926635
0.974701 0.961563 0.927886
