LUT/LogC3/709/looks/Alexa_LogC3_709_D65_5219_B.cube
LUT_3D_SIZE 33
0.0130312 0.024033 0.0260166
0.0140536 0.0250553 0.027039
0.0154726 0.0254826 0.0274662
0.0175784 0.0265812 0.029572
0.026215 0.0282139 0.029221
0.0487984 0.0307927 0.0268101
0.0825971 0.032578 0.0196231
0.12163 0.0345769 0.0116579
0.175433 0.0333562 0
0.236774 0.0306706 0
0.295018 0.0258946 0
0.350622 0.0224765 0
0.401968 0.0218051 0
0.44918 0.0200046 0
0.490227 0.0180362 0
0.525811 0.0225986 0
0.555276 0.0290684 0
0.580774 0.0385443 0
0.598932 0.0506905 0
0.614221 0.070985 0
0.627863 0.0996109 0
0.645655 0.1364 0
0.664775 0.176501 0
0.684459 0.224186 0.0106661
0.696345 0.273075 0.0445411
0.702373 0.324117 0.0865492
0.700725 0.371481 0.128878
0.695933 0.416709 0.170077
0.687099 0.456886 0.205219
0.678203 0.489998 0.234287
0.67216 0.514961 0.238254
0.669779 0.534554 0.224857
0.663645 0.550439 0.240711
0.0140078 0.0250248 0.0270085
0.0144198 0.0254368 0.0274205
0.0160525 0.0260624 0.0280461
0.0181125 0.0271153 0.0301061
0.0287022 0.0287022 0.0296941
0.0528725 0.030869 0.0268864
0.0861524 0.0331273 0.0201724
0.125109 0.0350652 0.0111391
0.180041 0.0339666 0
0.240192 0.0310979 0
0.297169 0.027039 0
0.350652 0.0235142 0
0.397589 0.0244297 0
0.442405 0.0252384 0
0.483436 0.0252537 0
0.523796 0.0305943 0
0.557794 0.0375677 0
0.584497 0.0472572 0
0.603281 0.0600443 0
0.618494 0.0802472 0
0.632334 0.109071 0
0.649226 0.143954 0
0.668391 0.184115 0
0.686122 0.229831 0.00932326
0.699229 0.277958 0.0454108
0.70489 0.327626 0.0860609
0.703014 0.375753 0.130159
0.697444 0.420218 0.171588
0.689097 0.459892 0.207218
0.680339 0.492134 0.235431
0.674495 0.517281 0.239582
0.671351 0.536141 0.226429
0.665187 0.553979 0.243259
0.0140383 0.0260471 0.0290379
0.0146181 0.026627 0.0296178
0.0164645 0.0274662 0.030457
0.0201724 0.0291752 0.0321813
0.0318608 0.0308537 0.0318608
0.0581216 0.0330968 0.0281224
0.0898146 0.0357824 0.0218357
0.12723 0.0381933 0.0132753
0.178607 0.0375372 0
0.236454 0.0353552 0
0.290654 0.0325322 0
0.341756 0.0306249 0
0.389303 0.0321508 0
0.433616 0.0354467 0
0.479728 0.0395514 0
0.522515 0.042298 0
0.561486 0.0492714 0
0.590265 0.0590372 0
0.609659 0.0724193 0
0.624674 0.0924239 0
0.638758 0.1205 0
0.656123 0.154849 0
0.67425 0.194965 0
0.692058 0.238773 0.0102693
0.704082 0.286809 0.0462806
0.708431 0.336172 0.0886091
0.707195 0.381949 0.133349
0.701213 0.425986 0.175357
0.692897 0.464668 0.211002
0.684306 0.497108 0.239414
0.678218 0.522011 0.243305
0.675212 0.541009 0.230289
0.669093 0.557885 0.247166
0.0150454 0.0290532 0.0330358
0.0155489 0.0295567 0.0335393
0.0166171 0.031632 0.0346227
0.0187839 0.0327916 0.0357824
0.0303044 0.0353094 0.0352941
0.0519722 0.0379644 0.0339666
0.0800031 0.0409857 0.0290227
0.112184 0.0441444 0.023209
0.154238 0.0461891 0.0132906
0.209659 0.0465858 0
0.266575 0.0444648 0
0.32285 0.0427253 0
0.376989 0.0438392 0
0.428855 0.0476844 0
0.477913 0.0527199 0
0.524742 0.0575418 0
0.565515 0.0612955 0
0.595285 0.071046 0
0.616434 0.0851911 0
0.632013 0.105745 0
0.645594 0.13431 0
0.662669 0.167376 0
0.680934 0.205646 0
0.697002 0.248707 0.00920119
0.708797 0.295521 0.0479896
0.712596 0.343328 0.0917678
0.710628 0.38938 0.136782
0.705043 0.431815 0.17818
0.697154 0.469932 0.214267
0.68867 0.501457 0.242771
0.682322 0.527108 0.248402
0.679133 0.545922 0.234211
0.673472 0.562264 0.25153
0.0102235 0.0352331 0.0352178
0.010544 0.0355535 0.0355383
0.011017 0.0380255 0.0370031
0.0144503 0.0394598 0.0394446
0.0238499 0.0428473 0.0408331
0.0446479 0.0466468 0.04065
0.0695659 0.0505531 0.0385748
0.0997024 0.0546731 0.0327306
0.138018 0.057969 0.0260624
0.18529 0.0602121 0.0133364
0.244007 0.0599069 0
0.306737 0.0576181 0
0.368002 0.057847 0
0.424765 0.0616007 0
0.477348 0.067155 0
0.526253 0.0730449 0
0.570123 0.0778821 0
0.600427 0.084184 0
0.622873 0.097612 0
0.638712 0.118456 0
0.652583 0.146288 0
0.669322 0.179019 0
0.686336 0.216052 0
0.702403 0.259113 0.00860609
0.713176 0.303899 0.0493629
0.717586 0.350317 0.0947585
0.7149 0.395651 0.140047
0.709712 0.437476 0.181842
0.701106 0.474891 0.218219
0.69276 0.506554 0.24686
0.686503 0.531304 0.252583
0.683421 0.55021 0.238499
0.677562 0.566354 0.255634
0.00769055 0.0447089 0.0396735
0.00746166 0.0454719 0.0394446
0.00842298 0.0464332 0.0413977
0.0109407 0.0489509 0.0429236
0.0192721 0.0522774 0.0452583
0.038941 0.0569314 0.0469368
0.0667277 0.0627146 0.0467231
0.0988937 0.0678721 0.0419165
0.137652 0.0726024 0.0336767
0.186938 0.0748608 0.0199893
0.240055 0.0749676 0.00613413
0.301579 0.074464 0
0.364324 0.0751812 0
0.423117 0.0789502 0
0.47805 0.0838483 0
0.528893 0.0896773 0
0.575708 0.0954757 0
0.608072 0.100816 0
0.628702 0.111437 0
0.644373 0.13109 0
0.659663 0.158373 0
0.675822 0.190524 0
0.693263 0.226963 0
0.707759 0.267475 0.00895705
0.718044 0.311757 0.0512245
0.720897 0.357641 0.0980697
0.719905 0.401648 0.143053
0.713649 0.443412 0.185779
0.705089 0.480873 0.222202
0.697627 0.511421 0.251728
0.691722 0.536507 0.256809
0.688777 0.555566 0.243854
0.683497 0.57229 0.26157
0.00755322 0.0555581 0.0455329
0.0074464 0.0564584 0.0454261
0.00779736 0.0568093 0.0457771
0.00907912 0.06009 0.0470588
0.0141604 0.0661784 0.0511482
0.0314183 0.0714275 0.0534066
0.060853 0.0768444 0.0538491
0.0962234 0.0841993 0.0522316
0.137179 0.0901503 0.0442054
0.189624 0.0945602 0.0296635
0.249363 0.0942702 0.0124361
0.308965 0.0948348 0.0030518
0.368963 0.0978103 7.62951e-05
0.426963 0.101793 0
0.481712 0.107515 0
0.534096 0.112886 0
0.582956 0.118715 0
0.620447 0.126192 0
0.645182 0.137911 0
0.65745 0.152163 0
0.668421 0.173114 0
0.684642 0.204349 0
0.701381 0.24007 0
0.715038 0.279744 0.00923171
0.725887 0.323598 0.0540627
0.730953 0.370687 0.105135
0.734874 0.419623 0.158022
0.729107 0.460868 0.201236
0.723308 0.499092 0.240421
0.715328 0.530129 0.269429
0.710094 0.554879 0.275166
0.706783 0.573556 0.26186
0.701778 0.591577 0.27985
0.00793469 0.0679484 0.0519112
0.00808728 0.068101 0.0520638
0.00729381 0.0703136 0.0532692
0.00581369 0.074815 0.0537881
0.00788891 0.0818952 0.0548562
0.019089 0.0900893 0.0600595
0.0447547 0.0957504 0.0627298
0.0864576 0.103441 0.0604562
0.131487 0.11046 0.0565042
0.185214 0.117159 0.0432593
0.251408 0.120302 0.0234684
0.320027 0.120897 0.0091249
0.38117 0.124025 0.00228885
0.436194 0.130007 0
0.491173 0.135973 0
0.542916 0.142687 0
0.591028 0.148775 0
0.631022 0.154757 0
0.6589 0.164614 0
0.674205 0.179919 0
0.687968 0.200656 0
0.703593 0.231281 0
0.72079 0.266468 0
0.733043 0.304738 0.0192416
0.743572 0.346273 0.0667582
0.747234 0.390967 0.119402
0.74696 0.434699 0.168109
0.741527 0.475303 0.212665
0.733928 0.511711 0.251041
0.727001 0.542794 0.281102
0.721813 0.567605 0.285893
0.719814 0.586587 0.273884
0.7149 0.6047 0.293965
0.0091249 0.0831311 0.0610971
0.00883497 0.0838483 0.0608072
0.00732433 0.0873274 0.0612802
0.00537118 0.0933852 0.0613413
0.00244144 0.100465 0.0604105
0.00762951 0.11165 0.0655985
0.0223239 0.120333 0.0702831
0.0618753 0.128878 0.0698558
0.115419 0.137392 0.0654154
0.174182 0.144121 0.0571908
0.243153 0.151049 0.0331884
0.321355 0.154208 0.0134279
0.394537 0.157366 0.00263981
0.45452 0.162341 0
0.5084 0.170184 0
0.55906 0.17882 0
0.605997 0.18674 0
0.646128 0.193851 0
0.675868 0.201572 0
0.693431 0.213123 0
0.708217 0.23389 0
0.723278 0.260945 0
0.739559 0.294224 0
0.751415 0.329107 0.0236057
0.760174 0.369879 0.0763561
0.761791 0.412528 0.130968
0.761379 0.454124 0.180529
0.75697 0.493736 0.226093
0.750912 0.529686 0.267018
0.743786 0.561578 0.29688
0.740658 0.58645 0.303731
0.73875 0.606546 0.293828
0.735271 0.625055 0.314336
0.00852979 0.105547 0.0734874
0.00796521 0.106981 0.07393
0.00700389 0.112016 0.0729686
0.00611887 0.119142 0.0710765
0.00343328 0.127443 0.0693828
0.00392157 0.136934 0.0698711
0.00857557 0.149584 0.0745251
0.0252384 0.162249 0.0801862
0.0827192 0.173693 0.0736858
0.154376 0.183322 0.0643626
0.23331 0.189227 0.0503395
0.319829 0.196689 0.0168917
0.401679 0.200504 0
0.473091 0.204883 0
0.532479 0.212238 0
0.584741 0.221469 0
0.628992 0.231724 0
0.668437 0.242145 0
0.701778 0.251469 0
0.722225 0.261906 0
0.737194 0.277867 0
0.752499 0.303151 0
0.766186 0.332845 0
0.776471 0.364141 0.0306554
0.783475 0.402167 0.0916457
0.785077 0.443809 0.149248
0.785183 0.48394 0.203342
0.781353 0.523125 0.249485
0.77612 0.558907 0.291234
0.771405 0.589197 0.322499
0.767361 0.613153 0.329442
0.763546 0.632334 0.318624
0.758221 0.649012 0.337301
0.0110781 0.134096 0.0860304
0.0103761 0.1364 0.0853285
0.00900282 0.143023 0.084947
0.0071107 0.152132 0.082063
0.0052491 0.161257 0.0781872
0.00358587 0.168597 0.0745251
0.00798047 0.182986 0.0769055
0.0121157 0.199115 0.0810559
0.0289464 0.218936 0.0848859
0.115679 0.233631 0.0656443
0.210254 0.243153 0.0472572
0.309224 0.246082 0.0222629
0.406348 0.252155 0
0.485573 0.25835 0
0.554192 0.263935 0
0.610559 0.271275 0
0.656992 0.281697 0
0.69572 0.293416 0
0.728878 0.306554 0
0.752117 0.314763 0
0.767819 0.328466 0
0.781918 0.349538 0
0.795666 0.377295 0
0.803555 0.405219 0.031754
0.80856 0.439261 0.105745
0.810254 0.476982 0.167422
0.81004 0.514778 0.225177
0.806134 0.550896 0.27126
0.799725 0.585504 0.313832
0.792691 0.612497 0.343786
0.787747 0.635538 0.348837
0.784192 0.652979 0.339284
0.778134 0.669932 0.358206
0.011902 0.169909 0.0968338
0.0105592 0.173571 0.0964981
0.00875868 0.182773 0.0946822
0.007187 0.192187 0.0911116
0.00582895 0.201831 0.0857557
0.0043946 0.211398 0.0803235
0.00471504 0.221714 0.0766308
0.0107271 0.241718 0.0776532
0.0170138 0.263996 0.0799268
0.0410925 0.293065 0.0750134
0.165911 0.306813 0.0328832
0.284566 0.309407 0.00857557
0.395682 0.310491 0
0.492393 0.318166 0
0.568658 0.3234 0
0.630472 0.328191 0
0.683192 0.336889 0
0.725536 0.35021 0
0.757412 0.363058 0
0.781674 0.37232 0
0.798535 0.384161 0
0.812909 0.400519 0
0.825132 0.423728 0
0.830655 0.450294 0.0188602
0.833097 0.477775 0.115267
0.833906 0.510628 0.186069
0.832334 0.546059 0.243473
0.827695 0.580453 0.290806
0.820356 0.611139 0.332464
0.814343 0.638132 0.363439
0.809842 0.659648 0.36994
0.806653 0.676432 0.36173
0.800168 0.691966 0.381247
0.00970474 0.216724 0.109636
0.00755322 0.222568 0.107469
0.00588998 0.232898 0.101808
0.00480659 0.242817 0.0957198
0.00392157 0.252918 0.088838
0.0041352 0.262135 0.0810559
0.00341802 0.273411 0.0743267
0.00569161 0.289677 0.0695964
0.0149691 0.314931 0.0678569
0.0255436 0.34551 0.0654307
0.0657969 0.379721 0.0417029
0.241199 0.382055 0.0121767
0.369436 0.382223 0.0024567
0.48246 0.383215 0
0.577066 0.389776 0
0.648508 0.393194 0
0.705821 0.400488 0
0.751232 0.409873 0
0.786725 0.423362 0
0.81059 0.433204 0
0.829572 0.443168 0
0.843351 0.45594 0
0.854246 0.475837 0
0.858534 0.497139 0
0.857557 0.520211 0.115724
0.855756 0.547463 0.195911
0.854231 0.577966 0.259373
0.848692 0.607446 0.308827
0.841901 0.636683 0.35201
0.836332 0.66212 0.382422
0.833127 0.683909 0.391211
0.828656 0.699428 0.382727
0.822248 0.716045 0.404318
0.00360113 0.274617 0.11751
0.0009308 0.282933 0.108827
9.15541e-05 0.293095 0.0999924
0 0.302663 0.0905623
0 0.314 0.0778973
0 0.323445 0.0673686
0 0.335851 0.0557565
0 0.347692 0.0426184
0.0113375 0.373297 0.0402228
0.0224765 0.401404 0.036347
0.0352483 0.436179 0.0361181
0.142702 0.457588 0.0276188
0.329137 0.455955 0.00613413
0.458824 0.455573 0
0.569497 0.456214 0
0.659129 0.460792 0
0.724361 0.467002 0
0.774945 0.473564 0
0.813123 0.484733 0
0.839506 0.495109 0
0.859739 0.504326 0
0.873289 0.51487 0
0.883421 0.530007 0
0.888624 0.549203 0
0.885145 0.566796 0.111315
0.881605 0.591287 0.205753
0.876875 0.61561 0.274022
0.872084 0.639841 0.328206
0.865583 0.666362 0.372686
0.859373 0.690166 0.404471
0.855406 0.710201 0.41149
0.851392 0.725185 0.407477
0.844923 0.739727 0.428992
0 0.344015 0.108888
0 0.352056 0.0939345
0 0.362951 0.0798352
0 0.372976 0.0648814
0 0.38323 0.0481422
0 0.3944 0.0313268
0 0.406577 0.0205081
0 0.417838 0.00875868
0.00502022 0.439948 0.00888075
0.0177005 0.464622 0.0175479
0.0304112 0.492317 0.0302586
0.049012 0.526909 0.0428473
0.258976 0.529793 0.0189059
0.425864 0.52961 0.00285344
0.552163 0.528862 0
0.653269 0.528939 0
0.737377 0.535012 0
0.795712 0.541329 0
0.838743 0.548333 0
0.866712 0.556298 0
0.889204 0.565759 0
0.901976 0.574533 0
0.912108 0.587655 0
0.91722 0.602762 0
0.913451 0.619074 0.095613
0.907805 0.635477 0.21294
0.9028 0.656519 0.28893
0.896345 0.676097 0.346456
0.890974 0.698741 0.393088
0.883665 0.719448 0.425757
0.87985 0.737636 0.433936
0.87512 0.751904 0.431189
0.869322 0.767117 0.457389
0 0.419257 0.0771344
0 0.427878 0.0567636
0 0.437812 0.0397192
0 0.449104 0.0210117
0 0.459648 0.00755322
0 0.469825 0
0 0.481849 0
0 0.492821 0
0 0.510048 0
0.013077 0.534981 0.0129091
0.026688 0.556588 0.0265202
0.0419928 0.582895 0.041825
0.125353 0.606226 0.0462043
0.370367 0.59913 0.0163272
0.52166 0.598367 0.00167849
0.637293 0.596948 0
0.73051 0.598138 0
0.805661 0.60325 0
0.854322 0.608896 0
0.88687 0.613428 0
0.909483 0.620035 0
0.923613 0.628168 0
0.931914 0.638468 0
0.936629 0.652171 0
0.934127 0.663722 0.0692912
0.925643 0.675319 0.210788
0.918929 0.689632 0.295064
0.912795 0.70753 0.355901
0.907301 0.725063 0.40441
0.90071 0.742504 0.439811
0.895552 0.759335 0.448631
0.892073 0.772854 0.450141
0.885771 0.786572 0.476829
0 0.496651 0.0305333
0 0.503182 0.010071
0 0.513451 0
0 0.523415 0
0 0.534234 0
0 0.543023 0
0 0.553323 0
0 0.561852 0
0 0.577432 0
0.00672923 0.60061 0.00653086
0.0231785 0.620066 0.0229801
0.0386664 0.637552 0.038468
0.0626383 0.668528 0.0584421
0.281926 0.66273 0.03682
0.470832 0.660548 0.0158083
0.60885 0.658518 0.000885023
0.7122 0.659831 0
0.797528 0.660121 0
0.860273 0.664851 0
0.900252 0.666804 0
0.924941 0.67248 0
0.938949 0.677485 0
0.948653 0.68719 0
0.952056 0.697581 0
0.950179 0.706752 0.0583352
0.938949 0.711589 0.206073
0.933333 0.723033 0.296452
0.926299 0.736034 0.362402
0.920928 0.750683 0.41503
0.914458 0.76524 0.450553
0.910063 0.779843 0.464134
0.905821 0.792615 0.469902
0.900496 0.805295 0.498558
0 0.566506 0
0 0.57348 0
0 0.580392 0
0 0.589303 0
0 0.597116 0
0 0.604456 0
0 0.613016 0
0 0.62034 0
0 0.627634 0
0 0.648371 0
0.0168307 0.669718 0.0166171
0.0328985 0.685786 0.0326848
0.0532845 0.708156 0.0530709
0.148486 0.725338 0.0613107
0.403265 0.710002 0.0311894
0.559319 0.710002 0.0153201
0.680308 0.71194 0.00335698
0.778027 0.712612 0
0.852552 0.714122 0
0.90312 0.715663 0
0.932479 0.720012 0
0.950317 0.723842 0
0.958526 0.730053 0
0.963363 0.737881 0
0.960235 0.744808 0.0723735
0.951385 0.747021 0.212512
0.945586 0.755276 0.301701
0.9393 0.765026 0.371405
0.93341 0.776165 0.424506
0.927474 0.789258 0.46157
0.923201 0.800992 0.480278
0.919158 0.811948 0.489235
0.912932 0.823743 0.520989
0 0.622751 0
0 0.626444 0
0 0.631846 0
0 0.637232 0
0 0.642664 0
0 0.649393 0
0 0.655467 0
0 0.661509 0
0 0.668498 0
0 0.680079 0
0.0147555 0.70663 0.0145266
0.0309148 0.72079 0.0306859
0.0514382 0.741314 0.0512245
0.0911116 0.766979 0.0728923
0.328984 0.755764 0.0508736
0.501778 0.753475 0.0337377
0.636133 0.757778 0.021149
0.744945 0.758541 0.00799573
0.831739 0.760311 0
0.895659 0.760204 0
0.933867 0.763394 0
0.954208 0.765728 0
0.964782 0.770306 0
0.971405 0.775921 0
0.968063 0.778637 0.119188
0.960876 0.780529 0.234989
0.956649 0.786343 0.313756
0.950774 0.7935 0.381872
0.945144 0.802899 0.438239
0.938827 0.812604 0.478904
0.935149 0.822934 0.50222
0.930159 0.832959 0.518227
0.926085 0.842893 0.550134
0 0.654597 0.0414435
0 0.655985 0.0408179
0 0.660334 0.040177
0 0.663691 0.0425269
0 0.668208 0.0440528
0 0.673701 0.0455482
0 0.679438 0.0502937
0 0.685374 0.0542306
0 0.691112 0.0589609
0 0.700862 0.0657054
0.0117647 0.725689 0.0865339
0.0305638 0.742473 0.101335
0.050782 0.762692 0.111543
0.0790875 0.789975 0.125841
0.250278 0.792096 0.102113
0.446799 0.787533 0.0707103
0.587274 0.791959 0.0432593
0.70338 0.796002 0.0244144
0.799603 0.799191 0.012665
0.87602 0.799573 0.00511177
0.923506 0.800031 0.00062562
0.950774 0.802289 0
0.96492 0.805432 0.0090486
0.971145 0.806699 0.0742657
0.969573 0.807187 0.185702
0.965911 0.809567 0.271015
0.963592 0.813291 0.337697
0.958541 0.820264 0.396628
0.953414 0.827176 0.453498
0.947829 0.835615 0.497902
0.943236 0.84303 0.527306
0.938384 0.852201 0.550454
0.933776 0.860609 0.582834
0 0.667964 0.14374
0 0.669261 0.144045
0 0.671901 0.147677
0 0.675929 0.150698
0 0.679652 0.155428
0 0.684123 0.159899
0 0.689174 0.165942
0 0.694163 0.171923
0 0.700359 0.180133
0 0.70811 0.187869
0.00723278 0.730205 0.211978
0.0279088 0.750881 0.232654
0.0468452 0.770825 0.250599
0.0702831 0.796262 0.27303
0.178851 0.812787 0.277638
0.394171 0.80502 0.25005
0.529549 0.81033 0.233478
0.642374 0.815122 0.218357
0.748898 0.820584 0.194919
0.837003 0.823636 0.166064
0.899947 0.82356 0.14403
0.933394 0.824002 0.16849
0.9523 0.827909 0.180407
0.962585 0.831205 0.211688
0.97023 0.832868 0.260334
0.970794 0.83447 0.312901
0.968505 0.839216 0.368597
0.964416 0.84416 0.422507
0.96051 0.850263 0.472587
0.954269 0.856062 0.520333
0.948882 0.863691 0.557946
0.944381 0.870207 0.590433
0.938964 0.877806 0.628016
0 0.674342 0.22707
0 0.674907 0.228626
0 0.677195 0.231922
0 0.68069 0.236423
0 0.684367 0.240101
0 0.688716 0.245441
0 0.693339 0.251072
0 0.699153 0.25687
0 0.704631 0.265354
0 0.712093 0.272816
0.00607309 0.73109 0.294804
0.028687 0.755703 0.319417
0.0450141 0.775036 0.336751
0.0673686 0.800381 0.361105
0.14992 0.823926 0.378683
0.347509 0.821424 0.364355
0.483024 0.825895 0.354925
0.597147 0.831968 0.344091
0.69749 0.839277 0.33547
0.789776 0.842527 0.323796
0.863828 0.843534 0.307881
0.914244 0.844923 0.298314
0.939757 0.848447 0.31284
0.955856 0.853544 0.317952
0.966842 0.856535 0.335943
0.971222 0.857908 0.366308
0.970947 0.861662 0.40502
0.967666 0.866407 0.452735
0.963119 0.870893 0.499184
0.958175 0.875959 0.544228
0.953246 0.881071 0.588296
0.947723 0.886564 0.627771
0.942229 0.892088 0.66627
0 0.678004 0.301701
0 0.678538 0.303227
0 0.68072 0.305409
0 0.684993 0.309682
0 0.688701 0.314382
0 0.692821 0.319493
0 0.69749 0.32517
0 0.702953 0.330632
0 0.709468 0.33814
0 0.717296 0.345968
0.00669871 0.734752 0.364431
0.0295567 0.759609 0.389288
0.0471046 0.780179 0.410849
0.0695201 0.805585 0.433249
0.143694 0.832731 0.455451
0.314031 0.835004 0.449851
0.453544 0.840467 0.44242
0.557427 0.846311 0.436332
0.65359 0.855436 0.42855
0.742367 0.860166 0.421347
0.823209 0.863981 0.41323
0.888991 0.865736 0.399039
0.927413 0.868147 0.397482
0.948409 0.872129 0.408484
0.962417 0.877134 0.41149
0.969299 0.879026 0.423377
0.971237 0.881971 0.450309
0.96936 0.886122 0.485435
0.964874 0.890654 0.527932
0.960647 0.893446 0.568689
0.955932 0.897765 0.612985
0.950378 0.901228 0.656413
0.944656 0.905531 0.694697
0 0.683635 0.369284
0 0.685069 0.370703
0 0.687007 0.372656
0 0.690517 0.377157
0 0.694301 0.380941
0 0.699046 0.385687
0 0.70338 0.391028
0 0.709026 0.395666
0 0.715969 0.403616
0 0.723247 0.410895
0.00523384 0.737316 0.424964
0.0306249 0.764721 0.453361
0.0476539 0.785748 0.472389
0.0728313 0.810925 0.496559
0.141436 0.837507 0.519173
0.29575 0.843763 0.519539
0.430045 0.849012 0.515908
0.524544 0.857481 0.511437
0.616556 0.866453 0.505486
0.703593 0.87245 0.496559
0.78294 0.877775 0.490944
0.850645 0.882445 0.484657
0.904723 0.884504 0.475776
0.935729 0.88748 0.474784
0.954116 0.891875 0.483177
0.963424 0.895171 0.486473
0.9664 0.899168 0.499458
0.966369 0.903136 0.523415
0.964462 0.906264 0.55552
0.961257 0.909072 0.594308
0.956756 0.911589 0.6318
0.951232 0.914092 0.672267
0.945815 0.916686 0.710842
0 0.693004 0.428611
0 0.693965 0.429572
0 0.696773 0.43238
0 0.699611 0.436225
0 0.704433 0.44004
0 0.708278 0.444877
0 0.713405 0.449012
0 0.717586 0.4542
0 0.724147 0.460746
0 0.73138 0.466987
0.00285344 0.742977 0.478584
0.0282902 0.770413 0.506004
0.0478065 0.791928 0.525521
0.0818952 0.814023 0.545632
0.158938 0.839033 0.567681
0.288212 0.849256 0.572992
0.409323 0.856321 0.573159
0.500526 0.862501 0.570397
0.585443 0.871382 0.567346
0.662287 0.879194 0.559228
0.739467 0.885344 0.554437
0.810651 0.891493 0.548638
0.868711 0.895537 0.545739
0.912001 0.898802 0.541039
0.938293 0.90309 0.538338
0.953262 0.90605 0.543313
0.95993 0.910719 0.548974
0.961425 0.914229 0.564477
0.961151 0.917952 0.585184
0.958206 0.920027 0.614237
0.954284 0.922133 0.649317
0.949676 0.923537 0.683696
0.946181 0.925063 0.717205
0 0.707256 0.483818
0 0.707973 0.485557
0 0.709667 0.487251
0 0.712596 0.489174
0 0.716167 0.491737
0 0.720363 0.495933
0 0.723888 0.50045
0 0.727962 0.50454
0 0.733104 0.508675
0 0.738918 0.514488
0 0.748241 0.522805
0.0291905 0.774334 0.548913
0.05832 0.792447 0.565026
0.105806 0.812924 0.583535
0.186206 0.835325 0.603967
0.296681 0.849744 0.613474
0.396475 0.85951 0.618296
0.482002 0.867002 0.61886
0.557198 0.876173 0.618097
0.628611 0.882567 0.612528
0.699519 0.890425 0.606455
0.767452 0.898344 0.603418
0.830839 0.9037 0.600824
0.879988 0.908843 0.600015
0.915312 0.912139 0.596338
0.938735 0.915557 0.593774
0.948989 0.918807 0.599023
0.953979 0.922805 0.609018
0.956344 0.92517 0.622385
0.953246 0.928084 0.642283
0.950378 0.929229 0.668406
0.946517 0.930388 0.697551
0.943786 0.930678 0.726818
0 0.72221 0.532769
0 0.722805 0.532357
0 0.723323 0.532876
0 0.7243 0.533837
0 0.727062 0.536614
0 0.73019 0.538735
0 0.732845 0.542397
0 0.735592 0.545144
0 0.7402 0.54876
0.00767529 0.744839 0.553399
0.0255131 0.752667 0.560235
0.0625315 0.775677 0.582254
0.106813 0.791943 0.597543
0.165789 0.808911 0.612543
0.242908 0.833005 0.633677
0.329686 0.850767 0.647501
0.402869 0.864927 0.65771
0.469017 0.874052 0.659876
0.537881 0.882887 0.660761
0.602808 0.888792 0.658717
0.666972 0.895918 0.652903
0.73283 0.904753 0.648768
0.792035 0.911925 0.648005
0.844251 0.918135 0.648249
0.885023 0.921889 0.649027
0.915862 0.925719 0.646891
0.936797 0.92665 0.642832
0.945968 0.928801 0.648997
0.949874 0.931731 0.659907
0.947356 0.934203 0.674372
0.946166 0.935042 0.693187
0.94406 0.934936 0.716075
0.942092 0.934981 0.739116
0.0404212 0.726574 0.562158
0.0402991 0.726452 0.56202
0.046891 0.725032 0.561624
0.0473335 0.725475 0.562066
0.053666 0.728817 0.563409
0.062501 0.730648 0.566247
0.0661936 0.733349 0.568948
0.073579 0.735729 0.570321
0.081239 0.739376 0.573983
