LUT/LogC3/709/looks/Alexa_LogC3_709_D50_FujiEterna_A.cube
LUT_3D_SIZE 9
0 0 0
0.0399329 0.0197452 0.0213779
0.12192 0.0327306 0.0240635
0.293584 0 0
0.487846 0 0
0.605478 0 0
0.649332 0 0
0.66482 0 0
0.66482 0 0
0.0176242 0.0491646 0.03505
0.039704 0.0497749 0.0335393
0.130877 0.0643015 0.0251469
0.315221 0.00177005 0
0.485359 0 0
0.605097 0 0
0.649287 0 0
0.66482 0 0
0.66482 0 0
0 0.117754 0.0436866
0 0.11577 0.0436103
0.119371 0.135576 0.0234379
0.366827 0.143908 0
0.569497 0 0
0.604486 0 0
0.64921 0 0
0.66482 0 0
0.66482 0 0
0 0.238972 0.0099031
0 0.238102 0.0103151
0 0.236805 0.0109255
0.377615 0.331014 0
0.679942 0.325261 0
0.766857 0.196612 0
0.648966 0 0
0.66482 0 0
0.66482 0 0
0 0.347036 0
0 0.346868 0
0 0.346624 0
0 0.345907 0
0.711177 0.54873 0
0.89366 0.545113 0
0.915801 0.487419 0
0.77847 0.0138552 0
0.66482 0 0
0 0.396307 0
0 0.396277 0
0 0.396246 0
0 0.396139 0
0 0.395789 0
0.924926 0.69099 0
0.992523 0.696147 0
0.999374 0.687587 0
0.992859 0.665217 0
0 0.416297 0
0 0.416297 0
0 0.416266 0
0 0.416236 0
0 0.416098 0
0.589151 0.664714 0
1 0.746578 0
1 0.749432 0
1 0.748287 0
0 0.437507 0
0 0.437507 0
0 0.437507 0
0 0.437476 0
0 0.43743 0
0 0.437247 0
0.97789 0.756786 0
1 0.767758 0
1 0.768673 0
0 0.441398 0
0 0.441398 0
0 0.441398 0
0 0.441398 0
0 0.441398 0
0 0.441398 0
0 0.441398 0
1 0.76997 0
1 0.772961 0
0.00926223 0.0209354 0.0356909
0.0406653 0.0310674 0.0422522
0.134432 0.0339208 0.0474098
0.319081 0 0.00801099
0.510292 0 0
0.605402 0 0
0.649332 0 0
0.66482 0 0
0.66482 0 0
0.00497444 0.0441596 0.0460212
0.0306096 0.0398871 0.0408331
0.132601 0.0549935 0.0413214
0.315511 0 0.000793469
0.489723 0 0
0.60502 0 0
0.649287 0 0
0.66482 0 0
0.66482 0 0
0 0.113802 0.0525673
0 0.110872 0.0514839
0.120516 0.128588 0.037232
0.364492 0.132235 0
0.558968 0 0
0.60441 0 0
0.64921 0 0
0.66482 0 0
0.66482 0 0
0 0.235721 0.011429
0 0.234852 0.0118257
0 0.233555 0.0124361
0.373861 0.325948 0
0.677043 0.31902 0
0.761624 0.182483 0
0.648936 0 0
0.66482 0 0
0.66482 0 0
0 0.346441 0
0 0.346319 0
0 0.346075 0
0 0.345357 0
0.710231 0.547433 0
0.893004 0.543481 0
0.914351 0.48368 0
0.771221 0 0
0.66482 0 0
0 0.396231 0
0 0.396201 0
0 0.39617 0
0 0.396063 0
0 0.395712 0
0.924743 0.690776 0
0.992432 0.695888 0
0.999298 0.687327 0
0.992584 0.664439 0
0 0.416266 0
0 0.416266 0
0 0.416236 0
0 0.41622 0
0 0.416083 0
0.587259 0.66421 0
1 0.746548 0
1 0.749416 0
1 0.748241 0
0 0.437507 0
0 0.437507 0
0 0.437476 0
0 0.437476 0
0 0.4374 0
0 0.437247 0
0.977813 0.756756 0
1 0.767742 0
1 0.768658 0
0 0.441398 0
0 0.441398 0
0 0.441398 0
0 0.441398 0
0 0.441398 0
0 0.441398 0
0 0.441398 0
1 0.769955 0
1 0.772961 0
0 0.0278172 0.106691
0.0192111 0.0333104 0.110246
0.131716 0.0361944 0.119753
0.330114 0 0.113619
0.534905 0 0.069337
0.638056 0 0
0.649317 0 0
0.66482 0 0
0.66482 0 0
0 0.0382391 0.106828
4.57771e-05 0.035523 0.0985428
0.110277 0.0390936 0.11043
0.320073 0 0.104875
0.530968 0 0.0458228
0.635142 0 0
0.649256 0 0
0.66482 0 0
0.66482 0 0
0 0.125353 0.143435
0 0.122576 0.141314
0.0957961 0.136233 0.13228
0.397345 0.12546 0.102388
0.58883 0 0.0149691
0.629938 0 0
0.64918 0 0
0.66482 0 0
0.66482 0 0
0 0.265095 0.121004
0 0.263493 0.119203
0 0.261112 0.116396
0.398932 0.347051 0.00175479
0.710903 0.320256 0
0.753582 0.151827 0
0.648936 0 0
0.66482 0 0
0.66482 0 0
0 0.345602 0
0 0.345418 0
0 0.345174 0
0 0.344457 0
0.708965 0.545388 0
0.891905 0.54081 0
0.9122 0.478187 0
0.759411 0 0
0.66482 0 0
0 0.396094 0
0 0.396063 0
0 0.396033 0
0 0.395926 0
0 0.395575 0
0.924407 0.69044 0
0.992279 0.695506 0
0.999191 0.686885 0
0.992081 0.663035 0
0 0.41622 0
0 0.41622 0
0 0.41622 0
0 0.416159 0
0 0.416022 0
0.584009 0.66334 0
1 0.746487 0
1 0.749355 0
1 0.748196 0
0 0.437476 0
0 0.437476 0
0 0.437461 0
0 0.437461 0
0 0.4374 0
0 0.437217 0
0.977737 0.756725 0
1 0.767727 0
1 0.768627 0
0 0.441398 0
0 0.441398 0
0 0.441398 0
0 0.441398 0
0 0.441398 0
0 0.441398 0
0 0.441398 0
1 0.769955 0
1 0.772961 0
0 0.00915541 0.231144
0 0.00633249 0.232502
0.104036 0.00555428 0.246342
0.328084 0 0.253727
0.544549 0 0.247028
0.654139 0 0.23743
0.687633 0 0.189288
0.683085 0 0
0.66482 0 0
0 0.0107729 0.228809
0 0.010956 0.22855
0.0746319 0.00704967 0.240284
0.318181 0 0.251026
0.542077 0 0.243717
0.653773 0 0.233738
0.687343 0 0.182055
0.679896 0 0
0.66482 0 0
0 0.0888533 0.272663
0 0.0847486 0.26862
0.0138094 0.083238 0.266377
0.343847 0.00679026 0.257786
0.538186 0 0.238575
0.653056 0 0.226856
0.68687 0 0.170443
0.669352 0 0
0.66482 0 0
0 0.312993 0.381079
0 0.311727 0.380209
0 0.309483 0.378698
0.362249 0.374762 0.360662
0.726101 0.333211 0.316564
0.78291 0.0346838 0.251316
0.684428 0 0.124239
0.66482 0 0
0.66482 0 0
0 0.442344 0.326894
0 0.44184 0.325658
0 0.441184 0.323995
0 0.438895 0.318074
0.76495 0.649073 0.116411
0.946029 0.61796 0
0.904921 0.45948 0
0.709911 0 0
0.66482 0 0
0 0.395682 0
0 0.395651 0
0 0.395636 0
0 0.395529 0
0 0.395163 0
0.923476 0.689357 0
0.991867 0.694438 0
0.998825 0.685496 0
0.990463 0.658503 0
0 0.416083 0
0 0.416052 0
0 0.416052 0
0 0.415991 0
0 0.415885 0
0.574319 0.660746 0
1 0.746334 0
1 0.749203 0
1 0.748028 0
0 0.4374 0
0 0.4374 0
0 0.4374 0
0 0.437369 0
0 0.437324 0
0 0.43714 0
0.977401 0.756634 0
1 0.767666 0
1 0.768582 0
0 0.441398 0
0 0.441398 0
0 0.441398 0
0 0.441398 0
0 0.441398 0
0 0.441398 0
0 0.441398 0
1 0.769955 0
1 0.772961 0
0 0 0.324742
0 0 0.324697
0 0 0.338796
0.302403 0 0.365148
0.54287 0 0.371786
0.655375 0 0.375708
0.690974 0 0.379263
0.701228 0 0.376577
0.701366 0 0.348363
0 0 0.324315
0 0 0.324269
0 0 0.332982
0.290578 0 0.364218
0.540291 0 0.370962
0.655039 0 0.374884
0.690944 0 0.378531
0.701213 0 0.375769
0.701381 0 0.346471
0 0 0.323583
0 0 0.323522
0 0 0.324483
0.271611 0 0.362478
0.536355 0 0.369757
0.654521 0 0.373724
0.690898 0 0.37734
0.701198 0 0.374502
0.701396 0 0.343633
0 0.22002 0.475471
0 0.217227 0.473671
0 0.212604 0.470741
0.253925 0.226703 0.491127
0.641001 0.0476692 0.461418
0.652888 0 0.370031
0.69073 0 0.373648
0.701228 0 0.36788
0.701473 0 0.334325
0 0.491386 0.594659
0 0.491188 0.594507
0 0.490852 0.594293
0 0.489845 0.593515
0.726604 0.68365 0.61146
0.925597 0.653696 0.59176
0.92108 0.518959 0.555367
0.701411 0 0.342016
0.701411 0 0.299763
0 0.540795 0.57174
0 0.540734 0.571481
0 0.540642 0.571084
0 0.540337 0.56997
0 0.539406 0.566217
0.95404 0.843565 0.540154
1 0.835187 0.489021
1 0.800977 0.31252
0.985153 0.643656 0
0 0.415579 0
0 0.415579 0
0 0.415549 0
0 0.415518 0
0 0.415381 0
0.540917 0.651789 0
1 0.74583 0
1 0.748684 0
1 0.747524 0
0 0.437186 0
0 0.437186 0
0 0.437186 0
0 0.437171 0
0 0.43711 0
0 0.436927 0
0.976318 0.756329 0
1 0.767514 0
1 0.768414 0
0 0.441398 0
0 0.441398 0
0 0.441398 0
0 0.441398 0
0 0.441398 0
0 0.441398 0
0 0.441398 0
1 0.769924 0
1 0.772961 0
0 0 0.374533
0 0 0.374502
0 0 0.374502
0.202686 0 0.421851
0.526406 0 0.4421
0.655802 0 0.450217
0.693004 0 0.457389
0.704189 0 0.46273
0.703975 0 0.460349
0 0 0.374456
0 0 0.374456
0 0 0.374441
0.18201 0 0.419623
0.523705 0 0.441947
0.655436 0 0.450034
0.692958 0 0.457252
0.704189 0 0.462623
0.70396 0 0.460227
0 0 0.374334
0 0 0.374334
0 0 0.374334
0.148821 0 0.415778
0.519585 0 0.441688
0.654963 0 0.44976
0.692897 0 0.457038
0.704173 0 0.462425
0.703944 0 0.460044
0 0 0.373983
0 0 0.373983
0 0 0.373983
0 0 0.396582
0.505852 0 0.440879
0.653315 0 0.44892
0.692699 0 0.456413
0.704112 0 0.461814
0.703883 0 0.459388
0 0.422477 0.634424
0 0.421439 0.633997
0 0.420081 0.633417
0 0.415473 0.63151
0.632151 0.519966 0.68307
0.851942 0.405875 0.657435
0.692058 0 0.454337
0.703929 0 0.459922
0.7037 0 0.457343
0 0.562097 0.68864
0 0.562081 0.688624
0 0.562051 0.688594
0 0.561975 0.688487
0 0.561761 0.688197
0.929229 0.859419 0.754986
0.988251 0.856855 0.755535
0.990295 0.83183 0.750957
0.978103 0.766766 0.732952
0 0.573388 0.688472
0 0.573388 0.688426
0 0.573358 0.688365
0 0.573327 0.688258
0 0.573175 0.687846
0.117556 0.782452 0.74374
0.992477 0.903548 0.74902
1 0.903471 0.745327
1 0.90071 0.732448
0 0.43653 0
0 0.43653 0
0 0.43653 0
0 0.436515 0
0 0.436454 0
0 0.436271 0
0.972854 0.755398 0
1 0.766979 0
1 0.767926 0
0 0.441398 0
0 0.441398 0
0 0.441398 0
0 0.441398 0
0 0.441398 0
0 0.441398 0
0 0.441398 0
1 0.769863 0
1 0.772961 0
0 0 0.39408
0 0 0.39408
0 0 0.39408
0 0 0.39408
0.472343 0 0.469169
0.651209 0 0.479744
0.694896 0 0.487037
0.706111 0 0.49192
0.706096 0 0.491554
0 0 0.39408
0 0 0.39408
0 0 0.39408
0 0 0.394064
0.468681 0 0.468986
0.650828 0 0.479683
0.69485 0 0.487007
0.706111 0 0.491905
0.706096 0 0.491539
0 0 0.394049
0 0 0.394049
0 0 0.394049
0 0 0.394049
0.462745 0 0.468696
0.650263 0 0.479576
0.694804 0 0.486976
0.706111 0 0.491875
0.706096 0 0.491508
0 0 0.393988
0 0 0.393988
0 0 0.393988
0 0 0.393988
0.435187 0 0.466896
0.648371 0 0.479255
0.694606 0 0.486824
0.706111 0 0.491783
0.706096 0 0.491417
0 0 0.393805
0 0 0.393805
0 0 0.393805
0 0 0.39379
0.287282 0 0.455314
0.642176 0 0.478187
0.694026 0 0.486366
0.706096 0 0.491493
0.706081 0 0.491112
0 0.549325 0.702724
0 0.549187 0.702678
0 0.548989 0.702602
0 0.54847 0.702388
0 0.546624 0.701686
0.894286 0.798474 0.781811
0.966705 0.767697 0.778836
0.943847 0.630152 0.755413
0.714473 0 0.499962
0 0.576867 0.714443
0 0.576867 0.714427
0 0.576867 0.714427
0 0.576852 0.714412
0 0.576837 0.714366
0 0.576761 0.714214
0.986267 0.906569 0.80444
0.999054 0.907469 0.805966
0.999893 0.90663 0.8056
0 0.590539 0.720409
0 0.590539 0.720409
0 0.590524 0.720394
0 0.590524 0.720394
0 0.590478 0.720333
0 0.590356 0.720211
0.937133 0.907362 0.804257
0.998566 0.915969 0.807889
1 0.915908 0.80766
0 0.593988 0.718715
0 0.593988 0.718715
0 0.593988 0.7187
0 0.593988 0.718685
0 0.593973 0.718654
0 0.593957 0.718532
0 0.593927 0.718227
0.996323 0.916152 0.799619
1 0.916716 0.800519
0 0 0.402045
0 0 0.402045
0 0 0.402045
0 0 0.402045
0.161379 0 0.454429
0.641108 0 0.491203
0.69575 0 0.49865
0.708476 0 0.50309
0.708446 0 0.502998
0 0 0.402045
0 0 0.402045
0 0 0.402045
0 0 0.402045
0.138796 0 0.451759
0.64062 0 0.491173
0.69572 0 0.498619
0.708461 0 0.50309
0.708446 0 0.502983
0 0 0.402045
0 0 0.402045
0 0 0.402045
0 0 0.402045
0.0947585 0 0.44683
0.639796 0 0.491112
0.695659 0 0.498604
0.708446 0 0.503059
0.708446 0 0.502968
0 0 0.402029
0 0 0.402014
0 0 0.402014
0 0 0.402014
0 0 0.418753
0.637308 0 0.490929
0.69546 0 0.498497
0.708385 0 0.503014
0.708446 0 0.502953
0 0 0.401953
0 0 0.401953
0 0 0.401953
0 0 0.401953
0 0 0.401953
0.628946 0 0.490379
0.694865 0 0.498207
0.708156 0 0.502815
0.708415 0 0.502861
0 0 0.40177
0 0 0.40177
0 0 0.40177
0 0 0.40177
0 0 0.40177
0.576974 0 0.486488
0.692927 0 0.497246
0.707515 0 0.502266
0.708339 0 0.502617
0 0.575875 0.717983
0 0.57586 0.717968
0 0.57586 0.717968
0 0.575845 0.717952
0 0.575814 0.717922
0 0.575677 0.71783
0.981918 0.900938 0.813901
0.996262 0.899229 0.814221
0.996506 0.893477 0.813184
0 0.589395 0.725277
0 0.589395 0.725277
0 0.589395 0.725277
0 0.58938 0.725261
0 0.589334 0.725231
0 0.589212 0.725155
0.907073 0.903944 0.815122
0.997299 0.916442 0.819165
0.999985 0.916289 0.818906
0 0.595224 0.728191
0 0.595224 0.728191
0 0.595224 0.728191
0 0.595224 0.728191
0 0.595224 0.728191
0 0.595224 0.728176
0 0.595224 0.728145
0.993866 0.917418 0.818875
1 0.918151 0.819425
0 0 0.40383
0 0 0.40383
0 0 0.40383
0 0 0.40383
0 0 0.40383
0.624445 0 0.492668
0.695033 0 0.50071
0.708858 0 0.505547
0.70927 0 0.505684
0 0 0.40383
0 0 0.40383
0 0 0.40383
0 0 0.40383
0 0 0.40383
0.623819 0 0.492622
0.695003 0 0.500694
0.708843 0 0.505547
0.70927 0 0.505684
0 0 0.40383
0 0 0.40383
0 0 0.40383
0 0 0.40383
0 0 0.40383
0.622858 0 0.492546
0.694926 0 0.500664
0.708827 0 0.505547
0.70927 0 0.505684
0 0 0.40383
0 0 0.40383
0 0 0.40383
0 0 0.40383
0 0 0.40383
0.619593 0 0.492302
0.694728 0 0.500603
0.708751 0 0.505516
0.70927 0 0.505684
0 0 0.40383
0 0 0.40383
0 0 0.40383
0 0 0.40383
0 0 0.40383
0.605905 0 0.491371
0.694087 0 0.500359
0.708553 0 0.505455
0.70927 0 0.505684
0 0 0.40383
0 0 0.40383
0 0 0.40383
0 0 0.40383
0 0 0.40383
0.496147 0 0.485496
0.691386 0 0.499733
0.707912 0 0.505241
0.70927 0 0.505684
0 0.568719 0.716213
0 0.568704 0.716197
0 0.568689 0.716197
0 0.568643 0.716167
0 0.568429 0.716091
0 0.567956 0.715908
0.975311 0.877119 0.812238
0.989929 0.865721 0.811154
0.986191 0.837736 0.806821
0 0.587198 0.725368
0 0.587182 0.725368
0 0.587182 0.725368
0 0.587167 0.725353
0 0.587121 0.725322
0 0.586954 0.725246
0.847684 0.894759 0.815961
0.996674 0.915618 0.821546
0.999649 0.91574 0.821302
0 0.594858 0.729702
0 0.594858 0.729702
0 0.594858 0.729702
0 0.594858 0.729702
0 0.594858 0.729702
0 0.594858 0.729702
0 0.594858 0.729702
0.992706 0.91751 0.822507
1 0.918456 0.822721
