LUT/LogC3/709/looks/Alexa_LogC3_709_D65_5219_B.cube
LUT_3D_SIZE 9
0.0130312 0.024033 0.0260166
0.026215 0.0282139 0.029221
0.175433 0.0333562 0
0.401968 0.0218051 0
0.555276 0.0290684 0
0.627863 0.0996109 0
0.696345 0.273075 0.0445411
0.687099 0.456886 0.205219
0.663645 0.550439 0.240711
0.0102235 0.0352331 0.0352178
0.0238499 0.0428473 0.0408331
0.138018 0.057969 0.0260624
0.368002 0.057847 0
0.570123 0.0778821 0
0.652583 0.146288 0
0.713176 0.303899 0.0493629
0.701106 0.474891 0.218219
0.677562 0.566354 0.255634
0.0091249 0.0831311 0.0610971
0.00244144 0.100465 0.0604105
0.115419 0.137392 0.0654154
0.394537 0.157366 0.00263981
0.605997 0.18674 0
0.708217 0.23389 0
0.760174 0.369879 0.0763561
0.750912 0.529686 0.267018
0.735271 0.625055 0.314336
0.00970474 0.216724 0.109636
0.00392157 0.252918 0.088838
0.0149691 0.314931 0.0678569
0.369436 0.382223 0.0024567
0.705821 0.400488 0
0.829572 0.443168 0
0.857557 0.520211 0.115724
0.841901 0.636683 0.35201
0.822248 0.716045 0.404318
0 0.496651 0.0305333
0 0.534234 0
0 0.577432 0
0.0626383 0.668528 0.0584421
0.7122 0.659831 0
0.924941 0.67248 0
0.950179 0.706752 0.0583352
0.920928 0.750683 0.41503
0.900496 0.805295 0.498558
0 0.667964 0.14374
0 0.679652 0.155428
0 0.700359 0.180133
0.0468452 0.770825 0.250599
0.529549 0.81033 0.233478
0.899947 0.82356 0.14403
0.97023 0.832868 0.260334
0.96051 0.850263 0.472587
0.938964 0.877806 0.628016
0 0.693004 0.428611
0 0.704433 0.44004
0 0.724147 0.460746
0.0478065 0.791928 0.525521
0.409323 0.856321 0.573159
0.739467 0.885344 0.554437
0.938293 0.90309 0.538338
0.961151 0.917952 0.585184
0.946181 0.925063 0.717205
0.185977 0.719097 0.573785
0.194507 0.723613 0.577295
0.217136 0.735241 0.586938
0.304692 0.792798 0.642512
0.463661 0.881727 0.7205
0.63949 0.916487 0.727398
0.828473 0.942382 0.720439
0.934676 0.939559 0.724697
0.943389 0.941299 0.767407
0.523491 0.756481 0.60441
0.525704 0.757702 0.605631
0.541085 0.771084 0.620005
0.61413 0.841138 0.68806
0.703578 0.918563 0.7635
0.764309 0.948287 0.789258
0.837644 0.948608 0.796613
0.914656 0.95259 0.804654
0.950927 0.950851 0.811933
0.0141299 0.0261387 0.038117
0.0224613 0.030457 0.0404517
0.175219 0.0391546 0.0112764
0.425849 0.0156863 0
0.568978 0.0227817 0.00720226
0.634379 0.0871443 0.0216068
0.700908 0.272648 0.0740978
0.690867 0.459648 0.215976
0.667567 0.55436 0.247639
0.0166018 0.0346075 0.0425879
0.0273594 0.0393683 0.0453498
0.158404 0.0543526 0.027451
0.398352 0.0512093 0
0.581384 0.065156 0
0.659358 0.137102 0.00657664
0.717449 0.304189 0.0806287
0.706081 0.477867 0.228199
0.681163 0.569955 0.262226
0.0129244 0.084947 0.0668956
0.0108492 0.0988632 0.0668193
0.126162 0.131136 0.0711681
0.392554 0.147402 0.012665
0.607294 0.175036 0
0.708675 0.223377 0
0.759091 0.366812 0.107271
0.748882 0.527657 0.269993
0.728176 0.617975 0.309239
0.0182345 0.21825 0.117159
0.0119936 0.252995 0.0988937
0.0156558 0.30663 0.0735485
0.370321 0.378134 0.00735485
0.706661 0.39733 0
0.829221 0.44184 0
0.854261 0.518944 0.151431
0.841245 0.634028 0.356344
0.821118 0.713909 0.405188
0 0.497749 0.0436408
0 0.53579 0
0 0.572839 0
0.0586404 0.663523 0.055436
0.717113 0.660731 0
0.932235 0.677775 0
0.945525 0.705119 0.0986801
0.920089 0.749844 0.419181
0.900267 0.805066 0.50132
0 0.673396 0.146181
0 0.684153 0.157931
0 0.702495 0.179263
0.0421149 0.766094 0.24686
0.532357 0.811139 0.230289
0.903426 0.827039 0.147509
0.971023 0.833677 0.261128
0.960174 0.850935 0.477256
0.939345 0.877195 0.62739
0 0.696849 0.432456
0 0.70634 0.441932
0 0.723812 0.459419
0.0398566 0.783963 0.517571
0.401175 0.848173 0.565011
0.738674 0.88455 0.551644
0.93846 0.903258 0.538506
0.961303 0.918105 0.585336
0.946288 0.92517 0.718303
0.185977 0.719097 0.573785
0.192813 0.72192 0.575616
0.215122 0.733227 0.584924
0.291096 0.779187 0.628901
0.456275 0.874327 0.713115
0.637476 0.914473 0.725368
0.827619 0.941543 0.7196
0.934585 0.939467 0.724605
0.94902 0.946914 0.773022
0.530159 0.763149 0.611078
0.529305 0.761303 0.609232
0.539574 0.769574 0.618494
0.595071 0.822065 0.668986
0.695903 0.912902 0.757824
0.763119 0.947097 0.788052
0.842786 0.95375 0.801755
0.91725 0.955184 0.807248
0.953048 0.952972 0.814054
0.0167239 0.0297704 0.11371
0.0226444 0.0336919 0.114641
0.148165 0.0411536 0.108202
0.421012 0.0188907 0.0751659
0.578088 0.0129244 0.09131
0.645838 0.075639 0.0880751
0.70988 0.274632 0.118059
0.701503 0.468299 0.233616
0.677272 0.564065 0.261341
0.018616 0.0326696 0.113603
0.0267948 0.0368353 0.113771
0.165408 0.0484016 0.110445
0.432746 0.0406348 0.0838941
0.596048 0.0468757 0.0852674
0.670405 0.120195 0.0856336
0.725429 0.304189 0.126619
0.715816 0.485603 0.247929
0.691737 0.579538 0.275807
0.00488289 0.0999466 0.149844
0.00199893 0.109056 0.147951
0.11458 0.12459 0.136584
0.406928 0.135805 0.0970321
0.619577 0.146365 0.0707713
0.707576 0.201328 0.0707866
0.75404 0.358785 0.143221
0.74493 0.521721 0.276051
0.722042 0.610849 0.307118
0.016495 0.24155 0.193408
0.0099794 0.269032 0.18088
0.00619516 0.303212 0.149081
0.383536 0.368368 0.0745708
0.694667 0.394354 0
0.821607 0.441215 0
0.841764 0.506477 0.188922
0.831968 0.62475 0.356069
0.820279 0.713069 0.40734
0 0.498955 0.118807
0 0.532189 0.0510719
0 0.566522 0
0.048127 0.640024 0.0479438
0.703685 0.659327 0
0.914961 0.677501 0
0.932464 0.702098 0.178607
0.917082 0.744854 0.424186
0.902235 0.806043 0.504295
0 0.684688 0.155459
0 0.693065 0.166842
0 0.70695 0.182712
0.0305943 0.754574 0.233341
0.522622 0.80441 0.22356
0.903365 0.824964 0.140459
0.969345 0.830991 0.25745
0.956008 0.847776 0.48307
0.937636 0.875486 0.625681
0 0.707179 0.441794
0 0.712734 0.448341
0 0.725704 0.461311
0.0213931 0.765515 0.498116
0.375875 0.822889 0.539712
0.734264 0.88014 0.547234
0.936812 0.90161 0.536858
0.958984 0.915785 0.583032
0.949111 0.927993 0.722148
0.204685 0.737789 0.592477
0.206226 0.735332 0.589014
0.217792 0.738903 0.591592
0.263279 0.754376 0.605097
0.435615 0.853666 0.692454
0.629358 0.909361 0.720256
0.824247 0.938155 0.716213
0.937392 0.942275 0.727413
0.951873 0.949783 0.775891
0.544472 0.777478 0.625391
0.543572 0.77557 0.623484
0.555215 0.785229 0.634134
0.5673 0.794293 0.641215
0.683787 0.900771 0.745708
0.764706 0.948684 0.789639
0.847166 0.958114 0.806134
0.92575 0.963699 0.815747
0.963226 0.963149 0.824247
0.035584 0.0107424 0.326558
0.0368353 0.0119936 0.32781
0.128985 0.0281071 0.310002
0.385321 0.012314 0.264439
0.587442 0 0.272663
0.662043 0.0609293 0.239277
0.719295 0.269108 0.214481
0.713954 0.473762 0.27306
0.689891 0.574685 0.286961
0.0380865 0.0132448 0.327077
0.0400244 0.0151827 0.328008
0.142412 0.0325322 0.312444
0.397177 0.0191806 0.268299
0.602502 0.00944533 0.285725
0.682582 0.0984665 0.247807
0.735332 0.299138 0.22652
0.728115 0.492927 0.287236
0.704936 0.590738 0.302998
0.0276188 0.0607919 0.347585
0.0254673 0.0616312 0.348424
0.140749 0.0838483 0.329747
0.432334 0.0763409 0.308461
0.638514 0.0944228 0.299718
0.716411 0.172274 0.258625
0.766354 0.353155 0.252522
0.760678 0.53048 0.316777
0.739544 0.626352 0.337621
0.0195468 0.27068 0.364431
0.0150301 0.290181 0.368917
0.00698863 0.322133 0.385855
0.351324 0.365332 0.370321
0.69102 0.366888 0.327153
0.809506 0.430304 0.29868
0.84477 0.500542 0.30692
0.845502 0.631312 0.396612
0.835767 0.726558 0.435828
0.00154116 0.513634 0.354345
0.000289921 0.533379 0.347082
0.00349432 0.560586 0.343297
0.0311437 0.609201 0.34992
0.662181 0.667002 0.329213
0.881529 0.697261 0.303639
0.932219 0.722942 0.33135
0.937469 0.763256 0.470573
0.923537 0.825345 0.5346
0 0.694469 0.253193
0 0.701122 0.258854
0.00383001 0.713848 0.272572
0.0157473 0.728771 0.291493
0.483513 0.801373 0.321431
0.887205 0.837919 0.314275
0.970657 0.852369 0.385748
0.976913 0.868696 0.526986
0.963729 0.899565 0.648768
0.00231937 0.73344 0.46804
0.00396735 0.737087 0.471687
0.00857557 0.743694 0.479301
0.014786 0.7579 0.491508
0.354849 0.806851 0.52369
0.738613 0.885496 0.55259
0.955566 0.918364 0.552621
0.981903 0.937713 0.604944
0.974655 0.953536 0.752682
0.219654 0.757763 0.611444
0.225101 0.755215 0.609903
0.241718 0.762814 0.615518
0.275898 0.766979 0.6177
0.412146 0.831205 0.670985
0.634989 0.912993 0.723903
0.845411 0.958328 0.736385
0.965881 0.968765 0.753887
0.976593 0.974502 0.80061
0.561166 0.794171 0.642084
0.560723 0.792721 0.64065
0.57142 0.801419 0.650339
0.582727 0.809735 0.656657
0.681956 0.898955 0.743893
0.77499 0.958968 0.799924
0.866392 0.977356 0.82536
0.943313 0.981247 0.83331
0.981918 0.981842 0.842924
0.0369421 0.0431983 0.53489
0.039704 0.0459602 0.537652
0.0667277 0.070985 0.561685
0.346288 0.0704356 0.510369
0.576837 0 0.481041
0.667353 0.0803388 0.436561
0.723079 0.276967 0.37026
0.725994 0.465843 0.352117
0.699367 0.577203 0.343435
0.0418097 0.0480659 0.539757
0.0444953 0.0507668 0.542458
0.0739147 0.073167 0.564874
0.361608 0.0777447 0.519692
0.591959 0.0120089 0.495155
0.686 0.0979782 0.455207
0.739849 0.303746 0.385016
0.741115 0.484962 0.367224
0.716075 0.594903 0.360143
0.0466773 0.0519417 0.543633
0.0487526 0.0540169 0.545708
0.0822309 0.0724956 0.563195
0.392859 0.0999924 0.542947
0.627832 0.046891 0.528038
0.718151 0.147127 0.481346
0.775128 0.356008 0.419287
0.778424 0.529274 0.404532
0.755489 0.636332 0.399558
0.0124819 0.263722 0.531365
0.0103609 0.2636 0.528237
0.00263981 0.292882 0.559503
0.407324 0.308431 0.571344
0.682506 0.288518 0.55964
0.80296 0.36289 0.525124
0.838071 0.472953 0.477226
0.843595 0.610437 0.467704
0.843992 0.728817 0.48806
0.021912 0.501091 0.494728
0.0209659 0.517143 0.503777
0.0188449 0.547021 0.528634
0.014847 0.604059 0.592615
0.641215 0.676188 0.603204
0.868711 0.685603 0.587808
0.92224 0.719081 0.555337
0.948425 0.757259 0.560525
0.935561 0.832395 0.583627
0.0125887 0.670726 0.492332
0.0171359 0.683284 0.505882
0.0263218 0.700465 0.528054
0.0349432 0.734096 0.564675
0.355322 0.835355 0.600137
0.863264 0.869123 0.605295
0.968566 0.882383 0.587625
0.992248 0.887068 0.603326
0.982284 0.911131 0.669322
0.0238346 0.747982 0.528557
0.0282597 0.753384 0.534981
0.0353399 0.763485 0.545068
0.0441749 0.782315 0.56289
0.254337 0.83241 0.595117
0.730083 0.909987 0.618036
0.968536 0.946365 0.639567
1 0.959213 0.677409
0.990372 0.968261 0.781399
0.230213 0.778332 0.633005
0.236637 0.776745 0.629419
0.252354 0.782452 0.636149
0.290089 0.791196 0.641901
0.414038 0.83711 0.676875
0.647501 0.927489 0.738399
0.867582 0.979492 0.757549
0.983597 0.987488 0.77261
0.992584 0.990494 0.816602
0.579644 0.813642 0.662562
0.579065 0.81207 0.659983
0.586938 0.818936 0.666865
0.601953 0.828946 0.675868
0.680522 0.898512 0.745434
0.779812 0.965789 0.806745
0.87866 0.989624 0.837629
0.957549 0.995483 0.847547
0.994842 0.994766 0.855863
0 0.284199 0.540734
0 0.28719 0.543709
0 0.314946 0.571466
0 0.349386 0.603922
0.504707 0.262791 0.569787
0.649363 0.223392 0.570504
0.704005 0.315984 0.542153
0.728679 0.469596 0.485786
0.702922 0.569818 0.455985
0 0.2878 0.546334
0 0.291096 0.54963
0 0.310689 0.569223
0 0.357473 0.612024
0.520577 0.276646 0.584649
0.66598 0.240009 0.587121
0.721263 0.333242 0.558389
0.745937 0.488853 0.503044
0.7205 0.587396 0.473564
0 0.293324 0.551858
0 0.296407 0.55494
0 0.313695 0.572213
0.00881971 0.380087 0.635645
0.550469 0.304555 0.612543
0.687938 0.260975 0.608087
0.741009 0.352987 0.578149
0.787655 0.535576 0.545769
0.763043 0.631922 0.515099
0 0.352377 0.61091
0 0.347951 0.606485
0 0.350759 0.609277
0.106371 0.403616 0.656229
0.610971 0.355047 0.668055
0.762676 0.335714 0.682826
0.819928 0.446891 0.651057
0.835538 0.598459 0.593637
0.824491 0.696376 0.577554
0.00921645 0.507454 0.626993
0.0127871 0.511025 0.630579
0.0191196 0.517357 0.636896
0.00932326 0.588586 0.705074
0.675502 0.614542 0.743511
0.883467 0.616449 0.755566
0.928267 0.67921 0.733364
0.946197 0.748104 0.705287
0.937896 0.822782 0.689952
0.0291752 0.637369 0.577935
0.031693 0.651881 0.594446
0.0383917 0.675578 0.619135
0.0394446 0.727657 0.68716
0.173159 0.862364 0.803876
0.841749 0.877714 0.783734
0.95877 0.877684 0.771801
0.992981 0.879881 0.755032
0.990265 0.907149 0.747311
0.0229801 0.752194 0.666697
0.0277867 0.760006 0.676493
0.0369573 0.773175 0.691661
0.0469368 0.797162 0.717647
0.0817426 0.87097 0.783413
0.685283 0.939284 0.785183
0.956191 0.962097 0.800198
1 0.966583 0.787717
0.998383 0.971298 0.818402
0.109819 0.808011 0.695537
0.118578 0.80676 0.693294
0.140871 0.812039 0.698604
0.194873 0.820035 0.703624
0.344228 0.844327 0.719036
0.613184 0.940215 0.781064
0.869993 0.988937 0.793957
0.986923 0.998825 0.811933
1 0.998932 0.842023
0.586023 0.823026 0.671931
0.585382 0.822385 0.67129
0.593759 0.829755 0.678676
0.607584 0.840574 0.688502
0.669352 0.891356 0.737285
0.78294 0.970916 0.812863
0.884123 0.99707 0.844083
0.965942 1 0.85594
1 1 0.862394
0.0817426 0.441917 0.513603
0.0850538 0.445228 0.516915
0.111192 0.471351 0.543038
0.14696 0.507134 0.57882
0.244816 0.52694 0.593698
0.59762 0.433646 0.591669
0.671687 0.418708 0.618769
0.73135 0.46334 0.603449
0.694636 0.583597 0.561685
0.0873121 0.446464 0.52015
0.0907759 0.449943 0.523629
0.116655 0.476814 0.548501
0.16939 0.529549 0.601236
0.260197 0.53933 0.605081
0.61265 0.448676 0.606699
0.688014 0.435035 0.635096
0.749111 0.481086 0.62121
0.71339 0.60235 0.580438
0.101015 0.460182 0.533852
0.109285 0.468452 0.542123
0.129763 0.48893 0.5626
0.193545 0.552712 0.626398
0.30869 0.584833 0.650568
0.65005 0.485069 0.643107
0.731579 0.478599 0.67866
0.79939 0.53138 0.671489
0.760998 0.65095 0.628046
0.149599 0.508766 0.582452
0.150469 0.509636 0.583322
0.159899 0.519066 0.592752
0.206424 0.565576 0.639261
0.365469 0.626596 0.692363
0.713619 0.548638 0.706676
0.791638 0.537652 0.73872
0.848035 0.580011 0.720134
0.806119 0.699062 0.674159
0.24126 0.600412 0.674098
0.242756 0.601923 0.675608
0.245136 0.604303 0.677989
0.258366 0.617533 0.691218
0.480308 0.702419 0.768215
0.808972 0.637003 0.800031
0.880659 0.625681 0.827741
0.944579 0.698558 0.813672
0.924132 0.824094 0.793179
0 0.706996 0.731426
0 0.712764 0.737194
0.000885023 0.723156 0.748592
0.0207218 0.742992 0.767422
0.374792 0.818936 0.8206
0.855344 0.843351 0.862348
0.964263 0.84123 0.86331
0.99501 0.857954 0.865064
0.987015 0.900954 0.855055
0.0251164 0.746349 0.708827
0.0298009 0.757031 0.7205
0.0399023 0.77615 0.741604
0.0473945 0.811643 0.778073
0.0592813 0.893553 0.854932
0.667109 0.95317 0.886
0.945861 0.961822 0.885863
0.999451 0.954391 0.879469
1 0.95349 0.875578
0 0.873167 0.818524
0 0.87396 0.818326
0.00120546 0.881483 0.825849
0.0381323 0.8934 0.834791
0.192737 0.894957 0.828458
0.580545 0.975647 0.884398
0.871061 0.99704 0.872023
0.980987 1 0.87599
1 0.99968 0.878752
0.562585 0.8336 0.697475
0.563073 0.833097 0.696971
0.571725 0.840757 0.703624
0.585885 0.850904 0.713787
0.644526 0.897536 0.757443
0.768246 0.979248 0.83418
0.881376 1 0.86334
0.962676 1 0.868666
1 1 0.870634
0.362676 0.502739 0.509621
0.366033 0.506081 0.512963
0.385641 0.525689 0.532586
0.426398 0.566445 0.573327
0.453712 0.593759 0.600641
0.507271 0.604318 0.618235
0.645899 0.5449 0.622934
0.708965 0.514977 0.654032
0.707774 0.557763 0.635828
0.368658 0.508705 0.515587
0.371847 0.51191 0.518791
0.395773 0.535821 0.542718
0.445411 0.585458 0.592355
0.47361 0.613657 0.620554
0.520272 0.616312 0.631235
0.671824 0.570825 0.648859
0.743664 0.549661 0.688731
0.744442 0.59443 0.672496
0.38056 0.520623 0.527504
0.392874 0.532937 0.539818
0.410056 0.550118 0.557
0.469841 0.609888 0.61677
0.518517 0.658564 0.665446
0.581689 0.677729 0.692653
0.723781 0.622797 0.700816
0.792676 0.598688 0.737743
0.790051 0.64004 0.718105
0.430274 0.570336 0.577218
0.430823 0.570886 0.577768
0.439918 0.57998 0.586862
0.480964 0.621012 0.627894
0.554894 0.694957 0.701839
0.627207 0.721248 0.736171
0.770535 0.669551 0.74757
0.830243 0.636255 0.775311
0.824811 0.6748 0.752865
0.511788 0.65185 0.658732
0.508186 0.648249 0.655131
0.51194 0.651987 0.658869
0.533928 0.673991 0.680873
0.631342 0.771389 0.778271
0.722148 0.80618 0.824109
0.858091 0.755093 0.833127
0.929122 0.735134 0.874189
0.940642 0.789624 0.867689
0.570474 0.711528 0.71841
0.573785 0.714839 0.721736
0.587655 0.72871 0.735607
0.609277 0.750332 0.757229
0.681331 0.822385 0.829267
0.822232 0.88426 0.908202
0.949477 0.843473 0.922515
1 0.811368 0.953429
1 0.864622 0.92668
0.289006 0.81619 0.796796
0.295232 0.8224 0.803021
0.309255 0.836423 0.817044
0.322484 0.853666 0.834272
0.349264 0.883436 0.864042
0.782086 0.947127 0.930022
0.959976 0.940963 0.938979
1 0.920363 0.94342
1 0.932601 0.934661
0 0.907713 0.906004
0 0.909758 0.907042
0 0.919463 0.913756
0 0.938399 0.927687
0.000396735 0.969726 0.948013
0.574166 1 0.970993
0.891981 0.999985 0.934936
0.976471 0.995438 0.921462
1 0.982818 0.921874
0.589349 0.835401 0.780255
0.590799 0.834852 0.778698
0.600214 0.842268 0.786114
0.62446 0.861509 0.804364
0.682887 0.900938 0.84181
0.804471 0.973495 0.909407
0.911055 0.998032 0.920012
0.96936 1 0.905348
0.99173 1 0.892729
0.5066 0.516609 0.528603
0.509819 0.519829 0.531823
0.528176 0.538186 0.550179
0.565148 0.575158 0.587137
0.595209 0.605219 0.617212
0.611658 0.621668 0.633646
0.636393 0.626398 0.644404
0.681743 0.569757 0.674769
0.697871 0.572869 0.669917
0.512413 0.522423 0.534417
0.515297 0.525307 0.537285
0.537408 0.547417 0.559396
0.584405 0.594415 0.606394
0.616297 0.626307 0.6383
0.627527 0.637537 0.649516
0.666026 0.655039 0.674037
0.722683 0.610697 0.715709
0.742611 0.617624 0.714656
0.531701 0.542702 0.554696
0.534676 0.544686 0.556664
0.55201 0.56202 0.573999
0.608545 0.618555 0.630549
0.657023 0.667033 0.679011
0.68278 0.69279 0.704768
0.716808 0.705806 0.724804
0.772076 0.660105 0.765118
0.787778 0.662791 0.759823
0.572198 0.583215 0.595193
0.572274 0.583291 0.59527
0.579767 0.590768 0.602747
0.624628 0.635645 0.647623
0.693172 0.704173 0.716167
0.724529 0.734539 0.746532
0.759808 0.748806 0.767803
0.807141 0.695155 0.800183
0.819104 0.694118 0.79115
0.639414 0.650416 0.662409
0.630518 0.641535 0.653513
0.652567 0.663569 0.675563
0.677867 0.688884 0.700862
0.775616 0.786633 0.798611
0.821317 0.832334 0.844312
0.860883 0.84889 0.867887
0.912749 0.800778 0.905791
0.939941 0.814954 0.911986
0.707622 0.718639 0.730617
0.714199 0.7252 0.737194
0.727855 0.738857 0.750851
0.749264 0.760281 0.772259
0.829572 0.840574 0.852552
0.899077 0.910094 0.922072
0.942214 0.927214 0.948211
0.982162 0.870176 0.975204
0.998398 0.872404 0.970443
0.75082 0.762829 0.774807
0.756374 0.768399 0.780377
0.769253 0.781262 0.79324
0.785077 0.797086 0.809064
0.820737 0.832746 0.844739
0.922286 0.933288 0.945281
0.976959 0.951965 0.979965
1 0.90074 1
1 0.898863 0.996902
0.615778 0.824857 0.818692
0.615778 0.824857 0.818692
0.623026 0.832105 0.82594
0.63473 0.843809 0.837644
0.674754 0.885832 0.879667
0.764553 0.976623 0.970474
0.938155 0.988174 0.983139
0.999542 0.962554 0.982559
1 0.947768 0.9738
0.555642 0.838743 0.834531
0.557351 0.838437 0.834226
0.570809 0.846906 0.84271
0.619486 0.884581 0.880385
0.679347 0.908431 0.90425
0.822095 0.969146 0.967041
0.948699 0.987701 0.981674
0.982757 1 0.950759
0.985275 1 0.918273
