LUT/LogC3/709/looks/Alexa_LogC3_709_D65_5219_A.cube
LUT_3D_SIZE 5
0.042 0.042 0.038
0.245 0.061 0.019
0.600 0.089 0.017
0.871 0.431 0.213
0.995 0.835 0.557
0.006 0.089 0.047
0.150 0.152 0.040
0.615 0.223 0.000
0.896 0.481 0.205
0.995 0.837 0.559
0.000 0.498 0.040
0.000 0.533 0.000
0.685 0.606 0.000
0.969 0.672 0.072
0.995 0.858 0.590
0.000 0.690 0.447
0.000 0.695 0.450
0.351 0.740 0.475
0.952 0.880 0.539
0.992 0.942 0.773
0.763 0.946 0.856
0.766 0.947 0.857
0.783 0.952 0.859
0.887 0.977 0.875
0.983 0.989 0.888
0.047 0.053 0.142
0.207 0.059 0.139
0.600 0.054 0.109
0.861 0.412 0.266
0.994 0.835 0.565
0.000 0.100 0.151
0.141 0.135 0.138
0.622 0.183 0.083
0.886 0.467 0.270
0.994 0.837 0.567
0.000 0.486 0.103
0.000 0.522 0.009
0.675 0.605 0.000
0.964 0.679 0.203
0.995 0.856 0.594
0.000 0.689 0.445
0.000 0.694 0.450
0.349 0.739 0.475
0.952 0.880 0.539
0.992 0.942 0.775
0.763 0.946 0.856
0.766 0.947 0.857
0.783 0.952 0.859
0.887 0.977 0.875
0.983 0.989 0.888
0.097 0.137 0.583
0.100 0.137 0.584
0.570 0.070 0.471
0.851 0.390 0.498
0.992 0.829 0.634
0.098 0.135 0.582
0.115 0.140 0.580
0.572 0.068 0.469
0.868 0.427 0.510
0.992 0.831 0.636
0.000 0.456 0.465
0.000 0.495 0.500
0.629 0.628 0.610
0.940 0.672 0.565
0.993 0.851 0.643
0.000 0.682 0.486
0.000 0.686 0.490
0.242 0.734 0.518
0.944 0.891 0.617
0.990 0.943 0.798
0.760 0.945 0.855
0.763 0.946 0.856
0.782 0.951 0.859
0.887 0.977 0.875
0.983 0.989 0.888
0.358 0.666 0.830
0.358 0.666 0.830
0.439 0.678 0.839
0.893 0.574 0.859
0.982 0.849 0.885
0.358 0.666 0.830
0.358 0.666 0.830
0.447 0.679 0.840
0.893 0.574 0.859
0.982 0.851 0.885
0.355 0.665 0.829
0.355 0.665 0.829
0.501 0.684 0.846
0.893 0.573 0.859
0.981 0.861 0.886
0.000 0.665 0.674
0.000 0.679 0.695
0.000 0.773 0.808
0.927 0.922 0.902
0.991 0.915 0.888
0.714 0.943 0.873
0.718 0.944 0.873
0.740 0.949 0.874
0.869 0.975 0.889
0.978 0.989 0.900
0.909 0.943 0.984
0.909 0.943 0.984
0.909 0.943 0.984
0.930 0.939 0.985
0.988 0.865 0.965
0.909 0.943 0.984
0.909 0.943 0.984
0.909 0.943 0.984
0.930 0.939 0.985
0.988 0.865 0.965
0.909 0.943 0.984
0.909 0.943 0.984
0.909 0.943 0.984
0.932 0.938 0.985
0.988 0.865 0.965
0.908 0.943 0.984
0.908 0.943 0.984
0.908 0.943 0.984
0.941 0.933 0.986
0.988 0.865 0.965
0.611 0.988 0.988
0.617 0.989 0.988
0.662 0.989 0.988
0.875 0.991 0.983
0.968 0.982 0.951
