LUT/LogC3/709/looks/Alexa_LogC3_709_D50_Kodak_B.cube
LUT_3D_SIZE 33
0 0 0
0 0 0
0.0242161 0.0112764 0.016907
0.0397498 0.0201114 0.0242161
0.0533913 0.0251926 0.0269932
0.0665446 0.0281987 0.0281376
0.0837262 0.0293889 0.0277562
0.104738 0.0291905 0.0278935
0.130617 0.0269017 0.0288701
0.163546 0.0153353 0.0173495
0.202945 0.00222782 0.00251774
0.246906 0 0
0.29453 0 0
0.348653 0 0
0.398871 0 0
0.434424 0 0
0.472496 0 0
0.512871 0 0
0.533761 0 0
0.549813 0 0
0.566873 0 0
0.582254 0 0
0.590646 0 0
0.598184 0 0
0.603555 0 0
0.60856 0 0
0.612085 0 0
0.615259 0 0
0.617166 0 0
0.617166 0 0
0.617166 0 0
0.617166 0 0
0.617166 0 0
0 0 0
0 0 0
0.018677 0.0061799 0.0128481
0.0350195 0.0177768 0.0222477
0.0491951 0.0236973 0.0262608
0.0612345 0.0278172 0.0282597
0.0792706 0.029099 0.0278477
0.100237 0.0296025 0.0277256
0.126955 0.0272221 0.0287327
0.159762 0.0172274 0.0194858
0.199863 0.00302129 0.00341802
0.244282 0 0
0.292378 0 0
0.346929 0 0
0.398032 0 0
0.433692 0 0
0.471946 0 0
0.512459 0 0
0.533654 0 0
0.549691 0 0
0.566812 0 0
0.582223 0 0
0.5906 0 0
0.598184 0 0
0.603555 0 0
0.60856 0 0
0.61207 0 0
0.615244 0 0
0.617166 0 0
0.617166 0 0
0.617166 0 0
0.617166 0 0
0.617166 0 0
0.0164492 0.0237125 0.0184482
0.0159915 0.0230106 0.0178378
0.0170901 0.0200351 0.0166018
0.0340887 0.0228428 0.0234226
0.0487526 0.0287938 0.0282902
0.0605783 0.031693 0.0291142
0.0780652 0.0312963 0.0290074
0.0975357 0.031281 0.0280766
0.123201 0.0275273 0.0285954
0.155962 0.0191196 0.021622
0.196796 0.00381476 0.00430304
0.241825 0 0
0.290257 0 0
0.345205 0 0
0.397208 0 0
0.433082 0 0
0.471397 0 0
0.512047 0 0
0.533486 0 0
0.54963 0 0
0.56669 0 0
0.582193 0 0
0.59057 0 0
0.598169 0 0
0.60354 0 0
0.608545 0 0
0.61207 0 0
0.615244 0 0
0.617166 0 0
0.617166 0 0
0.617166 0 0
0.617166 0 0
0.617166 0 0
0.0227817 0.0354162 0.0276036
0.0225223 0.0347906 0.0271916
0.0222324 0.0340887 0.0267338
0.0350042 0.0354925 0.0282444
0.0504616 0.0406958 0.0330205
0.0628824 0.0439918 0.0337377
0.0801862 0.0460365 0.0334478
0.105852 0.0476844 0.0327916
0.136156 0.0473793 0.0294652
0.170352 0.0434272 0.0231174
0.211551 0.0174411 0.00526436
0.251255 0 0
0.288304 0 0
0.343297 0 0
0.396368 0 0
0.432471 0 0
0.470863 0 0
0.51162 0 0
0.533379 0 0
0.549508 0 0
0.566629 0 0
0.582162 0 0
0.590539 0 0
0.598169 0 0
0.60354 0 0
0.608545 0 0
0.61207 0 0
0.615244 0 0
0.617166 0 0
0.617166 0 0
0.617166 0 0
0.617166 0 0
0.617166 0 0
0.0241703 0.0468452 0.0339666
0.0246128 0.0462043 0.0337987
0.0250858 0.0455329 0.0336156
0.0338598 0.047715 0.0337835
0.0514229 0.0509194 0.0348669
0.0668956 0.0553597 0.0357671
0.0827649 0.0599527 0.0360723
0.110475 0.0635233 0.0349889
0.14287 0.0666361 0.0286259
0.179416 0.0661631 0.021561
0.227298 0.055436 0.00576791
0.274342 0.0288243 0
0.320226 0.0011902 0
0.36141 0 0
0.395529 0 0
0.431861 0 0
0.470314 0 0
0.511208 0 0
0.533257 0 0
0.549401 0 0
0.566567 0 0
0.582132 0 0
0.590539 0 0
0.598138 0 0
0.60351 0 0
0.60853 0 0
0.612055 0 0
0.615228 0 0
0.617166 0 0
0.617166 0 0
0.617166 0 0
0.617166 0 0
0.617166 0 0
0.0168917 0.0578164 0.0368048
0.0171969 0.0573129 0.0366827
0.0175174 0.0567636 0.0365301
0.024033 0.057145 0.0364385
0.0446479 0.0617227 0.0366064
0.0637675 0.0666667 0.0364996
0.0810254 0.0713817 0.0368658
0.112444 0.0767987 0.0339208
0.147326 0.0810559 0.0229953
0.185336 0.084184 0.0151827
0.23827 0.078294 0.00541695
0.289845 0.0582895 0
0.341772 0.0238804 0
0.392386 0 0
0.430945 0 0
0.431128 0 0
0.469764 0 0
0.510781 0 0
0.53315 0 0
0.549279 0 0
0.56643 0 0
0.582101 0 0
0.590509 0 0
0.598123 0 0
0.60351 0 0
0.60853 0 0
0.612055 0 0
0.615228 0 0
0.617166 0 0
0.617166 0 0
0.617166 0 0
0.617166 0 0
0.617166 0 0
0.00926223 0.0704814 0.0387427
0.00961318 0.0699168 0.0386969
0.00994888 0.0693675 0.0386664
0.0103151 0.0687419 0.0386206
0.0350347 0.0724956 0.0387579
0.05626 0.0785534 0.0378729
0.0788434 0.0836194 0.0369116
0.110292 0.0895094 0.033875
0.148562 0.095201 0.0238346
0.190494 0.0999161 0.00674449
0.248356 0.0988937 0.00262455
0.306493 0.0917678 0
0.362692 0.0673075 0
0.418814 0.0185397 0
0.465415 0 0
0.481422 0 0
0.472038 0 0
0.510231 0 0
0.532982 0 0
0.549172 0 0
0.566369 0 0
0.582071 0 0
0.590478 0 0
0.598123 0 0
0.603494 0 0
0.608499 0 0
0.612055 0 0
0.615228 0 0
0.617166 0 0
0.617166 0 0
0.617166 0 0
0.617166 0 0
0.617166 0 0
0.00205997 0.0865339 0.0397955
0.00221256 0.0860456 0.039765
0.00236515 0.0855726 0.0397345
0.00250248 0.0850996 0.039704
0.00265507 0.0859998 0.0396429
0.038819 0.0916915 0.0394293
0.0722667 0.0992905 0.0366369
0.105608 0.106416 0.0324254
0.147768 0.114504 0.0245365
0.196521 0.12166 0.00471504
0.256214 0.125963 0.00163272
0.320256 0.122545 0
0.382315 0.111696 0
0.4448 0.0674449 0
0.502419 0.0130617 0
0.523674 0 0
0.536294 0 0
0.520867 0 0
0.532753 0 0
0.549004 0 0
0.566247 0 0
0.58201 0 0
0.590448 0 0
0.598093 0 0
0.603464 0 0
0.608499 0 0
0.612039 0 0
0.615213 0 0
0.617166 0 0
0.617166 0 0
0.617166 0 0
0.617166 0 0
0.617166 0 0
0 0.104417 0.0397955
0 0.104021 0.0398108
0 0.103624 0.039826
0 0.103243 0.0398413
0 0.102846 0.0398566
0.00106813 0.106462 0.039292
0.0523384 0.114549 0.0378271
0.0936751 0.123491 0.0308385
0.142138 0.134813 0.0192874
0.197284 0.145235 0.00595102
0.261158 0.152499 0
0.330663 0.155444 0
0.398596 0.151278 0
0.465888 0.138903 0
0.531487 0.0912642 0
0.562539 0.0438697 0
0.585718 0 0
0.594659 0 0
0.5561 0 0
0.548836 0 0
0.566064 0 0
0.581949 0 0
0.590387 0 0
0.598047 0 0
0.603449 0 0
0.608484 0 0
0.612024 0 0
0.615213 0 0
0.617166 0 0
0.617166 0 0
0.617166 0 0
0.617166 0 0
0.617166 0 0
0 0.124025 0.0391089
0 0.123674 0.0391241
0 0.1234 0.0391241
0 0.123064 0.0391394
0 0.122713 0.0391546
0 0.122438 0.0391699
0.000610361 0.128725 0.0373388
0.0733196 0.141375 0.029572
0.129152 0.155901 0.00907912
0.191348 0.171542 0.00395209
0.26125 0.184436 0
0.340017 0.193118 0
0.413687 0.194766 0
0.487251 0.190265 0
0.558434 0.174365 0
0.593591 0.152316 0
0.624887 0.107149 0
0.649897 0.0320439 0
0.641245 0 0
0.589502 0 0
0.56582 0 0
0.581842 0 0
0.590326 0 0
0.598001 0 0
0.603418 0 0
0.608469 0 0
0.612024 0 0
0.615198 0 0
0.617166 0 0
0.617166 0 0
0.617166 0 0
0.617166 0 0
0.617166 0 0
0 0.148074 0.0311131
0 0.147738 0.0312505
0 0.147478 0.031342
0 0.147143 0.0314794
0 0.146883 0.0315709
0 0.146532 0.0317082
0 0.146197 0.0318456
0.000839246 0.157443 0.0169833
0.0937209 0.177386 0.0109255
0.172137 0.198672 0
0.250538 0.219028 0
0.342336 0.233402 0
0.425132 0.240711 0
0.504341 0.241184 0
0.583108 0.234897 0
0.625086 0.221164 0
0.661021 0.199573 0
0.693355 0.159579 0
0.698512 0.0970932 0
0.681849 0.0146792 0
0.626566 0 0
0.58172 0 0
0.590188 0 0
0.597955 0 0
0.603372 0 0
0.608438 0 0
0.611978 0 0
0.615183 0 0
0.617166 0 0
0.617166 0 0
0.617166 0 0
0.617166 0 0
0.617166 0 0
0 0.174472 0.0216983
0 0.174197 0.0218662
0 0.173999 0.0219883
0 0.173709 0.0221561
0 0.173526 0.0222629
0 0.173236 0.022446
0 0.172946 0.0226139
0 0.172564 0.0228428
0.000122072 0.193591 0.000244144
0.128283 0.223743 0.000366217
0.230762 0.252735 0
0.332586 0.275456 0
0.429435 0.289998 0
0.518029 0.29781 0
0.603326 0.299413 0
0.654932 0.29218 0
0.694865 0.278187 0
0.733333 0.257527 0
0.747494 0.225208 0
0.742535 0.165072 0
0.723384 0.0617075 0
0.669429 0 0
0.590066 0 0
0.597894 0 0
0.603311 0 0
0.608392 0 0
0.611963 0 0
0.615167 0 0
0.617166 0 0
0.617166 0 0
0.617166 0 0
0.617166 0 0
0.617166 0 0
0 0.202853 0.00622568
0 0.202655 0.00628672
0 0.202457 0.00634775
0 0.202258 0.00642405
0 0.20206 0.00648508
0 0.201862 0.00654612
0 0.201663 0.00660716
0 0.201266 0.00672923
0 0.200855 0.00686656
0.0099794 0.233646 0
0.181155 0.274113 0
0.303868 0.310018 0
0.420798 0.3337 0
0.520485 0.347555 0
0.614618 0.356359 0
0.678767 0.356588 0
0.723812 0.350195 0
0.768399 0.341375 0
0.791821 0.323293 0
0.793683 0.291051 0
0.788098 0.244358 0
0.768551 0.139391 0
0.711254 0.00213626 0
0.597787 0 0
0.60325 0 0
0.608316 0 0
0.611917 0 0
0.615122 0 0
0.617166 0 0
0.617166 0 0
0.617166 0 0
0.617166 0 0
0.617166 0 0
0 0.233173 0
0 0.232959 0
0 0.232853 0
0 0.232624 0
0 0.232517 0
0 0.232303 0
0 0.23209 0
0 0.231876 0
0 0.23154 0
0 0.231006 0
0.0400244 0.279515 0
0.246113 0.33402 0
0.392447 0.372168 0
0.51194 0.394278 0
0.616571 0.408316 0
0.695705 0.414374 0
0.745983 0.412802 0
0.793835 0.408667 0
0.824811 0.399268 0
0.834241 0.381964 0
0.838926 0.357946 0
0.836301 0.31754 0
0.809903 0.243534 0
0.756741 0.0559243 0
0.603128 0 0
0.608255 0 0
0.611856 0 0
0.615076 0 0
0.617166 0 0
0.617166 0 0
0.617166 0 0
0.617166 0 0
0.617166 0 0
0 0.265751 0
0 0.265629 0
0 0.265522 0
0 0.265415 0
0 0.265293 0
0 0.265187 0
0 0.264958 0
0 0.264851 0
0 0.264515 0
0 0.264164 0
0 0.263722 0
0.0687724 0.335225 0
0.32636 0.402197 0
0.488136 0.44033 0
0.613077 0.462776 0
0.71371 0.475914 0
0.766506 0.475883 0
0.81976 0.477378 0
0.856031 0.471641 0
0.868116 0.460472 0
0.877134 0.444526 0
0.881941 0.420951 0
0.873579 0.385657 0
0.854368 0.328771 0
0.806561 0.208209 0
0.697063 0 0
0.611795 0 0
0.61503 0 0
0.617166 0 0
0.617166 0 0
0.617166 0 0
0.617166 0 0
0.617166 0 0
0 0.292409 0
0 0.292332 0
0 0.292256 0
0 0.29218 0
0 0.292103 0
0 0.292103 0
0 0.292027 0
0 0.291875 0
0 0.291722 0
0 0.291585 0
0 0.291356 0
0 0.290974 0
0.16228 0.389746 0
0.419486 0.464363 0
0.582879 0.501152 0
0.713756 0.525246 0
0.780209 0.531655 0
0.837324 0.536812 0
0.886137 0.541222 0
0.900862 0.536614 0
0.912581 0.52639 0
0.921706 0.511452 0
0.918288 0.487587 0
0.910338 0.454749 0
0.891783 0.404242 0
0.859525 0.323766 0
0.787503 0.116503 0
0.614939 0 0
0.617166 0 0
0.617166 0 0
0.617166 0 0
0.617166 0 0
0.617166 0 0
0 0.3149 0
0 0.314824 0
0 0.314824 0
0 0.314748 0
0 0.314672 0
0 0.314672 0
0 0.314595 0
0 0.314519 0
0 0.314366 0
0 0.31429 0
0 0.314061 0
0 0.313832 0
0 0.313436 0
0.246891 0.442603 0
0.50956 0.516396 0
0.673945 0.551354 0
0.777218 0.568719 0
0.840726 0.575738 0
0.89897 0.582422 0
0.917998 0.581552 0
0.93344 0.578424 0
0.947814 0.574411 0
0.952468 0.566125 0
0.953552 0.554162 0
0.944762 0.525368 0
0.929305 0.481834 0
0.905715 0.422995 0
0.866804 0.330785 0
0.778866 0.0822461 0
0.617166 0 0
0.617166 0 0
0.617166 0 0
0.617166 0 0
0 0.338689 0
0 0.338689 0
0 0.338598 0
0 0.338598 0
0 0.338521 0
0 0.338521 0
0 0.338445 0
0 0.338354 0
0 0.338277 0
0 0.338201 0
0 0.338033 0
0 0.337789 0
0 0.33753 0
0 0.337209 0
0.336339 0.499321 0
0.604639 0.570092 0
0.765209 0.602304 0
0.839338 0.612512 0
0.90483 0.622019 0
0.931914 0.623102 0
0.950423 0.622599 0
0.965698 0.620432 0
0.972519 0.614969 0
0.975692 0.606851 0
0.974578 0.595117 0
0.970932 0.578592 0
0.964767 0.559182 0
0.950393 0.521508 0
0.92604 0.462013 0
0.890211 0.380224 0
0.828229 0.240238 0
0.70106 0 0
0.617166 0 0
0 0.361364 0
0 0.361364 0
0 0.361364 0
0 0.361334 0
0 0.361334 0
0 0.361334 0
0 0.361303 0
0 0.361273 0
0 0.361273 0
0 0.361242 0
0 0.361181 0
0 0.361105 0
0 0.361044 0
0 0.360922 0
0 0.360784 0
0.440742 0.559625 0
0.705287 0.624628 0
0.828519 0.646708 0
0.904128 0.659175 0
0.946731 0.664393 0
0.965194 0.663844 0
0.981918 0.662989 0
0.990784 0.659922 0
0.993881 0.654536 0
0.995636 0.645624 0
0.994675 0.635828 0
0.991836 0.624247 0
0.988022 0.609293 0
0.981933 0.591684 0
0.972381 0.56965 0
0.957351 0.534554 0
0.93521 0.482994 0
0.910384 0.426108 0
0 0.370581 0
0 0.37055 0
0 0.37055 0
0 0.37055 0
0 0.37055 0
0 0.37052 0
0 0.37052 0
0 0.37052 0
0 0.370489 0
0 0.370459 0
0 0.370428 0
0 0.370398 0
0 0.370321 0
0 0.37023 0
0 0.370138 0
0 0.36997 0
0.538399 0.598962 0
0.786328 0.655344 0
0.879133 0.670604 0
0.946578 0.682887 0
0.968734 0.684764 0
0.988174 0.686885 0
0.999039 0.687739 0
1 0.687282 0
1 0.685237 0
1 0.681666 0
1 0.676875 0
1 0.668025 0
1 0.657267 0
0.998596 0.644022 0
0.995819 0.629892 0
0.992096 0.615396 0
0.985931 0.600992 0
0 0.379873 0
0 0.379873 0
0 0.379843 0
0 0.379843 0
0 0.379843 0
0 0.379843 0
0 0.379843 0
0 0.379797 0
0 0.379797 0
0 0.379767 0
0 0.379736 0
0 0.37969 0
0 0.37966 0
0 0.379599 0
0 0.379492 0
0 0.379385 0
0 0.379202 0
0.635294 0.636149 0
0.836744 0.677394 0
0.9308 0.694102 0
0.96669 0.699229 0
0.988968 0.702068 0
0.999969 0.703868 0
1 0.70367 0
1 0.70277 0
1 0.700877 0
1 0.698619 0
1 0.696483 0
1 0.694713 0
1 0.691402 0
1 0.687846 0
1 0.684337 0
1 0.676738 0
0 0.389471 0
0 0.389471 0
0 0.389471 0
0 0.389471 0
0 0.389471 0
0 0.389441 0
0 0.389441 0
0 0.389441 0
0 0.389441 0
0 0.389395 0
0 0.389364 0
0 0.389364 0
0 0.389288 0
0 0.389258 0
0 0.389181 0
0 0.389075 0
0 0.388983 0
0 0.442023 0
0.735668 0.669596 0
0.891264 0.699413 0
0.961837 0.711406 0
0.988113 0.714763 0
0.999985 0.71754 0
1 0.718227 0
1 0.717891 0
1 0.716915 0
1 0.715862 0
1 0.714733 0
1 0.713252 0
1 0.71107 0
1 0.708751 0
1 0.706432 0
1 0.704219 0
0 0.396414 0
0 0.396414 0
0 0.396414 0
0 0.396399 0
0 0.396399 0
0 0.396399 0
0 0.396399 0
0 0.396399 0
0 0.396399 0
0 0.396384 0
0 0.396384 0
0 0.396368 0
0 0.396353 0
0 0.396338 0
0 0.396323 0
0 0.396292 0
0 0.396262 0
0 0.396216 0
0.183932 0.527276 0
0.816724 0.695827 0
0.945663 0.719493 0
0.983734 0.725124 0
0.999649 0.728725 0
1 0.730617 0
1 0.731624 0
1 0.731304 0
1 0.73048 0
1 0.729931 0
1 0.729107 0
1 0.727626 0
1 0.725994 0
1 0.724407 0
1 0.722972 0
0 0.399786 0
0 0.399786 0
0 0.399786 0
0 0.399786 0
0 0.399786 0
0 0.399786 0
0 0.399786 0
0 0.399786 0
0 0.399786 0
0 0.399771 0
0 0.399771 0
0 0.399756 0
0 0.399756 0
0 0.399741 0
0 0.399725 0
0 0.399695 0
0 0.39968 0
0 0.399634 0
0 0.399573 0
0.438453 0.609018 0
0.876768 0.712795 0
0.972488 0.729686 0
0.999588 0.734142 0
1 0.736873 0
1 0.73814 0
1 0.738445 0
1 0.738323 0
1 0.738582 0
1 0.73875 0
1 0.73846 0
1 0.737835 0
1 0.737224 0
1 0.736675 0
0 0.403037 0
0 0.403037 0
0 0.403037 0
0 0.403037 0
0 0.403037 0
0 0.403037 0
0 0.403037 0
0 0.403037 0
0 0.403021 0
0 0.403021 0
0 0.403021 0
0 0.403021 0
0 0.403021 0
0 0.403006 0
0 0.402991 0
0 0.402975 0
0 0.402945 0
0 0.402914 0
0 0.402869 0
0 0.402823 0
0.649027 0.670298 0
0.937652 0.728878 0
0.992111 0.737819 0
1 0.742306 0
1 0.743694 0
1 0.744442 0
1 0.744854 0
1 0.745266 0
1 0.745525 0
1 0.745525 0
1 0.745022 0
1 0.744579 0
1 0.744167 0
0 0.406149 0
0 0.406149 0
0 0.406149 0
0 0.406149 0
0 0.406149 0
0 0.406149 0
0 0.406149 0
0 0.406149 0
0 0.406149 0
0 0.406134 0
0 0.406134 0
0 0.406134 0
0 0.406119 0
0 0.406119 0
0 0.406119 0
0 0.406104 0
0 0.406088 0
0 0.406058 0
0 0.406012 0
0 0.405966 0
0 0.405921 0
0.810895 0.708492 0
0.974777 0.738445 0
1 0.743908 0
1 0.746746 0
1 0.747875 0
1 0.74844 0
1 0.748806 0
1 0.749218 0
1 0.749645 0
1 0.749447 0
1 0.749249 0
1 0.749065 0
0 0.408988 0
0 0.408988 0
0 0.408988 0
0 0.408988 0
0 0.408988 0
0 0.408988 0
0 0.408988 0
0 0.408988 0
0 0.408988 0
0 0.408972 0
0 0.408972 0
0 0.408972 0
0 0.408972 0
0 0.408957 0
0 0.408957 0
0 0.408957 0
0 0.408927 0
0 0.408911 0
0 0.408896 0
0 0.408865 0
0 0.40882 0
0 0.408774 0
0.900618 0.728161 0
0.994965 0.744747 0
1 0.749233 0
1 0.750851 0
1 0.751568 0
1 0.752071 0
1 0.752422 0
1 0.752728 0
1 0.752682 0
1 0.752529 0
1 0.752392 0
0 0.411063 0
0 0.411063 0
0 0.411063 0
0 0.411063 0
0 0.411063 0
0 0.411063 0
0 0.411063 0
0 0.411063 0
0 0.411048 0
