LUT/LogC3/709/looks/Alexa_LogC3_709_D65_2383_A.cube
LUT_3D_SIZE 33
0.0453193 0.0579538 0.064332
0.0504463 0.058793 0.064332
0.0639048 0.0605631 0.064332
0.0746777 0.0625925 0.064332
0.0853437 0.0647288 0.064332
0.096437 0.0674144 0.064332
0.110643 0.0704662 0.064332
0.132036 0.0741588 0.0640879
0.166125 0.0771496 0.0619821
0.209216 0.0806744 0.0587167
0.259022 0.0847028 0.0514992
0.316442 0.0808576 0.0355383
0.391897 0.0699779 0.0104067
0.466011 0.0546426 0.00144961
0.526818 0.0274205 0.00183108
0.580499 0.0103151 0.00228885
0.628397 0.00257877 0.00317388
0.665354 0.00328069 0.000686656
0.698299 0.000518807 0.000640879
0.725536 0.00184634 0.00111391
0.740948 0.000137331 0.0120241
0.740902 0.000137331 0.0231937
0.740978 0.000137331 0.0369268
0.741299 0.000137331 0.0475319
0.741619 0.000137331 0.05832
0.741787 0.000137331 0.064271
0.741787 0.000137331 0.064271
0.741787 0.000137331 0.064271
0.741787 0.000137331 0.064271
0.741787 0.000137331 0.064271
0.741787 0.000137331 0.064271
0.741787 0.000137331 0.064271
0.741787 0.000137331 0.064271
0.0453193 0.0579995 0.064332
0.0494545 0.0586862 0.064332
0.062211 0.0604105 0.064332
0.07393 0.0623636 0.064332
0.0844739 0.0646067 0.064332
0.096437 0.0674144 0.064332
0.108949 0.0700236 0.064332
0.13135 0.0740673 0.0641337
0.166125 0.0771496 0.0619821
0.209216 0.0806744 0.0587167
0.257404 0.0846571 0.0516976
0.316442 0.0808576 0.0355383
0.391897 0.0699779 0.0104067
0.466011 0.0546426 0.00144961
0.526818 0.0274205 0.00183108
0.580499 0.0103151 0.00228885
0.628397 0.00257877 0.00317388
0.665354 0.00328069 0.000686656
0.698299 0.000518807 0.000640879
0.725536 0.00184634 0.00111391
0.740948 0.000137331 0.0120241
0.740902 0.000137331 0.0231937
0.740978 0.000137331 0.0369268
0.741253 0.000137331 0.0461738
0.74139 0.000137331 0.0505989
0.741787 0.000137331 0.064271
0.741787 0.000137331 0.064271
0.741787 0.000137331 0.064271
0.741787 0.000137331 0.064271
0.741787 0.000137331 0.064271
0.741787 0.000137331 0.064271
0.741787 0.000137331 0.064271
0.741787 0.000137331 0.064271
0.0458991 0.0622568 0.0652323
0.0483253 0.0625162 0.0652323
0.0581064 0.0626383 0.0652323
0.0722362 0.066331 0.0652323
0.0835889 0.0677043 0.0652323
0.094789 0.0703441 0.0652323
0.107546 0.0731212 0.0649729
0.130251 0.0763561 0.0648966
0.164004 0.0787823 0.0626383
0.208499 0.0807202 0.0588388
0.255543 0.0845502 0.0519265
0.316548 0.0808576 0.0354925
0.394018 0.0695811 0.0100099
0.466011 0.0546426 0.00144961
0.525139 0.027985 0.00183108
0.580499 0.0103151 0.00228885
0.627924 0.00259403 0.00317388
0.665354 0.00328069 0.000686656
0.698299 0.000518807 0.000640879
0.725536 0.00184634 0.00111391
0.7411 0.000320439 0.00923171
0.741115 0.000137331 0.0209812
0.740902 0.000137331 0.0314794
0.741192 0.000137331 0.0437629
0.74139 0.000137331 0.0505989
0.741726 0.000137331 0.0619669
0.741787 0.000137331 0.064271
0.741787 0.000137331 0.064271
0.741787 0.000137331 0.064271
0.741787 0.000137331 0.064271
0.741787 0.000137331 0.064271
0.741787 0.000137331 0.064271
0.741787 0.000137331 0.064271
0.0428626 0.0710613 0.0679484
0.0428626 0.0710613 0.0679484
0.0520333 0.0712749 0.0679484
0.0684367 0.0725872 0.0679484
0.0822461 0.0744488 0.0677195
0.092668 0.0781262 0.0677195
0.107927 0.0816205 0.0676432
0.1299 0.084184 0.0657359
0.167254 0.0872969 0.0646677
0.209171 0.0869764 0.0607004
0.257115 0.0860304 0.0523384
0.317617 0.0808576 0.03505
0.391546 0.0699931 0.0104829
0.466011 0.0546426 0.00144961
0.525139 0.027985 0.00183108
0.57998 0.0104372 0.00228885
0.626596 0.00263981 0.00317388
0.665354 0.00328069 0.000686656
0.698299 0.000518807 0.000640879
0.725536 0.00184634 0.00111391
0.741283 0.000549325 0.00808728
0.741436 0.000137331 0.0174716
0.740902 0.000137331 0.0314794
0.741146 0.000137331 0.0425574
0.741344 0.000137331 0.0493935
0.741527 0.000137331 0.0553445
0.741787 0.000137331 0.064271
0.741787 0.000137331 0.064271
0.741787 0.000137331 0.064271
0.741787 0.000137331 0.064271
0.741787 0.000137331 0.064271
0.741787 0.000137331 0.064271
0.741787 0.000137331 0.064271
0.0355383 0.0781109 0.0700694
0.0355383 0.0781109 0.0700694
0.0409094 0.0790723 0.0700694
0.0614481 0.0815442 0.0700694
0.0779736 0.0839857 0.0699779
0.091249 0.0871748 0.069688
0.107286 0.090074 0.0694896
0.130922 0.093904 0.0684062
0.1682 0.0958267 0.065568
0.213291 0.0979019 0.0613107
0.262516 0.0950332 0.0538033
0.318914 0.0837262 0.0357519
0.38851 0.0704967 0.0110933
0.466011 0.0546426 0.00144961
0.525139 0.027985 0.00183108
0.579217 0.010605 0.00228885
0.625818 0.00267033 0.00317388
0.665354 0.00328069 0.000686656
0.698299 0.000518807 0.000640879
0.725536 0.00184634 0.00111391
0.741283 0.000549325 0.00808728
0.741436 0.000137331 0.0174716
0.740902 0.000137331 0.0256657
0.7411 0.000137331 0.0406958
0.741253 0.000137331 0.0460517
0.74139 0.000137331 0.0505989
0.741527 0.000137331 0.0553445
0.741787 0.000137331 0.064271
0.741787 0.000137331 0.064271
0.741787 0.000137331 0.064271
0.741787 0.000137331 0.064271
0.741787 0.000137331 0.064271
0.741787 0.000137331 0.064271
0.0272831 0.0880293 0.0726635
0.0272831 0.0880293 0.0726635
0.0314336 0.088426 0.0726635
0.0505989 0.0901808 0.0726635
0.0718547 0.0916457 0.0723583
0.0884108 0.0949721 0.0723583
0.105806 0.0998245 0.0723583
0.131014 0.104097 0.0708019
0.169833 0.107317 0.0683909
0.217395 0.110964 0.0635691
0.268452 0.110369 0.0550546
0.329915 0.100633 0.0358892
0.39324 0.0748913 0.0108186
0.464225 0.0551766 0.00155642
0.526879 0.0273899 0.00183108
0.579217 0.010605 0.00228885
0.625818 0.00267033 0.00317388
0.665354 0.00328069 0.000686656
0.697948 0.000534066 0.000640879
0.725109 0.00157168 0.0011902
0.741283 0.000549325 0.00808728
0.742123 0.000228885 0.00981155
0.740902 0.000137331 0.0232395
0.740917 0.000137331 0.0345006
0.741192 0.000137331 0.0437629
0.741344 0.000137331 0.0493935
0.74139 0.000137331 0.0505989
0.74139 0.000137331 0.0505989
0.741619 0.000137331 0.0586099
0.741726 0.000137331 0.0619974
0.741787 0.000137331 0.064271
0.741787 0.000137331 0.064271
0.741787 0.000137331 0.064271
0.0251621 0.0988174 0.0758373
0.0251621 0.0988174 0.0758373
0.0252995 0.0985885 0.0757763
0.0323949 0.0982986 0.0757
0.0608225 0.101808 0.0757
0.0819715 0.104417 0.0757
0.103273 0.110628 0.0757
0.130312 0.114855 0.0731365
0.168002 0.119738 0.0707866
0.219776 0.123018 0.0657816
0.275456 0.125628 0.0565499
0.337621 0.120348 0.0376287
0.407233 0.104128 0.0110018
0.464775 0.0595254 0.0016022
0.525872 0.0277409 0.00183108
0.579217 0.010605 0.00228885
0.625818 0.00267033 0.00317388
0.665354 0.00328069 0.000686656
0.697459 0.000579843 0.000640879
0.724208 0.00115969 0.00128176
0.740902 0.000717174 0.00724804
0.742229 0.000396735 0.00877394
0.741131 0.000137331 0.0191348
0.740902 0.000137331 0.0290532
0.741054 0.000137331 0.0391546
0.741192 0.000137331 0.0437629
0.741253 0.000137331 0.0460822
0.74136 0.000137331 0.049424
0.74139 0.000137331 0.0505989
0.74139 0.000137331 0.0505989
0.74139 0.000137331 0.0505989
0.74139 0.000137331 0.0505989
0.741619 0.000137331 0.0584878
0.022034 0.113985 0.0799268
0.022034 0.113985 0.0799268
0.0222934 0.113527 0.0798047
0.0238956 0.11249 0.0794232
0.0399329 0.113313 0.0788891
0.0697795 0.11606 0.0788891
0.0969406 0.121813 0.0776226
0.125917 0.127657 0.076936
0.169329 0.134356 0.0740826
0.223011 0.137926 0.0690013
0.281651 0.142184 0.0597543
0.349081 0.142367 0.038407
0.422782 0.136187 0.0116884
0.487449 0.108766 0.00164797
0.529015 0.04094 0.00183108
0.579751 0.0104829 0.00228885
0.625818 0.00267033 0.00317388
0.664988 0.00328069 0.000686656
0.697459 0.000579843 0.000640879
0.723827 0.00115969 0.00128176
0.740764 0.000549325 0.00808728
0.742428 0.000671397 0.00766003
0.742061 0.000137331 0.0120394
0.740902 0.000137331 0.0220035
0.740902 0.000137331 0.0290837
0.740978 0.000137331 0.0369268
0.7411 0.000137331 0.0408179
0.741146 0.000137331 0.0425574
0.741192 0.000137331 0.0437629
0.741192 0.000137331 0.0437629
0.741192 0.000137331 0.0437629
0.741299 0.000137331 0.0476539
0.741299 0.000137331 0.0476539
0.0168307 0.132555 0.0826734
0.0168307 0.132555 0.0826734
0.0168307 0.132555 0.0826734
0.0168307 0.132555 0.0826734
0.0199283 0.132982 0.0825513
0.0395819 0.134463 0.0823682
0.0785229 0.139971 0.0808423
0.115389 0.149233 0.0804761
0.163699 0.154726 0.076936
0.224353 0.162554 0.0703441
0.28719 0.167422 0.0584268
0.359258 0.169787 0.0345159
0.439429 0.166522 0.00885023
0.512367 0.152239 0.00187686
0.561502 0.124147 0.00183108
0.591806 0.0517281 0.00209049
0.626719 0.00627146 0.00291447
0.663615 0.00328069 0.000686656
0.697063 0.000640879 0.000656138
0.724453 0.00115969 0.00128176
0.740978 0.000549325 0.00808728
0.742428 0.000671397 0.00766003
0.742428 0.000671397 0.00766003
0.742107 0.000213626 0.00999466
0.741405 0.000137331 0.0176394
0.740902 0.000137331 0.023331
0.740902 0.000137331 0.0246586
0.740902 0.000137331 0.0316625
0.740902 0.000137331 0.0316625
0.740902 0.000137331 0.0316625
0.740902 0.000137331 0.0316625
0.740917 0.000137331 0.0346838
0.740978 0.000137331 0.0369268
0.0134737 0.166262 0.0851911
0.0134737 0.166262 0.0851911
0.0134737 0.166262 0.0851911
0.0134737 0.166262 0.0851911
0.0138552 0.165087 0.0851759
0.0142519 0.165286 0.0850385
0.0353399 0.16553 0.0846571
0.0857404 0.174228 0.0809644
0.143771 0.185977 0.0783703
0.216663 0.194263 0.0701762
0.289876 0.205035 0.0518349
0.367285 0.211246 0.0222934
0.455314 0.213275 0.00624094
0.534707 0.2065 0.00158694
0.595163 0.184375 0.00228885
0.635828 0.151751 0
0.669291 0.122744 0
0.688197 0.0708324 0
0.699825 0.0116121 0.000549325
0.723537 0.00115969 0.00128176
0.740764 0.000549325 0.00808728
0.742428 0.000671397 0.00766003
0.742428 0.000671397 0.00766003
0.742428 0.000671397 0.00766003
0.742428 0.000671397 0.00766003
0.742229 0.000381476 0.0087892
0.742107 0.000213626 0.00993362
0.741695 0.00015259 0.0115511
0.741421 0.000137331 0.0128176
0.741421 0.000137331 0.0128176
0.741421 0.000137331 0.0175784
0.741421 0.000137331 0.0175784
0.741421 0.000137331 0.0175784
0.0104829 0.204669 0.0863508
0.0104829 0.204669 0.0863508
0.0104829 0.204669 0.0863508
0.0104829 0.204669 0.0863508
0.0104829 0.204669 0.0863508
0.0104829 0.204669 0.0863508
0.0104829 0.204669 0.0863508
0.0225834 0.206043 0.0851453
0.0951705 0.218769 0.0800946
0.192554 0.233845 0.0703136
0.288243 0.248402 0.0406195
0.376852 0.262028 0.0109865
0.468772 0.269932 0.00222782
0.553903 0.272969 0.00230411
0.625696 0.267002 1.5259e-05
0.677089 0.243366 1.5259e-05
0.713771 0.216571 1.5259e-05
0.741161 0.197177 0
0.755199 0.166155 0
0.754299 0.0941024 0
0.750957 0.0146792 0.00427253
0.745403 0.00164797 0.00596628
0.742428 0.000671397 0.00766003
0.742428 0.000671397 0.00766003
0.742428 0.000671397 0.00766003
0.742428 0.000671397 0.00766003
0.742428 0.000671397 0.00766003
0.742428 0.000671397 0.00766003
0.742428 0.000671397 0.00766003
0.742428 0.000671397 0.00766003
0.742428 0.000671397 0.00766003
0.742428 0.000671397 0.00766003
0.742428 0.000671397 0.00766003
0.00401312 0.251743 0.084535
0.00401312 0.251743 0.084535
0.00401312 0.251743 0.084535
0.00401312 0.251743 0.084535
0.00401312 0.251743 0.084535
0.00401312 0.251743 0.084535
0.00401312 0.251743 0.084535
0.00401312 0.251743 0.084535
0.0117037 0.254154 0.0832685
0.12108 0.271855 0.0697948
0.265538 0.293446 0.0349432
0.374929 0.31603 0.00895705
0.480049 0.330831 0.00230411
0.574426 0.33994 1.5259e-05
0.648157 0.341711 1.5259e-05
0.710094 0.331548 1.5259e-05
0.757977 0.316121 1.5259e-05
0.786236 0.296742 1.5259e-05
0.80798 0.283986 1.5259e-05
0.820966 0.267659 1.5259e-05
0.822538 0.237171 1.5259e-05
0.812482 0.203983 0.000381476
0.80676 0.189319 0.0012665
0.800488 0.172351 0.00195315
0.796048 0.160189 0.00260929
0.792065 0.149416 0.00285344
0.791043 0.146639 0.00285344
0.788495 0.139666 0.00285344
0.786694 0.134524 0.00285344
0.786694 0.134524 0.00285344
0.786694 0.134524 0.00285344
0.786694 0.134524 0.00285344
0.786694 0.134524 0.00285344
0 0.310689 0.0769207
0 0.310689 0.0769207
0 0.310689 0.0769207
0 0.310689 0.0769207
0 0.310689 0.0769207
0 0.310689 0.0769207
0 0.310689 0.0769207
0 0.310689 0.0769207
0 0.308843 0.0758068
0.0015259 0.312154 0.0716259
0.196582 0.33991 0.0333562
0.358831 0.375021 0.00505074
0.478157 0.399313 0.000885023
0.585946 0.411627 3.0518e-05
0.672114 0.42031 3.0518e-05
0.736278 0.41854 3.0518e-05
0.790173 0.409293 3.0518e-05
0.827283 0.395392 3.0518e-05
0.848646 0.376883 1.5259e-05
0.867567 0.366613 1.5259e-05
0.876143 0.360952 1.5259e-05
0.873503 0.349493 1.5259e-05
0.870909 0.342016 1.5259e-05
0.869352 0.33756 1.5259e-05
0.868269 0.334691 1.5259e-05
0.86714 0.332189 1.5259e-05
0.866606 0.330846 1.5259e-05
0.864897 0.32697 1.5259e-05
0.86392 0.324971 1.5259e-05
0.86392 0.324971 1.5259e-05
0.86392 0.324971 1.5259e-05
0.86392 0.324971 1.5259e-05
0.86392 0.324971 1.5259e-05
0.00463874 0.370703 0.0526589
0.00463874 0.370703 0.0526589
0.00463874 0.370703 0.0526589
0.00463874 0.370703 0.0526589
0.00463874 0.370703 0.0526589
0.00463874 0.370703 0.0526589
0.00463874 0.370703 0.0526589
0.00463874 0.370703 0.0526589
0.00463874 0.370703 0.0526589
0.00463874 0.370703 0.0526589
0.0376287 0.384543 0.0300755
0.309468 0.428489 0.00404364
0.463676 0.462791 0.000122072
0.589914 0.48574 3.0518e-05
0.685588 0.497673 3.0518e-05
0.75671 0.501091 3.0518e-05
0.81532 0.501305 3.0518e-05
0.858381 0.493889 3.0518e-05
0.885725 0.4813 3.0518e-05
0.906615 0.467216 3.0518e-05
0.91397 0.457908 3.0518e-05
0.913298 0.450278 3.0518e-05
0.912413 0.447929 3.0518e-05
0.911116 0.444343 3.0518e-05
0.909743 0.440558 3.0518e-05
0.909331 0.439399 3.0518e-05
0.909331 0.439399 3.0518e-05
0.908812 0.437919 3.0518e-05
0.907561 0.43444 3.0518e-05
0.907561 0.43444 3.0518e-05
0.907561 0.43444 3.0518e-05
0.907561 0.43444 3.0518e-05
0.907561 0.43444 3.0518e-05
0.0100252 0.429801 0.0258946
0.0100252 0.429801 0.0258946
0.0100252 0.429801 0.0258946
0.0100252 0.429801 0.0258946
0.0100252 0.429801 0.0258946
0.0100252 0.429801 0.0258946
0.0100252 0.429801 0.0258946
0.0100252 0.429801 0.0258946
0.0100252 0.429801 0.0258946
0.00944533 0.428443 0.0229953
0.00944533 0.428443 0.0229953
0.18822 0.458747 0.00921645
0.423865 0.516625 3.0518e-05
0.576593 0.546624 4.57771e-05
0.691661 0.568414 4.57771e-05
0.770214 0.577386 4.57771e-05
0.834302 0.580407 4.57771e-05
0.882338 0.576867 4.57771e-05
0.91397 0.57319 4.57771e-05
0.937301 0.563241 4.57771e-05
0.948592 0.553201 4.57771e-05
0.951034 0.548424 4.57771e-05
0.949981 0.545495 4.57771e-05
0.949111 0.543313 4.57771e-05
0.948226 0.541115 4.57771e-05
0.94786 0.5402 4.57771e-05
0.946975 0.537987 4.57771e-05
0.946975 0.537987 4.57771e-05
0.946975 0.537987 4.57771e-05
0.946975 0.537987 4.57771e-05
0.946975 0.537987 4.57771e-05
0.946975 0.537987 4.57771e-05
0.946975 0.537987 4.57771e-05
0.035172 0.486641 0.0155337
0.035172 0.486641 0.0155337
0.035172 0.486641 0.0155337
0.035172 0.486641 0.0155337
0.035172 0.486641 0.0155337
0.033753 0.485679 0.0157931
0.0320897 0.484321 0.0161746
0.0320897 0.484321 0.0161746
0.0320897 0.484321 0.0161746
0.0320897 0.484321 0.0161746
0.0320897 0.484321 0.0161746
0.042298 0.48603 0.0153201
0.343679 0.542947 6.10361e-05
0.538537 0.591836 4.57771e-05
0.680644 0.620066 6.10361e-05
0.772183 0.636439 6.10361e-05
0.844175 0.644236 6.10361e-05
0.899504 0.645731 6.10361e-05
0.93576 0.64358 6.10361e-05
0.961089 0.638453 6.10361e-05
0.976837 0.635508 6.10361e-05
0.980026 0.631556 6.10361e-05
0.978302 0.627878 6.10361e-05
0.977096 0.625101 6.10361e-05
0.977096 0.625101 6.10361e-05
0.976593 0.623911 6.10361e-05
0.975738 0.621958 6.10361e-05
0.975387 0.621195 6.10361e-05
0.975387 0.621195 6.10361e-05
0.975387 0.621195 6.10361e-05
0.975387 0.621195 6.10361e-05
0.975387 0.621195 6.10361e-05
0.975387 0.621195 6.10361e-05
0.0336004 0.531044 0.0134279
0.0336004 0.531044 0.0134279
0.0336004 0.531044 0.0134279
0.0336004 0.531044 0.0134279
0.0336004 0.531044 0.0134279
0.0336004 0.531044 0.0134279
0.0336004 0.531044 0.0134279
0.0336004 0.531044 0.0134279
0.0336004 0.531044 0.0134279
0.0336004 0.531044 0.0134279
0.0336004 0.531044 0.0134279
0.0336004 0.531044 0.0134279
0.151614 0.552224 0.00289921
0.476905 0.623285 6.10361e-05
0.652781 0.665599 6.10361e-05
0.766903 0.688777 7.62951e-05
0.847181 0.701152 7.62951e-05
0.906325 0.706676 7.62951e-05
0.94815 0.705318 7.62951e-05
0.977752 0.703227 7.62951e-05
0.991531 0.698787 7.62951e-05
0.994156 0.696635 7.62951e-05
0.993194 0.692943 7.62951e-05
0.992889 0.690639 7.62951e-05
0.992889 0.690639 7.62951e-05
0.992889 0.690639 7.62951e-05
0.992721 0.689723 7.62951e-05
0.992416 0.68748 7.62951e-05
0.992416 0.68748 7.62951e-05
0.992416 0.68748 7.62951e-05
0.992416 0.68748 7.62951e-05
0.992416 0.68748 7.62951e-05
0.992416 0.68748 7.62951e-05
0.0316777 0.566812 0.0145418
0.0316777 0.566812 0.0145418
0.0316777 0.566812 0.0145418
0.0316777 0.566812 0.0145418
0.0316777 0.566812 0.0145418
0.0316777 0.566812 0.0145418
0.0316777 0.566812 0.0145418
0.0316777 0.566812 0.0145418
0.0316777 0.566812 0.0145418
0.0316777 0.566812 0.0145418
0.0316777 0.566812 0.0145418
0.0316777 0.566354 0.0146029
0.0316777 0.56582 0.0146792
0.332311 0.626749 0.0011902
0.599634 0.695735 7.62951e-05
0.745632 0.731563 7.62951e-05
0.83801 0.748058 7.62951e-05
0.908324 0.758724 9.15541e-05
0.957626 0.76286 9.15541e-05
0.988739 0.761166 9.15541e-05
0.996094 0.75465 9.15541e-05
0.996094 0.749279 9.15541e-05
0.996094 0.746395 9.15541e-05
0.996094 0.745571 9.15541e-05
0.996094 0.7449 9.15541e-05
0.996094 0.743404 7.62951e-05
0.996094 0.743404 7.62951e-05
0.996094 0.743404 7.62951e-05
0.996094 0.743404 7.62951e-05
0.996094 0.743404 7.62951e-05
0.996094 0.743404 7.62951e-05
0.996094 0.743404 7.62951e-05
0.996094 0.743404 7.62951e-05
0.0523537 0.6038 0.0106355
0.0523537 0.6038 0.0106355
0.0523537 0.6038 0.0106355
0.0523537 0.6038 0.0106355
0.0523537 0.6038 0.0106355
0.0523537 0.6038 0.0106355
0.0523537 0.6038 0.0106355
0.0523537 0.6038 0.0106355
0.0523537 0.6038 0.0106355
0.0523537 0.6038 0.0106355
0.0523537 0.6038 0.0106355
0.0523537 0.6038 0.0106355
0.0523537 0.6038 0.0106355
0.118502 0.616205 0.00585946
0.493187 0.701717 7.62951e-05
0.70515 0.755764 9.15541e-05
0.819699 0.78352 9.15541e-05
0.900343 0.797574 9.15541e-05
0.957305 0.805173 9.15541e-05
0.990326 0.807523 9.15541e-05
0.996094 0.799603 9.15541e-05
0.996094 0.79675 9.15541e-05
0.996094 0.794659 9.15541e-05
0.996094 0.793439 9.15541e-05
0.996094 0.793439 9.15541e-05
0.996094 0.793439 9.15541e-05
0.996094 0.792706 9.15541e-05
0.996094 0.792187 9.15541e-05
0.996094 0.792187 9.15541e-05
0.996094 0.792187 9.15541e-05
0.996094 0.792187 9.15541e-05
0.996094 0.792187 9.15541e-05
0.996094 0.792187 9.15541e-05
0.0189364 0.614679 0.0335241
0.0189364 0.614679 0.0335241
0.0189364 0.614679 0.0335241
0.0189364 0.614679 0.0335241
0.0189364 0.614679 0.0335241
0.0189364 0.614679 0.0335241
0.0189364 0.614679 0.0335241
0.0189364 0.614679 0.0335241
0.0189364 0.614679 0.0335241
0.0189364 0.614679 0.0335241
0.0189364 0.614679 0.0335241
0.0189364 0.614679 0.0335241
0.0189364 0.614679 0.0335241
0.0200809 0.614954 0.0328527
0.302358 0.67422 0.00350958
0.628061 0.758999 9.15541e-05
0.789548 0.800916 9.15541e-05
0.882643 0.820935 0.000106813
0.948104 0.833356 0.000106813
0.989731 0.837247 0.000106813
0.996094 0.83267 0.000106813
0.996094 0.828687 0.000106813
0.996094 0.826413 0.000106813
0.996094 0.826139 0.000106813
0.996094 0.825437 0.000106813
0.996094 0.825437 0.000106813
0.996094 0.825437 0.000106813
0.996094 0.825437 0.000106813
0.996094 0.825437 0.000106813
0.996094 0.825437 0.000106813
0.996094 0.825437 0.000106813
0.996094 0.825437 0.000106813
0.996094 0.825437 0.000106813
0 0.569207 0.123583
0 0.569207 0.123583
0 0.569207 0.123583
0 0.569207 0.123583
0 0.569207 0.123583
0 0.569207 0.123583
0 0.569207 0.123583
0 0.569207 0.123583
0 0.569207 0.123583
0 0.569207 0.123583
0 0.570809 0.120806
0 0.570809 0.120806
0 0.570809 0.120806
0 0.570809 0.120806
0 0.5841 0.108064
0.47541 0.734325 7.62951e-05
0.737636 0.804303 9.15541e-05
0.857908 0.834852 0.000106813
0.935378 0.84892 0.000106813
0.984115 0.858473 0.000106813
0.996094 0.857069 0.000106813
0.996094 0.851606 0.000106813
0.996094 0.84976 0.000106813
0.996094 0.849363 0.000106813
0.996094 0.849363 0.000106813
0.996094 0.849363 0.000106813
0.996094 0.848417 0.000106813
0.996094 0.848417 0.000106813
0.996094 0.848417 0.000106813
0.996094 0.848417 0.000106813
0.996094 0.848417 0.000106813
0.996094 0.848417 0.000106813
0.996094 0.848417 0.000106813
1.5259e-05 0.557229 0.249027
1.5259e-05 0.557229 0.249027
1.5259e-05 0.557229 0.249027
1.5259e-05 0.557229 0.249027
1.5259e-05 0.557229 0.249027
1.5259e-05 0.557229 0.249027
1.5259e-05 0.557229 0.249027
1.5259e-05 0.557229 0.249027
1.5259e-05 0.557229 0.249027
1.5259e-05 0.557229 0.249027
1.5259e-05 0.557229 0.249027
1.5259e-05 0.557229 0.249027
1.5259e-05 0.557229 0.249027
1.5259e-05 0.557229 0.249027
1.5259e-05 0.557229 0.249027
0.0320439 0.648768 0.13753
0.650568 0.790677 0.000808728
0.818235 0.836652 0.000106813
0.91426 0.857496 0.000106813
0.971847 0.868925 0.000122072
0.996078 0.870726 0.000122072
0.996094 0.866529 0.000122072
0.996094 0.865827 0.000122072
0.996094 0.864866 0.000122072
0.996094 0.864668 0.000122072
0.996094 0.864668 0.000122072
0.996094 0.864668 0.000122072
0.996094 0.864668 0.000122072
0.996094 0.864668 0.000122072
0.996094 0.864668 0.000122072
0.996094 0.864668 0.000122072
0.996094 0.864668 0.000122072
0.996094 0.864668 0.000122072
3.0518e-05 0.579019 0.323644
3.0518e-05 0.579019 0.323644
3.0518e-05 0.579019 0.323644
3.0518e-05 0.579019 0.323644
3.0518e-05 0.579019 0.323644
3.0518e-05 0.579019 0.323644
3.0518e-05 0.579019 0.323644
3.0518e-05 0.579019 0.323644
3.0518e-05 0.579019 0.323644
3.0518e-05 0.579019 0.323644
3.0518e-05 0.579019 0.323644
3.0518e-05 0.579019 0.323644
3.0518e-05 0.579019 0.323644
3.0518e-05 0.579019 0.323644
3.0518e-05 0.579019 0.323644
3.0518e-05 0.602136 0.300862
0.512261 0.758785 0.0154879
0.774121 0.829358 0.000320439
0.885679 0.856367 0.000106813
0.959472 0.871672 0.000122072
0.993515 0.877089 0.000122072
0.996094 0.876677 0.000122072
0.996094 0.873274 0.000122072
0.996094 0.871946 0.000122072
0.996094 0.871687 0.000122072
0.996094 0.871687 0.000122072
0.996094 0.871687 0.000122072
0.996094 0.871687 0.000122072
0.996094 0.871687 0.000122072
0.996094 0.871687 0.000122072
0.996094 0.871687 0.000122072
0.996094 0.871687 0.000122072
0.996094 0.871687 0.000122072
3.0518e-05 0.580468 0.329046
3.0518e-05 0.580468 0.329046
3.0518e-05 0.580468 0.329046
3.0518e-05 0.580468 0.329046
3.0518e-05 0.580468 0.329046
3.0518e-05 0.580468 0.329046
3.0518e-05 0.580468 0.329046
3.0518e-05 0.580468 0.329046
3.0518e-05 0.580468 0.329046
3.0518e-05 0.580468 0.329046
3.0518e-05 0.580468 0.329046
3.0518e-05 0.580468 0.329046
3.0518e-05 0.580468 0.329046
3.0518e-05 0.580468 0.329046
3.0518e-05 0.580468 0.329046
3.0518e-05 0.580087 0.326848
0.365621 0.724437 0.0907301
0.742748 0.8206 0.000854505
0.870176 0.854704 0.000106813
0.94992 0.871382 0.000122072
0.99089 0.87834 0.000122072
0.996094 0.877943 0.000122072
0.996094 0.87454 0.000122072
0.996094 0.873289 0.000122072
0.996094 0.87277 0.000122072
0.996094 0.87277 0.000122072
0.996094 0.87277 0.000122072
0.996094 0.87277 0.000122072
0.996094 0.87277 0.000122072
0.996094 0.87277 0.000122072
0.996094 0.87277 0.000122072
0.996094 0.87277 0.000122072
0.996094 0.87277 0.000122072
3.0518e-05 0.580468 0.329046
3.0518e-05 0.580468 0.329046
3.0518e-05 0.580468 0.329046
3.0518e-05 0.580468 0.329046
3.0518e-05 0.580468 0.329046
3.0518e-05 0.580468 0.329046
3.0518e-05 0.580468 0.329046
3.0518e-05 0.580468 0.329046
3.0518e-05 0.580468 0.329046
3.0518e-05 0.580468 0.329046
3.0518e-05 0.580468 0.329046
3.0518e-05 0.580468 0.329046
3.0518e-05 0.580468 0.329046
3.0518e-05 0.580468 0.329046
3.0518e-05 0.580468 0.329046
3.0518e-05 0.580468 0.329046
0.160998 0.693339 0.168414
0.710353 0.812268 0.00263981
0.857298 0.851743 0.000106813
0.94284 0.870222 0.000122072
0.988479 0.878233 0.000122072
0.996094 0.877943 0.000122072
0.996094 0.87454 0.000122072
0.996094 0.873991 0.000122072
0.996094 0.87277 0.000122072
0.996094 0.87277 0.000122072
0.996094 0.87277 0.000122072
0.996094 0.87277 0.000122072
0.996094 0.87277 0.000122072
0.996094 0.87277 0.000122072
