LUT/LogC3/709/looks/Alexa_LogC3_709_D65_2383_A.cube
LUT_3D_SIZE 9
0.0453193 0.0579538 0.064332
0.0853437 0.0647288 0.064332
0.166125 0.0771496 0.0619821
0.391897 0.0699779 0.0104067
0.628397 0.00257877 0.00317388
0.740948 0.000137331 0.0120241
0.741619 0.000137331 0.05832
0.741787 0.000137331 0.064271
0.741787 0.000137331 0.064271
0.0355383 0.0781109 0.0700694
0.0779736 0.0839857 0.0699779
0.1682 0.0958267 0.065568
0.38851 0.0704967 0.0110933
0.625818 0.00267033 0.00317388
0.741283 0.000549325 0.00808728
0.741253 0.000137331 0.0460517
0.741787 0.000137331 0.064271
0.741787 0.000137331 0.064271
0.0168307 0.132555 0.0826734
0.0199283 0.132982 0.0825513
0.163699 0.154726 0.076936
0.439429 0.166522 0.00885023
0.626719 0.00627146 0.00291447
0.740978 0.000549325 0.00808728
0.741405 0.000137331 0.0176394
0.740902 0.000137331 0.0316625
0.740978 0.000137331 0.0369268
0 0.310689 0.0769207
0 0.310689 0.0769207
0 0.308843 0.0758068
0.478157 0.399313 0.000885023
0.790173 0.409293 3.0518e-05
0.876143 0.360952 1.5259e-05
0.868269 0.334691 1.5259e-05
0.86392 0.324971 1.5259e-05
0.86392 0.324971 1.5259e-05
0.0336004 0.531044 0.0134279
0.0336004 0.531044 0.0134279
0.0336004 0.531044 0.0134279
0.151614 0.552224 0.00289921
0.847181 0.701152 7.62951e-05
0.991531 0.698787 7.62951e-05
0.992889 0.690639 7.62951e-05
0.992416 0.68748 7.62951e-05
0.992416 0.68748 7.62951e-05
0 0.569207 0.123583
0 0.569207 0.123583
0 0.569207 0.123583
0 0.570809 0.120806
0.737636 0.804303 9.15541e-05
0.996094 0.857069 0.000106813
0.996094 0.849363 0.000106813
0.996094 0.848417 0.000106813
0.996094 0.848417 0.000106813
3.0518e-05 0.580468 0.329046
3.0518e-05 0.580468 0.329046
3.0518e-05 0.580468 0.329046
3.0518e-05 0.580468 0.329046
0.160998 0.693339 0.168414
0.988479 0.878233 0.000122072
0.996094 0.87277 0.000122072
0.996094 0.87277 0.000122072
0.996094 0.87277 0.000122072
3.0518e-05 0.580468 0.329046
3.0518e-05 0.580468 0.329046
3.0518e-05 0.580468 0.329046
3.0518e-05 0.580468 0.329046
1.5259e-05 0.633768 0.250813
0.98143 0.876524 0.000122072
0.996094 0.873137 0.000122072
0.996094 0.87277 0.000122072
0.996094 0.87277 0.000122072
3.0518e-05 0.580468 0.329046
3.0518e-05 0.580468 0.329046
3.0518e-05 0.580468 0.329046
3.0518e-05 0.580468 0.329046
1.5259e-05 0.627863 0.267185
0.978698 0.875868 0.000122072
0.996094 0.873137 0.000122072
0.996094 0.87277 0.000122072
0.996094 0.87277 0.000122072
0.0444495 0.0594797 0.0726177
0.0806744 0.0642405 0.0739452
0.167651 0.0775464 0.073579
0.389838 0.067277 0.0539712
0.628397 0.000656138 0.0240787
0.740169 0.000137331 0.064271
0.741787 0.000137331 0.064271
0.742031 0.000137331 0.0664225
0.743358 0.000137331 0.0785382
0.0347906 0.0753338 0.0730449
0.0729229 0.0788891 0.0733806
0.163943 0.0922713 0.0719768
0.385504 0.0688487 0.0463111
0.625818 0.00128176 0.0197757
0.740169 0.000137331 0.064271
0.741787 0.000137331 0.064271
0.741787 0.000137331 0.064271
0.742748 0.000137331 0.0729839
0.0138552 0.130343 0.0829328
0.0155795 0.130831 0.0826886
0.160067 0.150408 0.076936
0.437781 0.16321 0.0189975
0.62594 0.00427253 0.00520333
0.739467 0.000137331 0.0529793
0.741787 0.000137331 0.064271
0.741787 0.000137331 0.064271
0.741787 0.000137331 0.064271
0 0.308843 0.0758068
0 0.307927 0.0762341
0 0.306569 0.0768749
0.47628 0.39585 0.00140383
0.789303 0.406958 3.0518e-05
0.874723 0.357382 1.5259e-05
0.86714 0.332189 1.5259e-05
0.865095 0.327398 1.5259e-05
0.862837 0.322957 1.5259e-05
0.0336004 0.531044 0.0134279
0.0336004 0.531044 0.0134279
0.0336004 0.531044 0.0134279
0.151614 0.552224 0.00289921
0.846967 0.700359 7.62951e-05
0.991028 0.696986 7.62951e-05
0.992889 0.690639 7.62951e-05
0.992416 0.68748 7.62951e-05
0.992416 0.68748 7.62951e-05
0 0.569848 0.122454
0 0.570809 0.120806
0 0.570809 0.120806
0 0.570809 0.120806
0.736492 0.804013 9.15541e-05
0.996094 0.856764 0.000106813
0.996094 0.849363 0.000106813
0.996094 0.848417 0.000106813
0.996094 0.847623 0.000106813
3.0518e-05 0.580468 0.329046
3.0518e-05 0.580468 0.329046
3.0518e-05 0.580468 0.329046
3.0518e-05 0.580468 0.329046
0.158099 0.692866 0.168811
0.988479 0.878233 0.000122072
0.996094 0.87277 0.000122072
0.996094 0.87277 0.000122072
0.996094 0.87277 0.000122072
3.0518e-05 0.580468 0.329046
3.0518e-05 0.580468 0.329046
3.0518e-05 0.580468 0.329046
3.0518e-05 0.580468 0.329046
1.5259e-05 0.633402 0.252796
0.980911 0.876356 0.000122072
0.996094 0.873137 0.000122072
0.996094 0.87277 0.000122072
0.996094 0.87277 0.000122072
3.0518e-05 0.580468 0.329046
3.0518e-05 0.580468 0.329046
3.0518e-05 0.580468 0.329046
3.0518e-05 0.580468 0.329046
1.5259e-05 0.626444 0.270802
0.978698 0.875868 0.000122072
0.996094 0.873137 0.000122072
0.996094 0.87277 0.000122072
0.996094 0.87277 0.000122072
0.0263218 0.0613107 0.137087
0.0727398 0.0674296 0.140764
0.161196 0.0806287 0.146471
0.390372 0.0682078 0.145861
0.630991 9.15541e-05 0.139803
0.745769 0.000137331 0.17995
0.749508 0.000137331 0.193683
0.749981 0.000137331 0.198093
0.751003 0.000137331 0.205463
0.0255589 0.0634623 0.134951
0.060853 0.0667277 0.138247
0.154376 0.0803388 0.14464
0.38941 0.0684367 0.143984
0.630991 9.15541e-05 0.136751
0.745129 0.000137331 0.17438
0.74934 0.000137331 0.191073
0.749508 0.000137331 0.193683
0.751003 0.000137331 0.205463
0.000427253 0.131121 0.154238
0.000381476 0.131319 0.154894
0.132769 0.15079 0.160433
0.426612 0.162722 0.158968
0.628702 9.15541e-05 0.129625
0.744274 0.000137331 0.157977
0.748882 0.000137331 0.183474
0.749157 0.000137331 0.188037
0.749798 0.000137331 0.196765
0 0.301976 0.0873732
0 0.301976 0.0873732
0 0.301976 0.0873732
0.463966 0.38793 0.0227054
0.773663 0.397177 0.00187686
0.865064 0.348989 0.0256199
0.858579 0.326909 0.0531319
0.856062 0.321035 0.0635386
0.85597 0.321096 0.11986
0.0336156 0.529763 0.0136416
0.0336156 0.529763 0.0136416
0.0336309 0.529183 0.0137484
0.139269 0.54873 0.00363165
0.846479 0.698085 7.62951e-05
0.990677 0.69572 7.62951e-05
0.992416 0.68748 7.62951e-05
0.992264 0.686015 7.62951e-05
0.992172 0.684062 7.62951e-05
0 0.570809 0.120806
0 0.570809 0.120806
0 0.570809 0.120806
0 0.575097 0.115038
0.735973 0.80354 9.15541e-05
0.996094 0.856184 0.000106813
0.996094 0.847623 0.000106813
0.996094 0.847623 0.000106813
0.996094 0.847623 0.000106813
3.0518e-05 0.580468 0.329046
3.0518e-05 0.580468 0.329046
3.0518e-05 0.580468 0.329046
3.0518e-05 0.580468 0.329046
0.147021 0.691188 0.173037
0.988479 0.878233 0.000122072
0.996094 0.87277 0.000122072
0.996094 0.87277 0.000122072
0.996094 0.87277 0.000122072
3.0518e-05 0.580468 0.329046
3.0518e-05 0.580468 0.329046
3.0518e-05 0.580468 0.329046
3.0518e-05 0.580468 0.329046
1.5259e-05 0.633478 0.255879
0.98027 0.876204 0.000122072
0.996094 0.873137 0.000122072
0.996094 0.87277 0.000122072
0.996094 0.87277 0.000122072
3.0518e-05 0.580468 0.329046
3.0518e-05 0.580468 0.329046
3.0518e-05 0.580468 0.329046
3.0518e-05 0.580468 0.329046
1.5259e-05 0.626673 0.274983
0.978698 0.875868 0.000122072
0.996094 0.873137 0.000122072
0.996094 0.87277 0.000122072
0.996094 0.87277 0.000122072
0.00466926 0.0170291 0.289219
0.00584421 0.0181277 0.289647
0.135958 0.0532387 0.309895
0.39823 0.0260471 0.327794
0.639948 9.15541e-05 0.334569
0.755657 0.000137331 0.357259
0.76289 0.000137331 0.362219
0.76289 0.000137331 0.362219
0.763104 0.000137331 0.363485
0.00546273 0.0186923 0.288167
0.00546273 0.0186923 0.288167
0.128161 0.0530404 0.308598
0.394049 0.0275273 0.327489
0.639948 9.15541e-05 0.334569
0.755627 0.000137331 0.356649
0.76289 0.000137331 0.362219
0.76289 0.000137331 0.362219
0.763104 0.000137331 0.363485
0.00801099 0.0334478 0.291203
0.00694286 0.0321813 0.290745
0.100603 0.0571756 0.303746
0.385351 0.0312505 0.324331
0.637064 9.15541e-05 0.331167
0.75491 0.000137331 0.355673
0.762692 0.000137331 0.36112
0.762692 0.000137331 0.36112
0.763104 0.000137331 0.363333
3.0518e-05 0.317784 0.3832
3.0518e-05 0.317876 0.384039
3.0518e-05 0.317876 0.384039
0.399405 0.400946 0.403159
0.751598 0.408881 0.406851
0.855467 0.342199 0.408774
0.852079 0.316365 0.407248
0.848997 0.307683 0.405386
0.846708 0.300313 0.410147
3.0518e-05 0.534035 0.307439
3.0518e-05 0.534035 0.307439
3.0518e-05 0.533379 0.307347
3.0518e-05 0.551751 0.31075
0.787305 0.699001 0.33283
0.957259 0.699321 0.34255
0.968826 0.699794 0.377539
0.968307 0.698482 0.382376
0.968307 0.705867 0.42855
0.00148013 0.610483 0.0793927
0.00148013 0.610483 0.0793927
0.00144961 0.610422 0.0801862
0.00198367 0.613443 0.0817578
0.727626 0.798947 9.15541e-05
0.996017 0.850645 0.00015259
0.996094 0.839292 0.0229648
0.996094 0.838987 0.0265202
0.996094 0.842191 0.205097
3.0518e-05 0.580468 0.329046
3.0518e-05 0.580468 0.329046
3.0518e-05 0.580468 0.329046
3.0518e-05 0.580468 0.329046
0.085359 0.679957 0.188556
0.987213 0.877943 0.000122072
0.996094 0.87277 0.000122072
0.996094 0.87277 0.000122072
0.996094 0.87277 0.000122072
3.0518e-05 0.580468 0.329046
3.0518e-05 0.580468 0.329046
3.0518e-05 0.580468 0.329046
3.0518e-05 0.580468 0.329046
1.5259e-05 0.628077 0.269322
0.978698 0.875868 0.000122072
0.996094 0.873137 0.000122072
0.996094 0.87277 0.000122072
0.996094 0.87277 0.000122072
3.0518e-05 0.580468 0.329046
3.0518e-05 0.580468 0.329046
3.0518e-05 0.580468 0.329046
3.0518e-05 0.580468 0.329046
1.5259e-05 0.622232 0.285679
0.976547 0.875441 0.000122072
0.996094 0.873274 0.000122072
0.996094 0.87277 0.000122072
0.996094 0.87277 0.000122072
4.57771e-05 0.00131228 0.446601
4.57771e-05 0.00131228 0.446601
4.57771e-05 0.00123598 0.446387
0.364523 0.0691539 0.51223
0.651331 0.0242008 0.545739
0.775845 0.000122072 0.55993
0.783566 0.000137331 0.559808
0.783566 0.000137331 0.559808
0.784192 0.000137331 0.563088
4.57771e-05 0.00131228 0.446601
4.57771e-05 0.00131228 0.446601
4.57771e-05 0.00123598 0.446387
0.362203 0.0694438 0.512016
0.65037 0.0248264 0.545647
0.775448 0.000122072 0.558129
0.783566 0.000137331 0.559808
0.783566 0.000137331 0.559808
0.784192 0.000137331 0.563088
4.57771e-05 0.00131228 0.446601
4.57771e-05 0.00131228 0.446601
4.57771e-05 0.00131228 0.446601
0.351598 0.0710613 0.51136
0.647334 0.0252537 0.542611
0.774334 0.000122072 0.556786
0.783566 0.000137331 0.559808
0.783566 0.000137331 0.559808
0.784192 0.000137331 0.563088
7.62951e-05 0.202014 0.531472
7.62951e-05 0.200763 0.530938
7.62951e-05 0.199466 0.530846
0.323949 0.285786 0.576196
0.691142 0.256367 0.589822
0.800916 0.153353 0.576699
0.798505 0.0779583 0.574716
0.795224 0.0542458 0.571221
0.793805 0.0206302 0.573816
0.000106813 0.516747 0.617807
0.000106813 0.516747 0.617807
0.000106813 0.516823 0.618997
0.000106813 0.519188 0.621073
0.7243 0.712077 0.666087
0.929839 0.713252 0.672801
0.953674 0.713344 0.697368
0.953353 0.712108 0.697246
0.95227 0.70779 0.708675
9.15541e-05 0.649699 0.599466
9.15541e-05 0.649699 0.599466
9.15541e-05 0.649699 0.599466
9.15541e-05 0.648798 0.599863
0.551629 0.826429 0.618982
0.940246 0.889601 0.645701
0.990845 0.896376 0.666575
0.990845 0.896376 0.666575
0.987778 0.898695 0.697047
9.15541e-05 0.711666 0.599741
9.15541e-05 0.711666 0.599741
9.15541e-05 0.711666 0.599741
9.15541e-05 0.711482 0.601022
0.027863 0.774243 0.59321
0.924544 0.913741 0.617273
0.994522 0.928786 0.653223
0.99472 0.929061 0.654002
0.99472 0.92958 0.657496
9.15541e-05 0.71194 0.591318
9.15541e-05 0.71194 0.591318
9.15541e-05 0.71194 0.591318
9.15541e-05 0.711757 0.59202
9.15541e-05 0.740536 0.589792
0.916823 0.91133 0.603571
0.993606 0.927275 0.644083
0.99472 0.928222 0.648203
0.99472 0.92958 0.657496
9.15541e-05 0.711498 0.589578
9.15541e-05 0.711498 0.589578
9.15541e-05 0.711498 0.589578
9.15541e-05 0.711498 0.589578
9.15541e-05 0.731594 0.589578
0.914015 0.910704 0.60058
0.993332 0.926848 0.641321
0.99472 0.927214 0.643687
0.99472 0.929351 0.65594
9.15541e-05 0.0480049 0.600519
9.15541e-05 0.0480049 0.600519
9.15541e-05 0.0480049 0.600519
0.000106813 0.119814 0.620737
0.633036 0.245563 0.721569
0.809003 0.23418 0.744717
0.823896 0.225986 0.748104
0.823896 0.225986 0.748104
0.824048 0.233295 0.749737
9.15541e-05 0.0480049 0.600519
9.15541e-05 0.0480049 0.600519
9.15541e-05 0.0480049 0.600519
0.000106813 0.108919 0.617548
0.632273 0.245594 0.721569
0.808652 0.234257 0.74464
0.823896 0.225986 0.748104
0.823896 0.225986 0.748104
0.824048 0.233295 0.749737
9.15541e-05 0.0442817 0.598901
9.15541e-05 0.0442817 0.598901
9.15541e-05 0.0442817 0.598901
9.15541e-05 0.087953 0.611368
0.62855 0.245899 0.72134
0.807309 0.234424 0.744457
0.823453 0.222385 0.747295
0.823713 0.22446 0.747768
0.824048 0.233295 0.749737
9.15541e-05 0.0457771 0.598291
9.15541e-05 0.0457771 0.598291
9.15541e-05 0.0457771 0.598291
9.15541e-05 0.0575875 0.602548
0.606607 0.245335 0.716686
0.803281 0.235782 0.743908
0.823438 0.222324 0.747127
0.823438 0.222324 0.747127
0.824048 0.233295 0.749737
0.00015259 0.476692 0.746303
0.00015259 0.476692 0.746303
0.00015259 0.476692 0.746303
0.00015259 0.474067 0.745556
0.679652 0.652018 0.815198
0.904036 0.644175 0.822644
0.932296 0.64126 0.834928
0.931563 0.637415 0.834455
0.929686 0.630442 0.840314
0.000167849 0.625193 0.77789
0.000167849 0.625193 0.77789
0.000167849 0.625193 0.77789
0.000167849 0.625238 0.778271
0.286061 0.811902 0.81651
0.905119 0.897276 0.848829
0.974914 0.902235 0.85951
0.974929 0.901854 0.860075
0.973342 0.901167 0.866606
0.000167849 0.657633 0.779416
0.000167849 0.657633 0.779416
0.000167849 0.657633 0.779416
0.000167849 0.657801 0.779965
0.000183108 0.696208 0.795026
0.870497 0.9355 0.846479
0.974472 0.950134 0.853513
0.981903 0.952438 0.858137
0.981262 0.953246 0.867414
0.000167849 0.658122 0.77702
0.000167849 0.658122 0.77702
0.000167849 0.658122 0.77702
0.000167849 0.658122 0.77702
0.000167849 0.658122 0.77702
0.857862 0.934554 0.844953
0.970657 0.953079 0.855406
0.982544 0.95288 0.855741
0.982132 0.954604 0.862394
0.000167849 0.658122 0.77702
0.000167849 0.658122 0.77702
0.000167849 0.658122 0.77702
0.000167849 0.658122 0.77702
0.000167849 0.658122 0.77702
0.852811 0.933928 0.844434
0.968933 0.953033 0.855283
0.982544 0.952804 0.855512
0.982132 0.954604 0.862394
0.000106813 0.138094 0.649531
0.000106813 0.138094 0.649531
0.000106813 0.138094 0.649531
0.000122072 0.16379 0.658595
0.553079 0.346471 0.771328
0.81471 0.343755 0.794034
0.836118 0.335439 0.792676
0.836118 0.335439 0.792676
0.836118 0.335439 0.792676
0.000106813 0.138094 0.649531
0.000106813 0.138094 0.649531
0.000106813 0.138094 0.649531
0.000122072 0.16379 0.658595
0.549828 0.345159 0.770489
0.813855 0.343954 0.794034
0.836118 0.335439 0.792676
0.836118 0.335439 0.792676
0.836118 0.335439 0.792676
0.000106813 0.138094 0.649531
0.000106813 0.138094 0.649531
0.000106813 0.138094 0.649531
0.000122072 0.161227 0.657618
0.54609 0.343832 0.769497
0.813397 0.344732 0.794247
0.836118 0.335439 0.792676
0.836118 0.335439 0.792676
0.836118 0.335439 0.792676
0.000106813 0.138094 0.649531
0.000106813 0.138094 0.649531
0.000106813 0.138094 0.649531
0.000106813 0.149508 0.653529
0.507515 0.339391 0.764584
0.807187 0.344564 0.794034
0.837095 0.335439 0.792752
0.836744 0.335439 0.792721
0.836118 0.335439 0.792676
0.000167849 0.426093 0.764981
0.000167849 0.426093 0.764981
0.000167849 0.426093 0.764981
0.000167849 0.42359 0.764004
0.617624 0.585534 0.842603
0.874998 0.586419 0.858076
0.912322 0.585306 0.859785
0.911009 0.582925 0.859251
0.909255 0.577447 0.85803
0.000198367 0.620523 0.823972
0.000198367 0.620523 0.823972
0.000198367 0.620523 0.823972
0.000198367 0.620172 0.823819
0.0387579 0.785977 0.862562
0.887922 0.884504 0.905821
0.968551 0.888014 0.91342
0.969726 0.887404 0.913375
0.969604 0.886366 0.914137
0.000198367 0.658381 0.829923
0.000198367 0.658381 0.829923
0.000198367 0.658381 0.829923
0.000198367 0.658244 0.830198
0.000198367 0.657511 0.830411
0.844312 0.934951 0.90631
0.960891 0.94995 0.913481
0.974701 0.952255 0.917082
0.974701 0.952331 0.91873
0.000198367 0.665125 0.834195
0.000198367 0.665125 0.834195
0.000198367 0.665125 0.834195
0.000198367 0.665125 0.834409
0.000198367 0.665125 0.834516
0.82974 0.938003 0.90631
0.956115 0.95758 0.913527
0.972015 0.959182 0.918044
0.974701 0.960464 0.920089
0.000198367 0.665125 0.833783
0.000198367 0.665125 0.833783
0.000198367 0.665125 0.833783
0.000198367 0.665125 0.833783
0.000198367 0.665125 0.834195
0.825147 0.937774 0.906279
0.954513 0.957595 0.912612
0.972076 0.958648 0.915969
0.974701 0.960891 0.918349
0.000106813 0.138094 0.649531
0.000106813 0.138094 0.649531
0.000106813 0.138094 0.649531
0.000122072 0.161227 0.657618
0.544213 0.345769 0.769955
0.813428 0.34406 0.794034
0.836118 0.335439 0.792676
0.836118 0.335439 0.792676
0.836118 0.335439 0.792676
0.000106813 0.138094 0.649531
0.000106813 0.138094 0.649531
0.000106813 0.138094 0.649531
0.000122072 0.161227 0.657618
0.544213 0.345769 0.769955
0.813397 0.344747 0.794247
0.836118 0.335439 0.792676
0.836118 0.335439 0.792676
0.836118 0.335439 0.792676
0.000106813 0.138094 0.649531
0.000106813 0.138094 0.649531
0.000106813 0.138094 0.649531
0.000122072 0.159609 0.657038
0.537667 0.345235 0.76907
0.812314 0.346822 0.794873
0.836118 0.335439 0.792676
0.836118 0.335439 0.792676
0.836118 0.335439 0.792676
0.000106813 0.138094 0.649531
0.000106813 0.138094 0.649531
0.000106813 0.138094 0.649531
0.000106813 0.149508 0.653529
0.490211 0.343572 0.763973
0.804578 0.347082 0.794842
0.836118 0.335439 0.792676
0.836118 0.335439 0.792676
0.836118 0.335439 0.792676
0.00015259 0.40763 0.758068
0.00015259 0.40763 0.758068
0.00015259 0.40763 0.758068
0.00015259 0.403876 0.756771
0.601892 0.560372 0.835279
0.863828 0.564157 0.852766
0.902815 0.560296 0.853773
0.901701 0.557733 0.853117
0.901701 0.557733 0.853117
0.000198367 0.619516 0.829801
0.000198367 0.619516 0.829801
0.000198367 0.619257 0.829648
0.000198367 0.619257 0.829648
0.0147707 0.776761 0.869291
0.883833 0.879149 0.912413
0.968917 0.882109 0.915465
0.969955 0.882612 0.916213
0.969955 0.882612 0.916213
0.000198367 0.658213 0.838758
0.000198367 0.658213 0.838758
0.000198367 0.658122 0.838758
0.000198367 0.657832 0.838758
0.000198367 0.65716 0.838956
0.836378 0.933089 0.916274
0.955871 0.948058 0.925719
0.974014 0.949798 0.926909
0.974014 0.949798 0.926909
0.000198367 0.666789 0.840787
0.000198367 0.666789 0.840787
0.000198367 0.666789 0.840787
0.000198367 0.666896 0.841031
0.000198367 0.666957 0.841123
0.81854 0.937148 0.914977
0.950927 0.95613 0.923888
0.97081 0.959823 0.927901
0.974701 0.95967 0.927901
0.000198367 0.666545 0.840269
0.000198367 0.666545 0.840269
0.000198367 0.666545 0.840269
0.000198367 0.666789 0.840787
0.000198367 0.666865 0.840955
0.814343 0.936904 0.914534
0.948989 0.957855 0.923552
0.969482 0.961028 0.927535
0.974701 0.961563 0.927886
0.000106813 0.138094 0.649531
0.000106813 0.138094 0.649531
0.000106813 0.138094 0.649531
0.000122072 0.161227 0.657618
0.544213 0.345769 0.769955
0.813245 0.346685 0.794873
0.836118 0.335439 0.792676
0.836118 0.335439 0.792676
0.974701 0.961563 0.927886
0.000106813 0.138094 0.649531
0.000106813 0.138094 0.649531
0.000106813 0.138094 0.649531
0.000122072 0.161227 0.657618
0.541039 0.34551 0.769528
0.813245 0.346685 0.794873
0.836118 0.335439 0.792676
0.836118 0.335439 0.792676
0.974701 0.961563 0.927886
0.000106813 0.138094 0.649531
0.000106813 0.138094 0.649531
0.000106813 0.138094 0.649531
0.000122072 0.157687 0.656382
0.533043 0.344854 0.768429
0.812314 0.346822 0.794873
0.836118 0.335439 0.792676
0.836118 0.335439 0.792676
0.974701 0.961563 0.927886
0.000106813 0.138094 0.649531
0.000106813 0.138094 0.649531
0.000106813 0.138094 0.649531
0.000122072 0.14789 0.652964
0.485771 0.343526 0.763455
0.80415 0.347082 0.794827
0.836118 0.335439 0.792676
0.836118 0.335439 0.792676
0.974701 0.961563 0.927886
0.00015259 0.401953 0.756146
0.00015259 0.401953 0.756146
0.00015259 0.401083 0.755901
0.00015259 0.396201 0.754299
0.598001 0.550713 0.832731
0.8607 0.556481 0.850706
0.900801 0.552773 0.852033
0.899123 0.547692 0.850858
0.974701 0.961563 0.927886
0.000198367 0.618723 0.829313
0.000198367 0.618723 0.829313
0.000198367 0.618723 0.829313
0.000198367 0.618082 0.828931
0.0143587 0.77406 0.869123
0.88365 0.877363 0.912245
0.968597 0.880888 0.915145
0.969955 0.880446 0.915938
0.974701 0.961563 0.927886
0.000198367 0.657343 0.840681
0.000198367 0.657343 0.840681
0.000198367 0.657343 0.840681
0.000198367 0.657343 0.840681
0.000198367 0.656489 0.840604
0.835355 0.932616 0.917754
0.955444 0.94757 0.92549
0.973861 0.94905 0.92668
0.974701 0.961563 0.927886
0.000198367 0.666987 0.843732
0.000198367 0.666987 0.843732
0.000198367 0.666987 0.843732
0.000198367 0.666987 0.843732
0.000198367 0.666392 0.844343
0.817899 0.936553 0.917464
0.949905 0.955764 0.927504
0.97052 0.959167 0.927901
0.974701 0.961563 0.927886
0.000198367 0.666987 0.843732
0.000198367 0.666987 0.843732
0.000198367 0.666987 0.843732
0.000198367 0.666987 0.843732
0.000198367 0.666987 0.843732
0.812543 0.936706 0.917464
0.948165 0.957855 0.926635
0.968795 0.960937 0.927901
0.974701 0.961563 0.927886
