LUT/LogC4/709/looks/Alexa_LogC4_709_D65_5219_A.cube
LUT_3D_SIZE 5
0.042 0.042 0.038
0.434 0.066 0.007
0.683 0.127 0.075
0.977 0.701 0.584
0.990 0.887 0.811
0.000 0.190 0.066
0.329 0.297 0.000
0.697 0.152 0.068
0.977 0.701 0.584
0.990 0.887 0.811
0.000 0.628 0.255
0.000 0.652 0.237
0.914 0.789 0.229
0.985 0.746 0.528
0.990 0.887 0.810
0.000 0.718 0.680
0.000 0.718 0.680
0.145 0.781 0.742
0.982 0.983 0.856
0.988 0.951 0.867
0.573 0.927 0.894
0.573 0.927 0.894
0.573 0.927 0.894
0.935 0.989 0.906
0.982 0.991 0.905
0.054 0.049 0.297
0.404 0.044 0.228
0.697 0.118 0.217
0.976 0.699 0.601
0.990 0.887 0.817
0.000 0.240 0.316
0.311 0.308 0.310
0.700 0.126 0.217
0.976 0.699 0.600
0.990 0.887 0.817
0.000 0.612 0.336
0.000 0.631 0.331
0.890 0.806 0.405
0.983 0.741 0.550
0.990 0.887 0.816
0.000 0.718 0.680
0.000 0.718 0.680
0.145 0.781 0.742
0.982 0.983 0.858
0.988 0.951 0.867
0.573 0.927 0.894
0.573 0.927 0.894
0.573 0.927 0.894
0.934 0.989 0.906
0.982 0.991 0.905
0.043 0.452 0.712
0.056 0.454 0.715
0.794 0.382 0.724
0.982 0.729 0.793
0.989 0.888 0.873
0.043 0.452 0.712
0.047 0.453 0.713
0.794 0.382 0.724
0.982 0.729 0.793
0.989 0.888 0.873
0.000 0.578 0.537
0.000 0.578 0.537
0.861 0.857 0.835
0.983 0.756 0.796
0.989 0.888 0.873
0.000 0.741 0.744
0.000 0.741 0.744
0.027 0.799 0.800
0.976 0.983 0.883
0.991 0.945 0.878
0.573 0.927 0.894
0.573 0.927 0.894
0.573 0.927 0.894
0.934 0.989 0.906
0.980 0.990 0.913
0.847 0.913 0.971
0.847 0.913 0.971
0.886 0.911 0.975
0.989 0.822 0.954
0.985 0.902 0.953
0.847 0.913 0.971
0.847 0.913 0.971
0.885 0.911 0.975
0.989 0.822 0.954
0.985 0.902 0.953
0.847 0.913 0.971
0.847 0.913 0.971
0.880 0.911 0.974
0.989 0.822 0.954
0.985 0.902 0.953
0.000 0.926 0.964
0.000 0.926 0.964
0.000 0.926 0.964
0.966 0.977 0.949
0.987 0.926 0.955
0.665 0.983 0.977
0.665 0.983 0.977
0.665 0.983 0.977
0.944 0.992 0.957
0.970 0.988 0.944
0.925 0.966 0.989
0.925 0.966 0.989
0.925 0.966 0.989
0.975 0.944 0.994
0.992 0.895 0.975
0.925 0.966 0.989
0.925 0.966 0.989
0.925 0.966 0.989
0.975 0.944 0.994
0.992 0.895 0.975
0.925 0.966 0.989
0.925 0.966 0.989
0.925 0.966 0.989
0.974 0.945 0.994
0.992 0.895 0.975
0.925 0.966 0.989
0.925 0.966 0.989
0.925 0.966 0.989
0.971 0.950 0.993
0.992 0.895 0.975
0.812 0.994 0.994
0.812 0.994 0.994
0.812 0.994 0.994
0.812 0.994 0.994
0.969 0.986 0.955
