LUT/LogC4/709/looks/Alexa_LogC4_709_D65_5219_B.cube
LUT_3D_SIZE 33
0 0.00306706 0.00505074
0 0.00344854 0.00543221
0 0.00505074 0.00703441
0.000747692 0.00875868 0.0117342
0.0408484 0.00480659 0
0.103517 0 0
0.18854 0 0
0.267964 0 0
0.338918 0 0
0.408225 0 0
0.473487 0 0
0.531243 0.00483711 0
0.579751 0.028336 0
0.616312 0.0528878 0.0297704
0.642756 0.074342 0.0582284
0.66212 0.0957046 0.0845808
0.695445 0.135027 0.117906
0.756298 0.207874 0.175738
0.805341 0.270909 0.224781
0.831189 0.319768 0.261616
0.842252 0.366842 0.295644
0.84332 0.420935 0.331685
0.83975 0.481392 0.372061
0.834165 0.546822 0.417426
0.836576 0.611246 0.458778
0.854063 0.670726 0.480247
0.881559 0.722179 0.478737
0.891676 0.762325 0.514824
0.888289 0.789975 0.5664
0.878813 0.806546 0.61091
0.876448 0.812207 0.634516
0.875364 0.812161 0.653452
0.873167 0.809979 0.675242
0 0.00332647 0.00529488
0 0.00369268 0.00567636
0 0.00538643 0.00737011
0.000915541 0.00892653 0.011902
0.0401312 0.00509651 0
0.103502 0 0
0.187884 0 0
0.26804 0 0
0.339132 0 0
0.408591 0 0
0.473899 0 0
0.53164 0.00523384 0
0.57995 0.0285344 0
0.616403 0.0529793 0.0298619
0.642863 0.0744488 0.0583352
0.662486 0.0960708 0.084947
0.696162 0.135744 0.118624
0.756924 0.208499 0.176379
0.805631 0.271214 0.225086
0.831327 0.319905 0.261769
0.842344 0.366934 0.295735
0.843397 0.420996 0.331746
0.839811 0.481437 0.372122
0.834211 0.546868 0.417456
0.836591 0.611276 0.458808
0.854078 0.670741 0.480262
0.881575 0.722194 0.478737
0.891691 0.762325 0.514824
0.888289 0.789975 0.5664
0.878813 0.806546 0.61091
0.876448 0.812207 0.634516
0.875364 0.812161 0.653452
0.873167 0.809979 0.675242
0 0.00611887 0.00808728
0 0.00598154 0.00796521
0 0.00697337 0.00895705
0.00227359 0.0102846 0.0132601
0.0404059 0.00637827 0
0.103334 0 0
0.188098 0 0
0.26807 0 0
0.339315 0 0
0.408927 0 0
0.474296 0 0
0.532158 0.00575265 0
0.580026 0.0286107 0
0.61651 0.0530861 0.0299687
0.643153 0.0747387 0.0586099
0.663127 0.0967269 0.0856031
0.697292 0.136873 0.119753
0.758022 0.209598 0.177478
0.806165 0.271748 0.22562
0.831586 0.320165 0.262013
0.842512 0.367102 0.295903
0.843519 0.421118 0.331884
0.839902 0.481529 0.372213
0.834272 0.546929 0.417533
0.836637 0.611322 0.458854
0.854109 0.670771 0.480293
0.88159 0.72221 0.478752
0.891691 0.762341 0.514839
0.888289 0.78999 0.566415
0.878813 0.806546 0.61091
0.876448 0.812207 0.634516
0.875364 0.812161 0.653452
0.873167 0.809979 0.675242
0.00280766 0.0168307 0.020798
0.00277714 0.0167849 0.0207675
0.00433356 0.0183413 0.0213169
0.0103761 0.0213931 0.0243687
0.0429847 0.016968 0.0100099
0.101228 0.0041352 0
0.184497 0 0
0.265827 0 0
0.338949 0 0
0.409171 0 0
0.474861 0 0
0.532418 0.00601205 0
0.580316 0.0288853 0
0.616999 0.0535744 0.030457
0.64387 0.0754559 0.0593423
0.663981 0.0975814 0.0864576
0.698634 0.138216 0.121096
0.758968 0.211551 0.177432
0.806897 0.27248 0.226352
0.831937 0.320516 0.262364
0.842741 0.36733 0.296132
0.843687 0.421302 0.332052
0.840024 0.481666 0.372335
0.834363 0.547021 0.417624
0.836698 0.611383 0.458915
0.854139 0.670817 0.480323
0.881605 0.72224 0.478782
0.891707 0.762341 0.514855
0.888304 0.78999 0.566415
0.878813 0.806561 0.61091
0.876448 0.812207 0.634516
0.875364 0.812161 0.653452
0.873167 0.809979 0.675242
0.00396735 0.0409857 0.035935
0.00427253 0.0412909 0.0362402
0.00660716 0.0436255 0.0385901
0.0141451 0.0481575 0.0441138
0.0393835 0.0513771 0.0433661
0.0899062 0.0458534 0.0219425
0.152743 0.0346227 0
0.238346 0.0131228 0
0.325246 0 0
0.398917 0 0
0.473121 0 0
0.533883 0.00747692 0
0.581125 0.0296941 0
0.618051 0.0546273 0.0315251
0.64506 0.0766461 0.0605173
0.665095 0.0986801 0.0875563
0.700282 0.139864 0.122744
0.7608 0.213367 0.179248
0.807919 0.273487 0.227359
0.832456 0.321019 0.262882
0.843061 0.367651 0.296452
0.843931 0.42153 0.332296
0.840208 0.481834 0.372519
0.834485 0.547143 0.417746
0.836789 0.61146 0.458991
0.8542 0.670863 0.480385
0.881636 0.722271 0.478813
0.891722 0.762356 0.51487
0.888304 0.78999 0.566415
0.878813 0.806561 0.61091
0.876448 0.812207 0.634516
0.875364 0.812161 0.653452
0.873167 0.809979 0.675242
0.00914015 0.0681621 0.0531014
0.00950637 0.0685283 0.0534524
0.0116121 0.070634 0.0555734
0.0167544 0.0777752 0.0607156
0.0284123 0.0924239 0.0693675
0.0935531 0.0975204 0.062562
0.169924 0.0978103 0.0370031
0.25536 0.0851606 0.00151064
0.327214 0.0649424 0
0.393683 0.0403449 0
0.464927 0.0295415 0
0.532418 0.0249943 0
0.58262 0.0361944 0
0.620142 0.0567178 0.0336004
0.646448 0.0780194 0.0619059
0.666239 0.0998245 0.0887007
0.702205 0.141802 0.124666
0.763134 0.215717 0.181582
0.809323 0.274907 0.228779
0.833173 0.321752 0.2636
0.843519 0.368109 0.296925
0.844266 0.421881 0.332631
0.840452 0.482094 0.372763
0.834669 0.547326 0.417914
0.836912 0.611582 0.459113
0.854276 0.670939 0.480461
0.881682 0.722301 0.478843
0.891737 0.762387 0.514885
0.888304 0.790005 0.56643
0.878813 0.806561 0.61091
0.876448 0.812207 0.634531
0.875364 0.812161 0.653452
0.873167 0.809979 0.675242
0.0191806 0.104204 0.0771191
0.0196536 0.104692 0.0775921
0.0208133 0.105837 0.0787366
0.0244755 0.113512 0.0834211
0.0259861 0.133013 0.0869001
0.059266 0.163272 0.103197
0.164401 0.169314 0.0874037
0.268467 0.165255 0.0445716
0.369528 0.147219 0.00872816
0.433402 0.132036 0
0.4813 0.104891 0
0.535714 0.0762646 0
0.58967 0.06421 0
0.624002 0.0695659 0.0184634
0.648219 0.0808118 0.0616922
0.667048 0.100633 0.0895094
0.70425 0.143832 0.126711
0.766033 0.218616 0.184497
0.8112 0.276768 0.23064
0.834211 0.322774 0.264637
0.84419 0.36878 0.297581
0.844755 0.422354 0.33312
0.840803 0.482444 0.373114
0.834913 0.54757 0.418173
0.837064 0.611749 0.459281
0.854368 0.671046 0.480552
0.881743 0.722362 0.478904
0.891768 0.762417 0.514916
0.888319 0.790021 0.566445
0.878828 0.806561 0.61091
0.876448 0.812207 0.634531
0.875364 0.812161 0.653452
0.873167 0.809979 0.675242
0.0309148 0.152956 0.104829
0.0314946 0.153521 0.105394
0.0331121 0.154147 0.107027
0.0348211 0.158862 0.108736
0.0328832 0.175906 0.106783
0.0467994 0.2168 0.115663
0.103975 0.256947 0.127871
0.248783 0.251606 0.0838178
0.377813 0.238483 0.0239567
0.473671 0.221256 0
0.537453 0.203998 0
0.57528 0.178775 0
0.600137 0.132616 0
0.63447 0.108965 0
0.649821 0.100359 0.0252842
0.668055 0.105638 0.081529
0.70721 0.147799 0.129671
0.770062 0.222629 0.18851
0.813642 0.279225 0.233097
0.835584 0.324163 0.266011
0.845121 0.369711 0.298512
0.845441 0.423056 0.333806
0.841306 0.482933 0.373617
0.835264 0.547921 0.418509
0.837308 0.611978 0.45951
0.85452 0.671183 0.480705
0.881819 0.722454 0.478996
0.891814 0.762448 0.514961
0.888334 0.790036 0.566461
0.878828 0.806561 0.610925
0.876448 0.812207 0.634531
0.87538 0.812161 0.653452
0.873167 0.809979 0.675242
0.0426947 0.210727 0.131563
0.0439918 0.211017 0.13286
0.0452888 0.212314 0.134157
0.0459602 0.215991 0.134829
0.0420081 0.229038 0.130877
0.0469215 0.265919 0.122759
0.0706645 0.322637 0.132494
0.160403 0.359258 0.0952773
0.346807 0.33547 0.0338598
0.480018 0.314565 0.00120546
0.569436 0.297902 0
0.629999 0.28043 0
0.65771 0.254108 0
0.652216 0.191623 0
0.65951 0.152956 0
0.668544 0.138033 0.0219883
0.715175 0.166735 0.118639
0.777691 0.229267 0.197147
0.816983 0.282551 0.236423
0.8374 0.325978 0.267826
0.846418 0.371008 0.299825
0.846418 0.424033 0.334783
0.842008 0.483635 0.374319
0.835752 0.548409 0.418997
0.837629 0.612299 0.459831
0.854719 0.671382 0.480903
0.881941 0.72256 0.479103
0.891859 0.762509 0.515007
0.888365 0.790051 0.566476
0.878828 0.806577 0.610925
0.876448 0.812207 0.634531
0.87538 0.812161 0.653452
0.873167 0.809979 0.675242
0.0462501 0.278279 0.15407
0.0469978 0.279026 0.154833
0.0483406 0.280385 0.156176
0.0506294 0.282658 0.159457
0.0473487 0.29337 0.155169
0.0438849 0.322881 0.130694
0.0602426 0.375189 0.11603
0.0885939 0.440482 0.110353
0.257603 0.442313 0.0475166
0.44303 0.412573 0.0111238
0.57203 0.391455 0
0.656214 0.37557 0
0.706432 0.359762 0
0.723415 0.330709 0
0.70164 0.261952 0
0.688594 0.210956 0
0.725322 0.219791 0.0537575
0.781872 0.252415 0.173312
0.82121 0.28777 0.239643
0.839796 0.328374 0.270222
0.848203 0.372793 0.301595
0.847791 0.425406 0.336156
0.843 0.484642 0.375311
0.836439 0.549111 0.419699
0.838087 0.612772 0.460304
0.855009 0.671672 0.481193
0.882094 0.722728 0.479271
0.891951 0.762585 0.515084
0.888395 0.790082 0.566506
0.878843 0.806592 0.610941
0.876448 0.812207 0.634531
0.87538 0.812161 0.653452
0.873167 0.809979 0.675242
0.0428168 0.356832 0.168597
0.043473 0.357488 0.169238
0.0452583 0.358282 0.171023
0.0472114 0.36022 0.172976
0.0456092 0.36762 0.171374
0.0408789 0.39086 0.141634
0.0475471 0.438453 0.0852827
0.0711223 0.495979 0.0728466
0.10248 0.558312 0.0991836
0.363149 0.514717 0.0201114
0.53817 0.48661 0
0.656916 0.468238 0
0.730312 0.454582 0
0.76846 0.43769 0
0.775647 0.405875 0
0.754879 0.34612 0
0.749142 0.307424 0
0.778805 0.303243 0.0932326
0.815778 0.310307 0.205203
0.843549 0.332128 0.272984
0.850782 0.375372 0.303181
0.849668 0.427283 0.338033
0.844404 0.48603 0.376715
0.83743 0.550088 0.420691
0.838743 0.613428 0.46096
0.855421 0.672084 0.48159
0.882322 0.722957 0.4795
0.892058 0.762692 0.515206
0.888441 0.790127 0.566552
0.878859 0.806607 0.610956
0.876448 0.812207 0.634531
0.87538 0.812161 0.653452
0.873167 0.809979 0.675242
0.0344549 0.442451 0.176165
0.0350652 0.443076 0.176776
0.0369116 0.443915 0.178637
0.0388495 0.445853 0.18056
0.038468 0.451469 0.17818
0.0355383 0.464515 0.157244
0.0342718 0.502159 0.0779583
0.046891 0.55671 0.0465553
0.0789502 0.60676 0.0785992
0.177584 0.639323 0.083299
0.467048 0.580499 0
0.626825 0.557153 0
0.73315 0.541375 0
0.793912 0.529091 0
0.82153 0.512688 0
0.827176 0.486336 0
0.815564 0.442725 0
0.783185 0.382422 0
0.796246 0.360678 0.122637
0.828473 0.359014 0.232883
0.854551 0.379141 0.30695
0.852369 0.429969 0.339727
0.846296 0.487938 0.378607
0.838804 0.551461 0.422065
0.839673 0.614359 0.461891
0.855985 0.672648 0.48217
0.882643 0.723278 0.47982
0.89221 0.76286 0.515358
0.888502 0.790204 0.566629
0.878996 0.806729 0.610086
0.876448 0.812222 0.634531
0.87538 0.812161 0.653452
0.873167 0.809979 0.675242
0.0294194 0.525414 0.189075
0.0299535 0.525933 0.189593
0.0310674 0.527047 0.190707
0.0327153 0.52871 0.19237
0.0340429 0.532021 0.192691
0.0342565 0.539239 0.183902
0.0276646 0.564569 0.111315
0.0291295 0.610925 0.028748
0.0502174 0.656992 0.0498207
0.0929732 0.703761 0.0925765
0.339406 0.673961 0.0382391
0.566827 0.640177 0
0.707851 0.623087 0
0.79855 0.609705 0
0.847181 0.598291 0
0.868116 0.585214 0
0.874159 0.566262 0
0.851499 0.524605 0
0.784604 0.43389 0.00495918
0.798169 0.411643 0.16054
0.829755 0.411307 0.266117
0.855665 0.434272 0.343023
0.84892 0.490547 0.381231
0.840681 0.553338 0.423941
0.840955 0.615641 0.463172
0.856794 0.673457 0.482979
0.883101 0.72372 0.480262
0.892424 0.763073 0.515572
0.888594 0.79028 0.566705
0.879026 0.80676 0.610117
0.876463 0.812222 0.634546
0.87538 0.812161 0.653452
0.873167 0.809979 0.675242
0.0339055 0.599893 0.216495
0.0343328 0.60032 0.216938
0.0351415 0.601129 0.217746
0.036347 0.602335 0.218936
0.0387579 0.603754 0.220371
0.0397803 0.607767 0.218387
0.03299 0.624918 0.176577
0.0273747 0.656199 0.0709544
0.0401312 0.703899 0.039704
0.07187 0.741619 0.0714275
0.125704 0.785443 0.113268
0.464851 0.717281 0.0227512
0.652155 0.698421 0
0.777417 0.684581 0
0.852644 0.673747 0
0.889876 0.664942 0
0.905959 0.656016 0
0.899565 0.63563 0
0.867948 0.592081 0
0.77705 0.481407 0.0793469
0.792599 0.465095 0.204913
0.826062 0.468635 0.304387
0.852979 0.494606 0.384283
0.843259 0.555917 0.426505
0.84271 0.61738 0.464912
0.857908 0.674571 0.484092
0.883848 0.724483 0.480018
0.893553 0.763195 0.514702
0.888716 0.790417 0.566842
0.879057 0.806806 0.610147
0.876463 0.812238 0.634546
0.87538 0.812161 0.653452
0.873167 0.809979 0.675242
0.0473945 0.663401 0.255955
0.047715 0.663722 0.256275
0.0483101 0.664317 0.25687
0.0491493 0.665141 0.25771
0.0510719 0.666072 0.25864
0.052369 0.66836 0.25893
0.047715 0.678691 0.239277
0.0397345 0.69865 0.184283
0.0345159 0.727337 0.0980545
0.0669261 0.772686 0.0954604
0.107683 0.810437 0.120226
0.299657 0.800244 0.0863661
0.564752 0.762097 0.0217136
0.728328 0.75053 0
0.835187 0.740291 0
0.895735 0.732784 0
0.922499 0.729534 0
0.928664 0.7187 0
0.911467 0.694545 0
0.865064 0.64036 0.12134
0.771115 0.529534 0.147387
0.788434 0.519966 0.256703
0.820096 0.529702 0.350362
0.846067 0.560723 0.428321
0.845823 0.619501 0.467033
0.859419 0.676081 0.485603
0.884718 0.725353 0.480888
0.89398 0.763638 0.515129
0.888899 0.7906 0.567025
0.879118 0.806851 0.610208
0.876478 0.812238 0.634562
0.87538 0.812161 0.653452
0.873167 0.809979 0.675242
0.0664378 0.717449 0.302968
0.0666667 0.717693 0.303212
0.0671092 0.71812 0.303639
0.0677043 0.718715 0.304234
0.068574 0.719585 0.305104
0.0698253 0.720851 0.306371
0.0686809 0.725689 0.300221
0.0618601 0.737835 0.276387
0.055375 0.756313 0.232898
0.0526894 0.771603 0.225193
0.0923323 0.81326 0.268833
0.13019 0.852094 0.29369
0.433814 0.797421 0.186618
0.637751 0.790143 0.11574
0.787991 0.790188 0.0431067
0.881727 0.786816 0.0009308
0.925277 0.787335 0
0.943542 0.784604 0.00480659
0.930419 0.760571 0.0776837
0.901534 0.725811 0.175769
0.871397 0.688777 0.235615
0.772885 0.576364 0.218097
0.78941 0.575982 0.307637
0.819348 0.591974 0.396567
0.848875 0.623545 0.470085
0.861616 0.678279 0.486793
0.885893 0.726513 0.482063
0.894575 0.764218 0.515724
0.889158 0.790845 0.567269
0.879194 0.806928 0.610285
0.876493 0.812253 0.634577
0.875486 0.812284 0.652567
0.873167 0.809979 0.675242
0.0895094 0.764553 0.358038
0.089662 0.764706 0.35819
0.0899519 0.764996 0.358465
0.0903487 0.765393 0.358862
0.090898 0.765942 0.359411
0.0916762 0.76672 0.360189
0.0928054 0.767849 0.361318
0.0887465 0.774777 0.351263
0.0831311 0.785153 0.335637
0.0776837 0.795682 0.329168
0.0829175 0.806943 0.3514
0.125795 0.852842 0.408286
0.242771 0.855711 0.395346
0.522667 0.812345 0.31751
0.692699 0.812222 0.287694
0.81828 0.809674 0.249378
0.893233 0.808545 0.2224
0.924437 0.811734 0.223621
0.93611 0.808408 0.228321
0.926177 0.78851 0.258381
0.904158 0.764569 0.300343
0.882628 0.738094 0.333806
0.843168 0.687694 0.346349
0.801053 0.630625 0.354223
0.831556 0.651194 0.427741
0.864515 0.68217 0.486686
0.887617 0.728252 0.482795
0.895354 0.764996 0.516503
0.889601 0.791287 0.56672
0.879301 0.80705 0.610391
0.876509 0.812284 0.634592
0.875502 0.812284 0.652567
0.873182 0.809995 0.675242
0.118593 0.80766 0.426093
0.118715 0.807797 0.426215
0.118959 0.808026 0.426459
0.119265 0.808347 0.42678
0.119692 0.808759 0.427192
0.120241 0.809308 0.427741
0.121035 0.810117 0.428534
0.121904 0.811994 0.429404
0.117937 0.819013 0.423423
0.114153 0.82623 0.418647
0.110384 0.82948 0.437858
0.124529 0.847639 0.476005
0.176349 0.911467 0.543816
0.426123 0.87303 0.483833
0.620432 0.861158 0.440314
0.760632 0.853223 0.406622
0.858061 0.844556 0.372152
0.91075 0.842191 0.355886
0.935225 0.844633 0.355383
0.941405 0.838819 0.354574
0.930251 0.82269 0.373419
0.912856 0.804349 0.402014
0.897887 0.786419 0.43003
0.887068 0.76463 0.437217
0.82359 0.684153 0.375753
0.861631 0.705226 0.421805
0.889799 0.731411 0.481956
0.896529 0.766171 0.516686
0.890028 0.79173 0.567147
0.879438 0.807187 0.610529
0.876539 0.812314 0.634623
0.875502 0.812284 0.652583
0.873182 0.809995 0.675258
0.178088 0.875212 0.527581
0.178286 0.87541 0.527779
0.178653 0.875776 0.528145
0.179141 0.876265 0.528634
0.179782 0.876905 0.529274
0.180636 0.87776 0.530129
0.181781 0.878889 0.531258
0.183551 0.880674 0.533043
0.184298 0.884413 0.534783
0.183307 0.890425 0.53579
0.181399 0.895537 0.552865
0.183536 0.901701 0.583001
0.215534 0.942718 0.639994
0.2795 0.997681 0.689967
0.564248 0.927138 0.594995
0.708827 0.909575 0.545724
0.821149 0.894789 0.510155
0.895018 0.882582 0.477104
0.931777 0.877287 0.459876
0.948516 0.877012 0.456641
0.947723 0.870222 0.453864
0.93463 0.85716 0.472755
0.920302 0.843885 0.50042
0.913115 0.832731 0.524239
0.917891 0.82649 0.520012
0.871473 0.756039 0.426612
0.879988 0.749584 0.449149
0.897078 0.768719 0.516213
0.89073 0.792416 0.566842
0.879622 0.807355 0.610712
0.876692 0.812467 0.633783
0.875502 0.812299 0.652583
0.873289 0.810101 0.674372
0.250156 0.954314 0.641627
0.250294 0.954452 0.641779
0.250553 0.954711 0.642023
0.250904 0.955077 0.64239
0.251392 0.95555 0.642863
0.252049 0.956207 0.643519
0.252949 0.957107 0.644419
0.254246 0.958404 0.645716
0.256077 0.96025 0.647562
0.257145 0.963317 0.650629
0.255863 0.967041 0.66334
0.255085 0.970291 0.690547
0.255207 0.977432 0.719661
0.293278 1 0.782727
0.449729 1 0.763302
0.660624 0.967544 0.681422
0.777081 0.946868 0.630991
0.868177 0.927871 0.594186
0.924071 0.917693 0.568139
0.95111 0.910689 0.549203
0.957565 0.907134 0.542657
0.950759 0.899336 0.542855
0.940185 0.888792 0.559289
0.931563 0.879225 0.587655
0.92726 0.873945 0.618341
0.937469 0.875151 0.621561
0.962554 0.876188 0.581674
0.881971 0.782605 0.507103
0.89102 0.793698 0.567132
0.880552 0.807279 0.610636
0.876738 0.812497 0.633814
0.875517 0.812299 0.652598
0.873304 0.810117 0.674372
0.303471 1 0.738933
0.303548 1 0.73901
0.303685 1 0.739147
0.303853 1 0.73933
0.304112 1 0.739574
0.304463 1 0.739925
0.304952 1 0.740414
0.305638 1 0.7411
0.306615 1 0.742077
0.307958 1 0.743435
0.307408 1 0.752865
0.304723 1 0.77319
0.301762 1 0.799207
0.297108 1 0.822553
0.341604 1 0.888029
0.573495 1 0.808164
0.723766 0.991684 0.740597
0.82295 0.96875 0.691875
0.895491 0.951217 0.661494
0.939498 0.943175 0.640543
0.960327 0.936965 0.623392
0.960937 0.930587 0.62002
0.955154 0.92282 0.620233
0.945327 0.916014 0.636408
0.939193 0.910918 0.663264
0.93901 0.908766 0.69807
0.948486 0.912261 0.719554
0.977005 0.919707 0.686091
0.992004 0.919692 0.6851
0.976745 0.905486 0.705837
0.876783 0.812543 0.63386
0.875639 0.812421 0.651713
0.873304 0.810117 0.674388
0.328786 1 0.822248
0.328817 1 0.822278
0.328862 1 0.822324
0.328923 1 0.822385
0.329015 1 0.822461
0.329122 1 0.822583
0.32929 1 0.822751
0.329534 1 0.82298
0.32987 1 0.823316
0.330343 1 0.823789
0.330938 1 0.824384
0.327718 1 0.83418
0.322911 1 0.852354
0.315663 1 0.873106
0.304219 1 0.888624
0.402548 1 0.932006
0.634394 1 0.834104
0.757595 0.996536 0.772442
0.843061 0.976898 0.729992
0.901778 0.964553 0.710781
0.940795 0.958526 0.696834
0.962219 0.952926 0.683268
0.962875 0.947585 0.681941
0.954803 0.942519 0.691844
0.949218 0.937972 0.706264
0.947845 0.934615 0.730892
0.94992 0.935729 0.75697
0.957504 0.939315 0.783536
0.978164 0.944961 0.767224
0.997238 0.94699 0.747311
1 0.941695 0.761013
1 0.93846 0.778759
0.998062 0.934874 0.798138
0.329641 1 0.885084
0.329656 1 0.885084
0.329671 1 0.8851
0.329686 1 0.885115
0.329702 1 0.88513
0.329732 1 0.885161
0.329778 1 0.885206
0.329839 1 0.885267
0.329915 1 0.885359
0.330053 1 0.885496
0.330236 1 0.885664
0.330434 1 0.885878
0.326741 1 0.896162
0.319097 1 0.91252
0.307485 1 0.926894
0.292851 1 0.935225
0.533516 1 0.916106
0.678859 1 0.845609
0.785077 0.997009 0.789944
0.855711 0.982559 0.756634
0.90396 0.97377 0.745937
0.940627 0.967391 0.738643
0.962875 0.962631 0.731914
0.964019 0.959777 0.735058
0.959792 0.955566 0.747829
0.956954 0.952743 0.76199
0.956588 0.952392 0.780621
0.959396 0.954238 0.801434
0.964294 0.957137 0.819318
0.97789 0.957717 0.816922
0.996826 0.958618 0.780896
1 0.95108 0.786374
1 0.947509 0.809766
0.322118 1 0.942519
0.322118 1 0.942535
0.322118 1 0.942535
0.322133 1 0.94255
0.322148 1 0.942565
0.322164 1 0.94258
0.322194 1 0.942611
0.32224 1 0.942657
0.322286 1 0.942702
0.322377 1 0.942794
0.322499 1 0.942916
0.322683 1 0.943084
0.322911 1 0.943328
0.317067 1 0.950484
0.306722 1 0.963119
0.292134 1 0.97052
0.368322 1 0.932799
0.618051 1 0.908721
0.727886 1 0.847669
0.813001 0.998917 0.802884
0.86952 0.987381 0.782452
0.913771 0.9776 0.777752
0.948684 0.970489 0.774701
0.966323 0.968124 0.774365
0.968688 0.966491 0.779721
0.965866 0.964691 0.789899
0.965301 0.963119 0.803326
0.965499 0.96434 0.817533
0.968093 0.965942 0.828107
0.97055 0.967407 0.835584
0.975052 0.966918 0.839078
0.993545 0.965362 0.8056
1 0.954238 0.810498
0.308309 1 0.992706
0.308324 1 0.992706
0.308324 1 0.992706
0.308339 1 0.992721
0.308354 1 0.992737
0.30837 1 0.992752
0.3084 1 0.992782
0.308431 1 0.992813
0.308476 1 0.992859
0.308553 1 0.992935
0.308659 1 0.993042
0.308797 1 0.993179
0.30901 1 0.993393
0.3093 1 0.993683
0.301747 1 0.999115
0.288396 1 1
0.322454 1 0.984863
0.570016 1 0.951629
0.689189 1 0.896925
0.780957 1 0.843793
0.846098 0.999008 0.814008
0.896834 0.985702 0.805783
0.934951 0.976806 0.803952
0.962737 0.971572 0.804761
0.971603 0.972427 0.808637
0.972564 0.972396 0.813596
0.971832 0.971679 0.822858
0.972763 0.971603 0.831785
0.973739 0.97258 0.837751
0.974426 0.973281 0.843442
0.975875 0.973739 0.844892
0.976867 0.973724 0.846891
0.989105 0.96994 0.836133
0.286992 1 1
0.286992 1 1
0.286992 1 1
0.287007 1 1
0.287007 1 1
0.287022 1 1
0.287037 1 1
0.287068 1 1
0.287098 1 1
0.287144 1 1
0.287221 1 1
0.287327 1 1
0.288273 1 1
0.288472 1 1
0.288746 1 1
0.278935 1 1
0.321767 1 1
0.495537 1 0.925124
0.66772 1 0.932433
0.75639 1 0.879179
0.83064 1 0.842512
0.887724 0.993622 0.830671
0.924834 0.98471 0.82681
0.954513 0.978363 0.824521
0.972107 0.975952 0.826139
0.976165 0.977005 0.830182
0.977066 0.976913 0.836088
0.97734 0.977203 0.841367
0.977859 0.977722 0.843885
0.978698 0.977554 0.847715
0.978943 0.977813 0.849973
0.979171 0.978042 0.851194
0.979828 0.977691 0.852857
0.28661 1 1
0.28661 1 1
0.28661 1 1
0.286625 1 1
0.286625 1 1
0.286641 1 1
0.286641 1 1
0.286656 1 1
0.286687 1 1
0.286717 1 1
0.286748 1 1
0.286809 1 1
0.2869 1 1
0.287007 1 1
0.287175 1 1
0.287404 1 1
0.374212 1 1
0.505913 1 0.94049
0.630335 1 0.921019
0.747967 1 0.904753
0.820935 1 0.867796
0.884871 1 0.852796
0.920867 0.99176 0.845838
0.947204 0.986084 0.841199
0.968612 0.98146 0.837629
0.978164 0.980011 0.839185
0.980514 0.980362 0.842542
0.98114 0.981003 0.846159
0.981414 0.981277 0.848447
0.981353 0.981216 0.85037
0.98143 0.981292 0.851453
0.98146 0.981323 0.852476
0.981903 0.980774 0.854932
0.473396 1 0.971939
0.473396 1 0.971939
0.473396 1 0.971939
0.473396 1 0.971939
0.473411 1 0.971939
0.473411 1 0.971954
0.473411 1 0.971954
0.473426 1 0.971969
0.473426 1 0.971969
