LUT/LogC4/709/looks/Alexa_LogC4_709_D65_5219_A.cube
LUT_3D_SIZE 9
0.042 0.042 0.038
0.120 0.052 0.036
0.434 0.066 0.007
0.610 0.075 0.020
0.683 0.127 0.075
0.858 0.377 0.312
0.977 0.701 0.584
0.993 0.858 0.675
0.990 0.887 0.811
0.023 0.056 0.042
0.070 0.066 0.045
0.400 0.077 0.007
0.610 0.075 0.020
0.683 0.127 0.075
0.858 0.377 0.312
0.977 0.701 0.584
0.993 0.858 0.675
0.990 0.887 0.811
0.000 0.190 0.066
0.000 0.209 0.060
0.329 0.297 0.000
0.670 0.288 0.000
0.697 0.152 0.068
0.858 0.377 0.312
0.977 0.701 0.584
0.993 0.858 0.675
0.990 0.887 0.811
0.000 0.474 0.136
0.000 0.475 0.136
0.000 0.544 0.000
0.713 0.605 0.000
0.931 0.581 0.000
0.895 0.458 0.329
0.977 0.701 0.583
0.993 0.858 0.675
0.990 0.887 0.811
0.000 0.628 0.255
0.000 0.628 0.255
0.000 0.652 0.237
0.198 0.694 0.265
0.914 0.789 0.229
0.985 0.797 0.365
0.985 0.746 0.528
0.994 0.857 0.673
0.990 0.887 0.810
0.000 0.663 0.418
0.000 0.663 0.417
0.000 0.663 0.417
0.000 0.676 0.479
0.568 0.806 0.585
0.969 0.913 0.626
0.992 0.929 0.719
0.995 0.886 0.691
0.990 0.887 0.809
0.000 0.718 0.680
0.000 0.718 0.680
0.000 0.718 0.680
0.000 0.718 0.680
0.145 0.781 0.742
0.849 0.957 0.828
0.982 0.983 0.856
0.989 0.984 0.880
0.988 0.951 0.867
0.498 0.905 0.882
0.498 0.905 0.882
0.498 0.905 0.882
0.498 0.905 0.882
0.498 0.905 0.882
0.787 0.966 0.896
0.953 0.990 0.900
0.983 0.990 0.902
0.983 0.990 0.908
0.573 0.927 0.894
0.573 0.927 0.894
0.573 0.927 0.894
0.573 0.927 0.894
0.573 0.927 0.894
0.573 0.927 0.894
0.935 0.989 0.906
0.981 0.991 0.905
0.982 0.991 0.905
0.044 0.046 0.061
0.096 0.050 0.058
0.459 0.065 0.028
0.614 0.066 0.039
0.683 0.119 0.102
0.858 0.377 0.324
0.976 0.700 0.587
0.994 0.858 0.677
0.990 0.887 0.812
0.021 0.057 0.062
0.062 0.063 0.063
0.443 0.076 0.026
0.614 0.066 0.039
0.683 0.119 0.102
0.858 0.377 0.324
0.976 0.700 0.587
0.994 0.858 0.677
0.990 0.887 0.812
0.000 0.198 0.101
0.000 0.212 0.098
0.333 0.294 0.005
0.668 0.284 0.000
0.694 0.138 0.099
0.858 0.377 0.324
0.976 0.700 0.587
0.993 0.858 0.676
0.990 0.887 0.812
0.000 0.475 0.163
0.000 0.475 0.164
0.000 0.537 0.003
0.700 0.606 0.000
0.926 0.588 0.000
0.892 0.452 0.339
0.976 0.700 0.586
0.993 0.858 0.676
0.990 0.887 0.812
0.000 0.628 0.257
0.000 0.628 0.257
0.000 0.651 0.240
0.190 0.693 0.270
0.912 0.792 0.258
0.983 0.800 0.387
0.985 0.745 0.532
0.993 0.858 0.676
0.990 0.887 0.811
0.000 0.663 0.417
0.000 0.663 0.417
0.000 0.663 0.417
0.000 0.676 0.479
0.568 0.806 0.585
0.969 0.913 0.629
0.992 0.929 0.722
0.995 0.885 0.692
0.990 0.887 0.810
0.000 0.718 0.680
0.000 0.718 0.680
0.000 0.718 0.680
0.000 0.718 0.680
0.145 0.781 0.742
0.849 0.957 0.828
0.982 0.983 0.857
0.989 0.984 0.881
0.988 0.951 0.867
0.498 0.905 0.882
0.498 0.905 0.882
0.498 0.905 0.882
0.498 0.905 0.882
0.498 0.905 0.882
0.787 0.966 0.896
0.953 0.990 0.900
0.983 0.990 0.902
0.983 0.990 0.909
0.573 0.927 0.894
0.573 0.927 0.894
0.573 0.927 0.894
0.573 0.927 0.894
0.573 0.927 0.894
0.573 0.927 0.894
0.935 0.989 0.906
0.981 0.991 0.905
0.982 0.991 0.905
0.054 0.049 0.297
0.072 0.058 0.279
0.404 0.044 0.228
0.611 0.038 0.231
0.697 0.118 0.217
0.860 0.382 0.368
0.976 0.699 0.601
0.993 0.858 0.686
0.990 0.887 0.817
0.048 0.053 0.300
0.065 0.060 0.284
0.404 0.045 0.228
0.611 0.038 0.231
0.697 0.118 0.216
0.860 0.382 0.368
0.976 0.699 0.601
0.993 0.858 0.686
0.990 0.887 0.817
0.000 0.240 0.316
0.000 0.245 0.317
0.311 0.308 0.310
0.673 0.249 0.255
0.700 0.126 0.217
0.860 0.382 0.367
0.976 0.699 0.600
0.993 0.858 0.686
0.990 0.887 0.817
0.000 0.483 0.341
0.000 0.483 0.341
0.000 0.530 0.311
0.661 0.617 0.312
0.898 0.609 0.275
0.885 0.439 0.379
0.976 0.699 0.600
0.993 0.858 0.686
0.990 0.887 0.817
0.000 0.612 0.336
0.000 0.612 0.336
0.000 0.631 0.331
0.052 0.687 0.362
0.890 0.806 0.405
0.981 0.808 0.453
0.983 0.741 0.550
0.993 0.858 0.685
0.990 0.887 0.816
0.000 0.660 0.428
0.000 0.660 0.428
0.000 0.660 0.428
0.000 0.673 0.488
0.552 0.806 0.599
0.966 0.916 0.653
0.992 0.930 0.733
0.995 0.886 0.696
0.990 0.887 0.814
0.000 0.718 0.680
0.000 0.718 0.680
0.000 0.718 0.680
0.000 0.718 0.680
0.145 0.781 0.742
0.849 0.957 0.828
0.982 0.983 0.858
0.989 0.984 0.881
0.988 0.951 0.867
0.498 0.905 0.882
0.498 0.905 0.882
0.498 0.905 0.882
0.498 0.905 0.882
0.498 0.905 0.882
0.787 0.966 0.896
0.953 0.990 0.900
0.983 0.990 0.902
0.983 0.990 0.909
0.573 0.927 0.894
0.573 0.927 0.894
0.573 0.927 0.894
0.573 0.927 0.894
0.573 0.927 0.894
0.573 0.927 0.894
0.934 0.989 0.906
0.981 0.991 0.905
0.982 0.991 0.905
0.096 0.142 0.587
0.096 0.142 0.587
0.386 0.175 0.531
0.598 0.062 0.473
0.744 0.209 0.464
0.881 0.427 0.510
0.977 0.692 0.654
0.992 0.862 0.721
0.990 0.886 0.832
0.096 0.140 0.585
0.096 0.142 0.587
0.385 0.175 0.532
0.598 0.062 0.472
0.744 0.209 0.464
0.881 0.427 0.510
0.977 0.692 0.654
0.992 0.862 0.721
0.990 0.886 0.832
0.000 0.279 0.505
0.000 0.278 0.505
0.342 0.337 0.578
0.635 0.201 0.496
0.744 0.209 0.464
0.881 0.427 0.509
0.977 0.692 0.654
0.992 0.862 0.721
0.990 0.886 0.832
0.000 0.474 0.467
0.000 0.474 0.467
0.000 0.527 0.523
0.645 0.646 0.629
0.895 0.578 0.580
0.895 0.459 0.519
0.977 0.692 0.653
0.993 0.862 0.721
0.990 0.886 0.832
0.000 0.585 0.447
0.000 0.585 0.447
0.000 0.597 0.455
0.000 0.696 0.567
0.878 0.836 0.646
0.974 0.826 0.595
0.979 0.727 0.627
0.993 0.862 0.719
0.990 0.886 0.832
0.000 0.650 0.483
0.000 0.650 0.483
0.000 0.650 0.483
0.000 0.668 0.541
0.490 0.809 0.659
0.960 0.923 0.729
0.990 0.932 0.766
0.995 0.887 0.720
0.990 0.887 0.830
0.000 0.722 0.693
0.000 0.722 0.693
0.000 0.722 0.693
0.000 0.722 0.693
0.103 0.782 0.753
0.845 0.957 0.836
0.981 0.983 0.864
0.989 0.984 0.884
0.989 0.949 0.867
0.498 0.905 0.882
0.498 0.905 0.882
0.498 0.905 0.882
0.498 0.905 0.882
0.498 0.905 0.882
0.787 0.966 0.897
0.953 0.990 0.900
0.982 0.991 0.903
0.982 0.990 0.911
0.573 0.927 0.894
0.573 0.927 0.894
0.573 0.927 0.894
0.573 0.927 0.894
0.573 0.927 0.894
0.573 0.927 0.894
0.934 0.989 0.906
0.981 0.991 0.905
0.982 0.991 0.906
0.043 0.452 0.712
0.043 0.452 0.712
0.056 0.454 0.715
0.658 0.426 0.738
0.794 0.382 0.724
0.917 0.525 0.747
0.982 0.729 0.793
0.990 0.866 0.820
0.989 0.888 0.873
0.043 0.452 0.712
0.043 0.452 0.712
0.054 0.454 0.714
0.657 0.426 0.738
0.794 0.382 0.724
0.917 0.525 0.747
0.982 0.729 0.793
0.990 0.866 0.820
0.989 0.888 0.873
0.043 0.452 0.712
0.043 0.452 0.712
0.047 0.453 0.713
0.656 0.426 0.738
0.794 0.382 0.724
0.917 0.525 0.747
0.982 0.729 0.793
0.990 0.866 0.820
0.989 0.888 0.873
0.000 0.518 0.627
0.000 0.518 0.628
0.000 0.518 0.629
0.640 0.640 0.805
0.873 0.546 0.766
0.917 0.525 0.747
0.982 0.729 0.793
0.990 0.866 0.820
0.989 0.888 0.873
0.000 0.578 0.537
0.000 0.578 0.537
0.000 0.578 0.537
0.000 0.704 0.725
0.861 0.857 0.835
0.966 0.810 0.803
0.983 0.756 0.796
0.990 0.866 0.820
0.989 0.888 0.873
0.000 0.645 0.572
0.000 0.645 0.572
0.000 0.645 0.572
0.000 0.669 0.623
0.431 0.833 0.795
0.950 0.938 0.851
0.986 0.934 0.837
0.991 0.889 0.806
0.989 0.888 0.872
0.000 0.741 0.744
0.000 0.741 0.744
0.000 0.741 0.744
0.000 0.741 0.744
0.027 0.799 0.800
0.822 0.957 0.863
0.976 0.983 0.883
0.988 0.983 0.894
0.991 0.945 0.878
0.496 0.912 0.891
0.496 0.912 0.891
0.496 0.912 0.891
0.496 0.912 0.891
0.496 0.912 0.891
0.778 0.967 0.903
0.951 0.990 0.906
0.980 0.990 0.911
0.980 0.989 0.917
0.573 0.927 0.894
0.573 0.927 0.894
0.573 0.927 0.894
0.573 0.927 0.894
0.573 0.927 0.894
0.573 0.927 0.894
0.934 0.989 0.906
0.981 0.991 0.906
0.980 0.990 0.913
0.484 0.745 0.869
0.484 0.745 0.869
0.484 0.745 0.869
0.550 0.755 0.878
0.875 0.672 0.888
0.939 0.648 0.901
0.989 0.769 0.905
0.982 0.891 0.912
0.982 0.902 0.921
0.484 0.745 0.869
0.484 0.745 0.869
0.484 0.745 0.869
0.550 0.755 0.878
0.875 0.672 0.888
0.939 0.648 0.901
0.989 0.769 0.905
0.982 0.891 0.912
0.982 0.902 0.921
0.484 0.745 0.869
0.484 0.745 0.869
0.484 0.745 0.869
0.548 0.754 0.877
0.875 0.672 0.888
0.939 0.648 0.901
0.989 0.769 0.905
0.982 0.891 0.912
0.982 0.902 0.921
0.484 0.745 0.869
0.484 0.745 0.869
0.484 0.745 0.869
0.541 0.753 0.876
0.874 0.672 0.888
0.939 0.648 0.901
0.989 0.769 0.905
0.982 0.891 0.912
0.982 0.902 0.921
0.000 0.718 0.789
0.000 0.718 0.790
0.000 0.718 0.790
0.000 0.729 0.801
0.857 0.858 0.918
0.967 0.786 0.900
0.989 0.769 0.905
0.982 0.891 0.912
0.982 0.902 0.921
0.000 0.679 0.703
0.000 0.679 0.703
0.000 0.679 0.703
0.000 0.679 0.704
0.415 0.874 0.890
0.944 0.942 0.924
0.985 0.918 0.915
0.984 0.899 0.912
0.982 0.902 0.920
0.000 0.803 0.846
0.000 0.803 0.846
0.000 0.803 0.846
0.000 0.803 0.846
0.000 0.856 0.884
0.816 0.968 0.912
0.974 0.981 0.922
0.988 0.976 0.924
0.990 0.939 0.922
0.506 0.940 0.923
0.506 0.940 0.923
0.506 0.940 0.923
0.506 0.940 0.923
0.506 0.940 0.923
0.763 0.973 0.925
0.950 0.991 0.926
0.975 0.989 0.927
0.977 0.988 0.930
0.576 0.946 0.920
0.576 0.946 0.920
0.576 0.946 0.920
0.576 0.946 0.920
0.576 0.946 0.920
0.576 0.946 0.920
0.934 0.990 0.924
0.975 0.990 0.926
0.975 0.989 0.930
0.847 0.913 0.971
0.847 0.913 0.971
0.847 0.913 0.971
0.847 0.913 0.971
0.886 0.911 0.975
0.967 0.828 0.965
0.989 0.822 0.954
0.985 0.894 0.951
0.985 0.902 0.953
0.847 0.913 0.971
0.847 0.913 0.971
0.847 0.913 0.971
0.847 0.913 0.971
0.886 0.911 0.975
0.967 0.828 0.965
0.989 0.822 0.954
0.985 0.894 0.951
0.985 0.902 0.953
0.847 0.913 0.971
0.847 0.913 0.971
0.847 0.913 0.971
0.847 0.913 0.971
0.885 0.911 0.975
0.967 0.828 0.965
0.989 0.822 0.954
0.985 0.894 0.951
0.985 0.902 0.953
0.847 0.913 0.971
0.847 0.913 0.971
0.847 0.913 0.971
0.847 0.913 0.971
0.886 0.911 0.975
0.967 0.828 0.965
0.989 0.822 0.954
0.985 0.894 0.951
0.985 0.902 0.953
0.847 0.913 0.971
0.847 0.913 0.971
0.847 0.913 0.971
0.847 0.913 0.971
0.880 0.911 0.974
0.967 0.828 0.965
0.989 0.822 0.954
0.985 0.894 0.951
0.985 0.902 0.953
0.370 0.929 0.958
0.370 0.929 0.958
0.370 0.929 0.958
0.374 0.929 0.958
0.460 0.937 0.961
0.954 0.940 0.967
0.982 0.899 0.953
0.985 0.894 0.951
0.985 0.902 0.953
0.000 0.926 0.964
0.000 0.926 0.964
0.000 0.926 0.964
0.000 0.926 0.964
0.000 0.926 0.964
0.840 0.985 0.967
0.966 0.977 0.949
0.981 0.967 0.950
0.987 0.926 0.955
0.598 0.981 0.978
0.598 0.981 0.978
0.598 0.981 0.978
0.596 0.981 0.978
0.596 0.981 0.978
0.779 0.987 0.975
0.955 0.992 0.951
0.969 0.988 0.943
0.971 0.987 0.944
0.665 0.983 0.977
0.665 0.983 0.977
0.665 0.983 0.977
0.665 0.983 0.977
0.665 0.983 0.977
0.665 0.983 0.977
0.944 0.992 0.957
0.967 0.989 0.943
0.970 0.988 0.944
0.926 0.960 0.987
0.926 0.960 0.987
0.926 0.960 0.987
0.926 0.960 0.987
0.926 0.960 0.987
0.940 0.956 0.988
0.995 0.875 0.990
0.992 0.888 0.974
0.992 0.894 0.973
0.926 0.960 0.987
0.926 0.960 0.987
0.926 0.960 0.987
0.926 0.960 0.987
0.926 0.960 0.987
0.940 0.956 0.988
0.995 0.875 0.990
0.992 0.888 0.974
0.992 0.894 0.973
0.926 0.960 0.987
0.926 0.960 0.987
0.926 0.960 0.987
0.926 0.960 0.987
0.926 0.960 0.987
0.940 0.956 0.988
0.995 0.875 0.990
0.992 0.888 0.974
0.992 0.894 0.973
0.926 0.960 0.987
0.926 0.960 0.987
0.926 0.960 0.987
0.926 0.960 0.987
0.926 0.960 0.987
0.940 0.956 0.988
0.995 0.875 0.990
0.992 0.888 0.974
0.992 0.894 0.973
0.926 0.960 0.987
0.926 0.960 0.987
0.926 0.960 0.987
0.926 0.960 0.987
0.926 0.960 0.987
0.940 0.956 0.988
0.995 0.875 0.990
0.992 0.888 0.974
0.992 0.894 0.973
0.926 0.960 0.987
0.926 0.960 0.987
0.926 0.960 0.987
0.926 0.960 0.987
0.926 0.960 0.987
0.938 0.956 0.988
0.995 0.875 0.991
0.992 0.888 0.974
0.992 0.894 0.973
0.794 0.990 0.991
0.794 0.990 0.991
0.794 0.990 0.991
0.794 0.990 0.991
0.794 0.990 0.991
0.826 0.989 0.991
0.972 0.964 0.974
0.985 0.943 0.968
0.992 0.894 0.973
0.763 0.994 0.993
0.763 0.994 0.993
0.763 0.994 0.993
0.763 0.994 0.993
0.763 0.994 0.993
0.763 0.994 0.993
0.959 0.993 0.972
0.969 0.985 0.954
0.971 0.983 0.954
0.786 0.994 0.993
0.786 0.994 0.993
0.786 0.994 0.993
0.786 0.994 0.993
0.786 0.994 0.993
0.786 0.994 0.993
0.945 0.993 0.986
0.967 0.987 0.954
0.969 0.986 0.954
0.925 0.966 0.989
0.925 0.966 0.989
0.925 0.966 0.989
0.925 0.966 0.989
0.925 0.966 0.989
0.925 0.966 0.989
0.975 0.944 0.994
0.993 0.892 0.976
0.992 0.895 0.975
0.925 0.966 0.989
0.925 0.966 0.989
0.925 0.966 0.989
0.925 0.966 0.989
0.925 0.966 0.989
0.925 0.966 0.989
0.975 0.944 0.994
0.993 0.892 0.976
0.992 0.895 0.975
0.925 0.966 0.989
0.925 0.966 0.989
0.925 0.966 0.989
0.925 0.966 0.989
0.925 0.966 0.989
0.925 0.966 0.989
0.975 0.944 0.994
0.993 0.892 0.976
0.992 0.895 0.975
0.925 0.966 0.989
0.925 0.966 0.989
0.925 0.966 0.989
0.925 0.966 0.989
0.925 0.966 0.989
0.925 0.966 0.989
0.975 0.944 0.994
0.993 0.892 0.976
0.992 0.895 0.975
0.925 0.966 0.989
0.925 0.966 0.989
0.925 0.966 0.989
0.925 0.966 0.989
0.925 0.966 0.989
0.925 0.966 0.989
0.974 0.945 0.994
0.993 0.892 0.976
0.992 0.895 0.975
0.925 0.966 0.989
0.925 0.966 0.989
0.925 0.966 0.989
0.925 0.966 0.989
0.925 0.966 0.989
0.925 0.966 0.989
0.974 0.946 0.994
0.993 0.892 0.976
0.992 0.895 0.975
0.925 0.966 0.989
0.925 0.966 0.989
0.925 0.966 0.989
0.925 0.966 0.989
0.925 0.966 0.989
0.925 0.966 0.989
0.971 0.950 0.993
0.993 0.892 0.976
0.992 0.895 0.975
0.799 0.994 0.993
0.799 0.994 0.993
0.799 0.994 0.993
0.799 0.994 0.993
0.799 0.994 0.993
0.799 0.994 0.993
0.869 0.993 0.994
0.971 0.982 0.957
0.973 0.979 0.957
0.812 0.994 0.994
0.812 0.994 0.994
0.812 0.994 0.994
0.812 0.994 0.994
0.812 0.994 0.994
0.812 0.994 0.994
0.812 0.994 0.994
0.967 0.987 0.956
0.969 0.986 0.955
