LUT/LogC4/709/looks/Alexa_LogC4_709_D65_5219_B.cube
LUT_3D_SIZE 9
0 0.00306706 0.00505074
0.0408484 0.00480659 0
0.338918 0 0
0.579751 0.028336 0
0.695445 0.135027 0.117906
0.842252 0.366842 0.295644
0.836576 0.611246 0.458778
0.888289 0.789975 0.5664
0.873167 0.809979 0.675242
0.00396735 0.0409857 0.035935
0.0393835 0.0513771 0.0433661
0.325246 0 0
0.581125 0.0296941 0
0.700282 0.139864 0.122744
0.843061 0.367651 0.296452
0.836789 0.61146 0.458991
0.888304 0.78999 0.566415
0.873167 0.809979 0.675242
0.0426947 0.210727 0.131563
0.0420081 0.229038 0.130877
0.346807 0.33547 0.0338598
0.65771 0.254108 0
0.715175 0.166735 0.118639
0.846418 0.371008 0.299825
0.837629 0.612299 0.459831
0.888365 0.790051 0.566476
0.873167 0.809979 0.675242
0.0294194 0.525414 0.189075
0.0340429 0.532021 0.192691
0.0502174 0.656992 0.0498207
0.707851 0.623087 0
0.874159 0.566262 0
0.829755 0.411307 0.266117
0.840955 0.615641 0.463172
0.888594 0.79028 0.566705
0.873167 0.809979 0.675242
0.0895094 0.764553 0.358038
0.090898 0.765942 0.359411
0.0831311 0.785153 0.335637
0.242771 0.855711 0.395346
0.893233 0.808545 0.2224
0.904158 0.764569 0.300343
0.831556 0.651194 0.427741
0.889601 0.791287 0.56672
0.873182 0.809995 0.675242
0.303471 1 0.738933
0.304112 1 0.739574
0.306615 1 0.742077
0.301762 1 0.799207
0.723766 0.991684 0.740597
0.960327 0.936965 0.623392
0.939193 0.910918 0.663264
0.992004 0.919692 0.6851
0.873304 0.810117 0.674388
0.308309 1 0.992706
0.308354 1 0.992737
0.308476 1 0.992859
0.30901 1 0.993393
0.322454 1 0.984863
0.846098 0.999008 0.814008
0.971603 0.972427 0.808637
0.973739 0.97258 0.837751
0.989105 0.96994 0.836133
0.582361 1 0.91902
0.582361 1 0.91902
0.582376 1 0.919036
0.582437 1 0.919097
0.582635 1 0.919295
0.832029 1 0.900893
0.958755 0.991638 0.857755
0.985702 0.98555 0.854719
0.985183 0.985046 0.857206
0.663584 0.993698 0.884337
0.663584 0.993698 0.884337
0.663584 0.993698 0.884337
0.663584 0.993698 0.884337
0.663584 0.993698 0.884337
0.730022 1 0.950774
0.94728 0.997177 0.874266
0.985885 0.986755 0.856916
0.986557 0.986419 0.857572
0 0.00614939 0.0251164
0.0331273 0.0141299 0.0251469
0.36939 0 0
0.588952 0.0275578 0.0354009
0.700847 0.132464 0.14432
0.841901 0.366491 0.306294
0.836301 0.610986 0.462516
0.887953 0.789654 0.56907
0.87306 0.809873 0.676127
0.0105898 0.0486305 0.0585641
0.0582895 0.0702983 0.0782788
0.370977 0 0
0.59556 0.0341802 0.0410163
0.707897 0.139513 0.151354
0.84271 0.3673 0.307103
0.83653 0.6112 0.46273
0.887968 0.78967 0.569085
0.87306 0.809873 0.676127
0.0479286 0.224994 0.161791
0.0616312 0.252674 0.174487
0.361746 0.339422 0.061799
0.664851 0.25626 0
0.731075 0.170672 0.16054
0.846067 0.370657 0.31046
0.837369 0.612039 0.463569
0.888029 0.789731 0.569146
0.87306 0.809873 0.676127
0.034699 0.532723 0.219348
0.0415961 0.539605 0.22623
0.0626383 0.658427 0.0622568
0.70074 0.629969 0
0.868849 0.574945 0
0.831662 0.409232 0.280034
0.840696 0.615381 0.466911
0.888258 0.78996 0.569375
0.87306 0.809873 0.676127
0.0938582 0.76791 0.365377
0.0952773 0.769314 0.366796
0.0874342 0.788464 0.343938
0.231083 0.861036 0.407645
0.886732 0.808072 0.246891
0.901473 0.763897 0.31667
0.831876 0.650507 0.432059
0.888685 0.791379 0.568795
0.87306 0.809873 0.676127
0.303929 1 0.739391
0.30457 1 0.740032
0.307073 1 0.742535
0.302403 1 0.797848
0.723934 0.991852 0.740749
0.960021 0.93666 0.626093
0.938949 0.910658 0.66601
0.991989 0.919692 0.686091
0.873198 0.81001 0.675273
0.308354 1 0.992737
0.308385 1 0.992767
0.308507 1 0.992905
0.309041 1 0.993423
0.322499 1 0.984894
0.846128 0.999039 0.814038
0.971603 0.972427 0.808637
0.973739 0.972595 0.837766
0.989105 0.96994 0.836133
0.582361 1 0.91902
0.582361 1 0.91902
0.582376 1 0.919036
0.582422 1 0.919081
0.582635 1 0.919295
0.832029 1 0.900893
0.958755 0.991638 0.857755
0.985702 0.985565 0.854719
0.985183 0.985046 0.857206
0.663584 0.993698 0.884337
0.663584 0.993698 0.884337
0.663584 0.993698 0.884337
0.663584 0.993698 0.884337
0.663584 0.993698 0.884337
0.730022 1 0.950759
0.94728 0.997177 0.874266
0.985885 0.986755 0.856916
0.986557 0.986419 0.857572
0.0254215 0.0116884 0.27039
0.0344549 0.0177005 0.254429
0.373739 0.00169375 0.203006
0.629679 0.0304875 0.248127
0.737987 0.147707 0.268452
0.838926 0.367575 0.34432
0.837797 0.609491 0.473014
0.886488 0.789197 0.575601
0.872602 0.809415 0.679667
0.0484474 0.0437171 0.301396
0.0597086 0.049958 0.288685
0.396292 0.0252384 0.225559
0.638453 0.0392615 0.256901
0.74905 0.15877 0.279515
0.83975 0.368383 0.345129
0.83801 0.609705 0.473228
0.886503 0.789212 0.575616
0.872602 0.809415 0.679667
0.0451972 0.275441 0.360998
0.05626 0.2925 0.373053
0.33283 0.344854 0.358816
0.703548 0.25124 0.271901
0.782818 0.196536 0.310292
0.844419 0.371069 0.348806
0.838865 0.610559 0.474067
0.886564 0.789273 0.575677
0.872602 0.809415 0.679667
0.0418708 0.554055 0.395468
0.0496681 0.560861 0.403265
0.0599832 0.638117 0.386542
0.659693 0.642298 0.273777
0.829969 0.592371 0.196216
0.834669 0.40528 0.32903
0.842191 0.613886 0.477409
0.886793 0.789502 0.575921
0.872602 0.809415 0.679667
0.115419 0.77055 0.463935
0.116976 0.772122 0.465492
0.110933 0.788052 0.456428
0.158999 0.881117 0.526467
0.862623 0.816129 0.380728
0.891081 0.763561 0.370245
0.83299 0.648646 0.445182
0.8878 0.790509 0.575921
0.872709 0.809537 0.678782
0.320195 1 0.766674
0.320836 1 0.7673
0.323308 1 0.769772
0.318257 1 0.822705
0.71487 0.99881 0.760678
0.955245 0.935927 0.643305
0.938964 0.909682 0.674022
0.991806 0.919524 0.690913
0.872847 0.809659 0.677928
0.321218 1 1
0.321233 1 1
0.32134 1 1
0.321782 1 1
0.334768 1 0.998154
0.84625 0.999161 0.81416
0.971511 0.972335 0.809537
0.973632 0.972488 0.838651
0.989105 0.969955 0.836149
0.587076 1 0.923735
0.587045 1 0.923705
0.586938 1 0.923598
0.58648 1 0.92314
0.585275 1 0.921935
0.832029 1 0.900893
0.958755 0.991638 0.857755
0.985702 0.985565 0.854719
0.985199 0.985061 0.857206
0.665156 0.99527 0.885908
0.665034 0.995148 0.885771
0.664591 0.994705 0.885328
0.663569 0.993683 0.884321
0.663569 0.993683 0.884321
0.730022 1 0.950759
0.94728 0.997177 0.87425
0.985885 0.986755 0.856916
0.986557 0.986419 0.857572
0.0996109 0.11313 0.600519
0.101976 0.115511 0.602884
0.363012 0.0932937 0.534157
0.639658 0.033753 0.517082
0.746639 0.202548 0.477043
0.843717 0.405478 0.466072
0.84065 0.606378 0.510857
0.882155 0.786892 0.600259
0.871809 0.807645 0.690883
0.118807 0.132326 0.619715
0.120912 0.134432 0.62182
0.392493 0.123781 0.564645
0.660105 0.0541848 0.537514
0.753399 0.209308 0.483787
0.844663 0.406424 0.467018
0.840864 0.606592 0.51107
0.88217 0.786908 0.600275
0.871809 0.807645 0.690883
0.0393835 0.318822 0.55111
0.04654 0.324987 0.559274
0.317845 0.32311 0.568795
0.700053 0.224079 0.558389
0.784848 0.240757 0.515251
0.848493 0.410239 0.470832
0.841703 0.607431 0.51191
0.882231 0.786969 0.600336
0.871809 0.807645 0.690883
0.0798505 0.57818 0.554452
0.0838941 0.582223 0.558495
0.0852369 0.652613 0.616785
0.607019 0.642954 0.566995
0.856901 0.596658 0.549111
0.849653 0.4374 0.468986
0.844999 0.610727 0.515206
0.88246 0.787198 0.600565
0.871809 0.807645 0.690883
0.149889 0.771145 0.607401
0.152407 0.773663 0.609918
0.152758 0.788037 0.620279
0.185138 0.928496 0.76556
0.852216 0.848951 0.605249
0.897566 0.793194 0.518685
0.839033 0.640742 0.49723
0.883467 0.78819 0.600565
0.871931 0.807752 0.689998
0.331762 1 0.835218
0.332418 1 0.835874
0.334981 1 0.838453
0.326497 1 0.880934
0.672862 1 0.835599
0.958206 0.948943 0.713252
0.937133 0.907881 0.700191
0.990814 0.918547 0.710903
0.872053 0.807889 0.689128
0.327016 1 1
0.327047 1 1
0.327184 1 1
0.327718 1 1
0.322011 1 1
0.860365 1 0.839277
0.970275 0.972107 0.814298
0.97348 0.972335 0.840497
0.991028 0.968872 0.837064
0.604959 1 0.941619
0.604959 1 0.941619
0.604974 1 0.941634
0.60502 1 0.94168
0.605188 1 0.941848
0.848386 1 0.919249
0.95877 0.991638 0.857755
0.985702 0.985565 0.854734
0.98439 0.985245 0.858396
0.686122 1 0.906874
0.686122 1 0.906859
0.686107 1 0.906859
0.686076 1 0.906828
0.685969 1 0.906706
0.740795 1 0.961547
0.947265 0.997177 0.87425
0.985885 0.986755 0.856916
0.986557 0.986419 0.857572
0 0.407752 0.628779
0 0.411612 0.632639
0 0.419791 0.638834
0.585306 0.346426 0.626444
0.634333 0.247395 0.553597
0.804929 0.454856 0.617182
0.84831 0.638148 0.628489
0.884398 0.792233 0.688502
0.870954 0.801816 0.723018
0 0.415579 0.636606
0 0.419928 0.640955
0 0.42681 0.646845
0.593515 0.35465 0.634668
0.640299 0.253361 0.559564
0.805783 0.455711 0.618036
0.848539 0.638376 0.628702
0.884443 0.792279 0.688548
0.870954 0.801816 0.723018
0 0.437247 0.658274
0 0.441901 0.662928
0.00181582 0.459373 0.679408
0.624338 0.387472 0.667491
0.704784 0.31783 0.624048
0.809201 0.459129 0.621454
0.849409 0.639246 0.629587
0.884627 0.792447 0.688716
0.870954 0.801816 0.723018
0.0536202 0.608072 0.676158
0.0582284 0.611688 0.680766
0.0937667 0.647227 0.717296
0.584176 0.621286 0.707118
0.828717 0.55169 0.709926
0.822782 0.472709 0.635035
0.852949 0.642786 0.63212
0.885252 0.793072 0.689342
0.870954 0.801816 0.723018
0.261311 0.873671 0.803815
0.262516 0.874876 0.805035
0.26688 0.87924 0.8094
0.222126 0.982605 0.940505
0.819455 0.848371 0.758434
0.916976 0.807813 0.731075
0.852842 0.665675 0.633997
0.887907 0.794736 0.691997
0.873762 0.804639 0.724834
0.321569 1 0.916014
0.322042 1 0.916503
0.323827 1 0.918273
0.309819 1 0.946242
0.608164 1 0.933837
0.946593 0.954452 0.813611
0.963943 0.930755 0.783993
1 0.931273 0.796551
0.882826 0.814694 0.732891
0.315221 1 1
0.315251 1 1
0.315373 1 1
0.315847 1 1
0.285054 1 1
0.859724 1 0.87361
0.990112 0.994965 0.849134
0.992355 0.991211 0.86537
1 0.979431 0.862608
0.602121 1 0.95378
0.602136 1 0.95378
0.602152 1 0.953796
0.602197 1 0.953841
0.602396 1 0.95404
0.851789 1 0.929641
0.978592 1 0.883589
1 1 0.876112
0.995499 0.996368 0.872511
0.690791 1 0.911543
0.690791 1 0.911543
0.690791 1 0.911543
0.690791 1 0.911543
0.690776 1 0.911528
0.744823 1 0.965576
0.969665 1 0.896651
1 1 0.876509
0.995102 0.996979 0.871122
0.26714 0.563378 0.59089
0.271687 0.567926 0.595438
0.289021 0.58526 0.612772
0.386648 0.618845 0.646448
0.748287 0.600305 0.725383
0.76553 0.535546 0.701686
0.847639 0.659586 0.734768
0.880934 0.798856 0.773007
0.889708 0.818631 0.788769
0.268956 0.565194 0.592721
0.273762 0.570001 0.597528
0.291356 0.587594 0.615106
0.388785 0.620966 0.648585
0.751827 0.603861 0.728923
0.766018 0.536034 0.702174
0.847822 0.65977 0.734966
0.880949 0.798871 0.773022
0.889723 0.818631 0.788785
0.274296 0.570535 0.598047
0.281392 0.57763 0.605142
0.299748 0.595987 0.623499
0.394507 0.629694 0.657313
0.763592 0.61561 0.740688
0.805005 0.575021 0.741161
0.848569 0.660517 0.735714
0.88101 0.798932 0.773083
0.889723 0.818631 0.788785
0.297719 0.593957 0.621469
0.299535 0.595773 0.623285
0.324926 0.621164 0.648676
0.412787 0.652979 0.680583
0.790768 0.643793 0.766873
0.857542 0.627558 0.793698
0.851469 0.663417 0.738613
0.881239 0.799161 0.773312
0.889738 0.818647 0.7888
0.126497 0.906035 0.898863
0.127123 0.906661 0.899489
0.129564 0.909102 0.90193
0.162325 0.953872 0.944686
0.794614 0.822614 0.808591
0.912383 0.78233 0.817487
0.934905 0.746853 0.822034
0.881666 0.80058 0.772732
0.889784 0.818708 0.788846
0.310109 1 1
0.310246 1 1
0.310765 1 1
0.312612 1 1
0.5897 1 0.993332
0.936217 0.951156 0.879225
0.986419 0.927337 0.878477
1 0.934737 0.900908
1 0.929412 0.89955
0.268406 1 1
0.268437 1 1
0.268528 1 1
0.26891 1 1
0.234821 1 1
0.873457 1 0.917357
0.984146 0.998032 0.880156
0.998337 0.996216 0.890349
1 0.982223 0.919356
0.614252 1 0.975906
0.614252 1 0.975921
0.614267 1 0.975921
0.614313 1 0.975967
0.610361 1 0.97702
0.862196 1 0.958068
0.979309 1 0.89929
1 1 0.8925
1 1 0.895445
0.708385 1 0.931151
0.708385 1 0.931151
0.708385 1 0.931151
0.708385 1 0.931151
0.708385 1 0.931151
0.76347 1 0.985229
0.974502 1 0.911482
1 1 0.89279
1 1 0.895293
0.709163 0.759213 0.780118
0.71136 0.76141 0.782315
0.717205 0.767254 0.788159
0.74078 0.790845 0.811734
0.807996 0.813031 0.844984
0.928817 0.820844 0.913893
0.876051 0.716075 0.837171
0.893843 0.795819 0.834928
0.89749 0.810452 0.837552
0.709422 0.759472 0.780377
0.711666 0.76173 0.78262
0.717601 0.767666 0.788556
0.740993 0.791043 0.811948
0.807797 0.81384 0.845792
0.929488 0.821515 0.914565
0.876127 0.716136 0.837232
0.893858 0.795834 0.834928
0.89749 0.810452 0.837552
0.710292 0.760357 0.781247
0.712764 0.762829 0.783719
0.719097 0.769146 0.790051
0.741711 0.79176 0.812665
0.808347 0.816388 0.847333
0.93193 0.823957 0.917006
0.876371 0.716396 0.837491
0.893889 0.795865 0.834974
0.89749 0.810452 0.837552
0.711284 0.761334 0.782238
0.715343 0.765408 0.786297
0.723934 0.773999 0.794888
0.743984 0.794034 0.814939
0.813519 0.822568 0.853513
0.939529 0.831556 0.924605
0.94992 0.789944 0.911025
0.894041 0.796002 0.835111
0.89749 0.810468 0.837568
0.719112 0.769162 0.790066
0.719295 0.769345 0.790249
0.719997 0.770047 0.790951
0.7523 0.802365 0.823255
0.826703 0.839734 0.868681
0.956497 0.848524 0.941573
1 0.842939 0.964034
0.919417 0.821393 0.860487
0.897505 0.810483 0.837583
0.459617 0.997986 0.986175
0.459678 0.998047 0.986252
0.459968 0.998337 0.986526
0.461845 0.999207 0.986404
0.595453 1 1
0.946471 0.936446 0.932479
1 0.915419 0.955505
1 0.93312 0.974212
1 0.939941 0.967041
0.199207 1 1
0.199207 1 1
0.199252 1 1
0.19939 1 1
0.199863 1 1
0.914748 0.999771 0.97467
0.977859 0.997787 0.915862
1 0.989624 0.929717
1 0.968627 0.974716
0.709178 0.996368 0.989944
0.709178 0.996368 0.989944
0.709178 0.996384 0.989944
0.709209 0.996414 0.989975
0.709316 0.996521 0.990082
0.897414 1 1
0.984436 1 0.927428
0.99617 1 0.91017
0.997162 1 0.911162
0.788998 0.967132 0.963851
0.788998 0.967132 0.963851
0.788998 0.967132 0.963851
0.788998 0.967132 0.963851
0.788998 0.967117 0.963851
0.844358 1 1
0.989242 1 0.945251
0.99469 1 0.911681
0.996689 1 0.911681
0.889509 0.899519 0.900496
0.890501 0.900511 0.901488
0.893416 0.903426 0.904402
0.910475 0.920485 0.921462
0.936095 0.946105 0.947097
0.954513 0.952514 0.959518
1 0.904936 1
0.904524 0.796551 0.883604
0.903609 0.801617 0.878676
0.889525 0.899535 0.900511
0.890517 0.900526 0.901503
0.893477 0.903487 0.904463
0.910353 0.920363 0.921355
0.936202 0.946197 0.947188
0.954665 0.952667 0.95967
1 0.905303 1
0.904524 0.796551 0.883604
0.903609 0.801617 0.878676
0.88954 0.89955 0.900526
0.890578 0.900587 0.901564
0.893675 0.90367 0.904662
0.910079 0.920089 0.921065
0.936568 0.946578 0.947555
0.955261 0.953277 0.960266
1 0.906569 1
0.904524 0.796551 0.883604
0.903609 0.801617 0.878676
0.889143 0.899153 0.90013
0.890455 0.90045 0.901442
0.894179 0.904173 0.905165
0.908614 0.918624 0.9196
0.937835 0.947845 0.948821
0.957275 0.955276 0.962264
1 0.910506 1
0.96231 0.854322 0.941375
0.903609 0.801617 0.878676
0.874693 0.884703 0.885695
0.874708 0.884718 0.885695
0.890898 0.900908 0.901884
0.904738 0.914748 0.91574
0.941054 0.951064 0.952041
0.961746 0.960754 0.966751
1 0.919173 1
1 0.915618 1
0.988403 0.886412 0.96347
0.883787 0.893797 0.894774
0.883787 0.893797 0.894774
0.883803 0.893812 0.894789
0.883864 0.893874 0.89485
0.944121 0.954131 0.955108
0.969223 0.969223 0.975219
1 0.930755 1
1 0.937087 1
1 0.938796 1
0.840726 0.930785 0.927657
0.840726 0.930785 0.927657
0.840742 0.9308 0.927657
0.840757 0.930816 0.927687
0.840818 0.930877 0.927749
0.934554 0.999588 0.997497
0.999313 0.986297 0.970336
1 0.972473 0.981567
1 0.953124 1
0.834333 0.945418 0.943252
0.834333 0.945418 0.943252
0.834348 0.945418 0.943252
0.834348 0.945418 0.943252
0.834363 0.945434 0.943267
0.90547 1 1
0.991333 1 0.959335
0.995377 1 0.927382
0.999161 1 0.928161
0.869734 0.932784 0.931685
0.869734 0.932784 0.931685
0.869734 0.932784 0.931685
0.869734 0.932784 0.931685
0.869734 0.932784 0.931685
0.926299 0.989334 0.988235
0.996643 0.997635 0.98764
0.991775 1 0.927779
0.995392 1 0.92639
0.906538 0.916548 0.916533
0.90724 0.91725 0.917235
0.909483 0.919493 0.919478
0.926909 0.936919 0.936904
0.949874 0.959884 0.959869
0.960769 0.970779 0.970764
0.981765 0.956786 0.979782
1 0.905119 0.99118
0.903746 0.801755 0.882811
0.906523 0.916533 0.916518
0.90724 0.91725 0.917235
0.909499 0.919509 0.919493
0.926818 0.936828 0.936812
0.949935 0.959945 0.95993
0.960861 0.970871 0.970855
0.981933 0.956939 0.97995
1 0.905913 0.991958
0.903746 0.801755 0.882811
0.906462 0.916472 0.916457
0.907225 0.917235 0.91722
0.90956 0.91957 0.919554
0.926497 0.936492 0.936477
0.950134 0.960143 0.960128
0.961227 0.971237 0.971222
0.982513 0.957519 0.980529
1 0.908705 0.994751
0.903746 0.801755 0.882811
0.90602 0.91603 0.916014
0.906935 0.916945 0.91693
0.909667 0.919676 0.919661
0.925032 0.935042 0.935027
0.950851 0.960861 0.960845
0.962371 0.972381 0.972366
0.984527 0.959533 0.982544
1 0.916304 1
0.951782 0.84979 0.930846
0.897292 0.907301 0.907286
0.900526 0.910521 0.910506
0.906935 0.916945 0.91693
0.918807 0.928801 0.928786
0.952682 0.962692 0.962676
0.965591 0.975601 0.975586
0.989822 0.964828 0.987839
1 0.929 1
1 0.920165 1
0.894301 0.904311 0.904295
0.894301 0.904311 0.904295
0.894286 0.904295 0.90428
0.894255 0.904265 0.90425
0.953826 0.963836 0.963821
0.971511 0.981506 0.981491
0.998032 0.974029 0.995041
1 0.942733 1
1 0.941772 1
0.901381 0.911391 0.911376
0.901381 0.911391 0.911376
0.901381 0.911391 0.911376
0.901366 0.911376 0.91136
0.901305 0.911315 0.911299
0.97731 0.98732 0.987305
1 0.984955 0.999954
1 0.953094 1
1 0.95375 1
0.88333 0.925353 0.925292
0.88333 0.925353 0.925292
0.88333 0.925353 0.925292
0.88333 0.925353 0.925292
0.883314 0.925353 0.925292
0.954406 0.996429 0.996368
0.9897 0.998703 0.998688
0.998535 1 0.935546
1 1 0.938033
0.889036 0.924056 0.923003
0.889036 0.924056 0.923003
0.889036 0.924056 0.923003
0.889036 0.924056 0.923003
0.889036 0.924056 0.923003
0.946212 0.981231 0.980179
0.971679 1 1
0.991257 1 0.93225
0.995026 1 0.931014
