LUT/LogC4/709/looks/Alexa_LogC4_709_D65_5219_A.cube
LUT_3D_SIZE 33
0.042 0.042 0.038
0.042 0.042 0.038
0.042 0.042 0.038
0.047 0.044 0.041
0.120 0.052 0.036
0.214 0.058 0.024
0.298 0.062 0.014
0.368 0.063 0.008
0.434 0.066 0.007
0.495 0.072 0.010
0.546 0.075 0.014
0.585 0.076 0.017
0.610 0.075 0.020
0.628 0.075 0.026
0.642 0.082 0.034
0.659 0.098 0.049
0.683 0.127 0.075
0.716 0.172 0.115
0.759 0.231 0.170
0.807 0.299 0.237
0.858 0.377 0.312
0.902 0.461 0.391
0.939 0.549 0.471
0.964 0.633 0.544
0.977 0.701 0.584
0.983 0.739 0.556
0.988 0.775 0.556
0.991 0.818 0.610
0.993 0.858 0.675
0.994 0.881 0.726
0.993 0.884 0.747
0.992 0.886 0.775
0.990 0.887 0.811
0.042 0.042 0.038
0.042 0.042 0.038
0.042 0.042 0.038
0.047 0.044 0.041
0.119 0.052 0.036
0.213 0.058 0.024
0.298 0.062 0.014
0.368 0.063 0.008
0.434 0.066 0.007
0.495 0.072 0.010
0.546 0.075 0.014
0.585 0.076 0.017
0.610 0.075 0.020
0.628 0.075 0.026
0.642 0.082 0.034
0.659 0.098 0.049
0.683 0.127 0.075
0.716 0.172 0.115
0.759 0.231 0.170
0.807 0.299 0.237
0.858 0.377 0.312
0.902 0.461 0.391
0.939 0.549 0.471
0.964 0.633 0.544
0.977 0.701 0.584
0.983 0.739 0.556
0.988 0.775 0.556
0.991 0.818 0.610
0.993 0.858 0.675
0.994 0.881 0.726
0.993 0.884 0.747
0.992 0.886 0.775
0.990 0.887 0.811
0.042 0.042 0.038
0.042 0.042 0.038
0.042 0.042 0.038
0.047 0.044 0.040
0.118 0.052 0.037
0.212 0.058 0.024
0.298 0.062 0.014
0.368 0.063 0.008
0.433 0.066 0.007
0.495 0.072 0.010
0.546 0.075 0.014
0.585 0.076 0.017
0.610 0.075 0.020
0.628 0.075 0.026
0.642 0.082 0.034
0.659 0.098 0.049
0.683 0.127 0.075
0.716 0.172 0.115
0.759 0.231 0.170
0.807 0.299 0.237
0.858 0.377 0.312
0.902 0.461 0.390
0.939 0.549 0.471
0.964 0.633 0.544
0.977 0.701 0.584
0.983 0.739 0.556
0.988 0.775 0.556
0.991 0.818 0.610
0.993 0.858 0.675
0.994 0.881 0.726
0.993 0.884 0.747
0.992 0.886 0.775
0.990 0.887 0.811
0.040 0.045 0.041
0.040 0.045 0.041
0.041 0.044 0.041
0.044 0.045 0.041
0.108 0.053 0.037
0.201 0.059 0.026
0.291 0.063 0.014
0.364 0.064 0.008
0.432 0.067 0.007
0.495 0.072 0.010
0.546 0.075 0.014
0.585 0.076 0.017
0.610 0.075 0.020
0.628 0.075 0.026
0.642 0.082 0.034
0.659 0.098 0.049
0.683 0.127 0.075
0.716 0.172 0.115
0.759 0.231 0.170
0.807 0.299 0.237
0.858 0.377 0.312
0.902 0.461 0.390
0.939 0.549 0.471
0.964 0.633 0.544
0.977 0.701 0.584
0.983 0.739 0.556
0.988 0.775 0.556
0.991 0.818 0.610
0.993 0.858 0.675
0.994 0.881 0.726
0.993 0.884 0.747
0.992 0.886 0.775
0.990 0.887 0.811
0.023 0.056 0.042
0.024 0.056 0.042
0.024 0.055 0.042
0.026 0.056 0.042
0.070 0.066 0.045
0.151 0.078 0.037
0.230 0.078 0.023
0.320 0.079 0.011
0.400 0.077 0.007
0.473 0.079 0.008
0.541 0.079 0.012
0.585 0.076 0.017
0.610 0.075 0.020
0.628 0.075 0.026
0.642 0.082 0.034
0.659 0.098 0.049
0.683 0.127 0.075
0.716 0.172 0.115
0.759 0.231 0.169
0.807 0.299 0.237
0.858 0.377 0.312
0.902 0.461 0.390
0.939 0.549 0.471
0.964 0.633 0.544
0.977 0.701 0.584
0.983 0.739 0.556
0.988 0.775 0.556
0.991 0.818 0.610
0.993 0.858 0.675
0.994 0.881 0.726
0.993 0.884 0.747
0.992 0.886 0.775
0.990 0.887 0.811
0.011 0.074 0.043
0.011 0.074 0.043
0.011 0.074 0.043
0.010 0.077 0.043
0.023 0.090 0.046
0.125 0.110 0.047
0.222 0.119 0.030
0.307 0.115 0.012
0.375 0.115 0.010
0.447 0.111 0.006
0.520 0.107 0.008
0.584 0.096 0.015
0.612 0.082 0.020
0.628 0.075 0.026
0.642 0.082 0.034
0.659 0.098 0.049
0.683 0.127 0.075
0.716 0.172 0.115
0.759 0.231 0.169
0.807 0.299 0.237
0.858 0.377 0.312
0.902 0.461 0.390
0.939 0.549 0.471
0.964 0.633 0.544
0.977 0.701 0.584
0.983 0.739 0.556
0.988 0.775 0.556
0.991 0.818 0.610
0.993 0.858 0.675
0.994 0.881 0.726
0.993 0.884 0.747
0.992 0.886 0.775
0.990 0.887 0.811
0.002 0.099 0.049
0.002 0.099 0.049
0.002 0.098 0.049
0.002 0.102 0.049
0.002 0.123 0.045
0.046 0.141 0.049
0.179 0.161 0.037
0.292 0.169 0.017
0.386 0.169 0.008
0.451 0.166 0.005
0.510 0.161 0.003
0.578 0.145 0.007
0.628 0.120 0.014
0.640 0.097 0.022
0.643 0.083 0.034
0.659 0.098 0.049
0.683 0.127 0.075
0.716 0.172 0.115
0.759 0.231 0.169
0.807 0.299 0.237
0.858 0.377 0.312
0.902 0.461 0.390
0.939 0.549 0.471
0.964 0.633 0.544
0.977 0.701 0.584
0.983 0.739 0.556
0.988 0.775 0.556
0.991 0.818 0.610
0.993 0.858 0.675
0.994 0.881 0.726
0.993 0.884 0.747
0.992 0.886 0.775
0.990 0.887 0.811
0.000 0.138 0.055
0.000 0.138 0.055
0.000 0.138 0.055
0.000 0.140 0.055
0.000 0.161 0.049
0.000 0.184 0.037
0.092 0.207 0.033
0.244 0.223 0.016
0.372 0.232 0.001
0.467 0.231 0.000
0.537 0.228 0.001
0.587 0.220 0.000
0.641 0.196 0.004
0.672 0.158 0.013
0.669 0.126 0.024
0.665 0.108 0.046
0.683 0.127 0.075
0.716 0.172 0.115
0.759 0.231 0.169
0.807 0.299 0.237
0.858 0.377 0.312
0.902 0.461 0.390
0.939 0.549 0.471
0.964 0.633 0.544
0.977 0.701 0.584
0.983 0.739 0.556
0.988 0.775 0.556
0.991 0.818 0.610
0.993 0.858 0.675
0.994 0.881 0.726
0.993 0.884 0.747
0.992 0.886 0.775
0.990 0.887 0.811
0.000 0.190 0.066
0.000 0.190 0.066
0.000 0.189 0.066
0.000 0.191 0.066
0.000 0.209 0.060
0.000 0.234 0.042
0.001 0.258 0.029
0.162 0.287 0.005
0.329 0.297 0.000
0.464 0.304 0.000
0.554 0.303 0.000
0.623 0.298 0.000
0.670 0.288 0.000
0.704 0.260 0.000
0.716 0.217 0.010
0.705 0.177 0.031
0.697 0.152 0.068
0.716 0.172 0.115
0.759 0.231 0.169
0.807 0.299 0.236
0.858 0.377 0.312
0.902 0.461 0.390
0.939 0.549 0.471
0.964 0.633 0.544
0.977 0.701 0.584
0.983 0.739 0.556
0.988 0.775 0.556
0.991 0.818 0.610
0.993 0.858 0.675
0.994 0.881 0.726
0.993 0.884 0.747
0.992 0.886 0.775
0.990 0.887 0.811
0.000 0.253 0.083
0.000 0.253 0.083
0.000 0.253 0.083
0.000 0.253 0.083
0.000 0.266 0.078
0.000 0.291 0.048
0.000 0.315 0.027
0.008 0.339 0.007
0.254 0.370 0.000
0.426 0.380 0.000
0.557 0.385 0.000
0.648 0.383 0.000
0.711 0.376 0.000
0.752 0.365 0.000
0.770 0.334 0.000
0.767 0.291 0.006
0.751 0.248 0.049
0.741 0.216 0.113
0.758 0.229 0.168
0.807 0.299 0.236
0.858 0.377 0.312
0.902 0.461 0.390
0.939 0.549 0.471
0.964 0.633 0.544
0.977 0.701 0.583
0.983 0.739 0.556
0.988 0.775 0.556
0.991 0.818 0.610
0.993 0.858 0.675
0.994 0.881 0.726
0.993 0.884 0.747
0.992 0.886 0.775
0.990 0.887 0.811
0.000 0.327 0.097
0.000 0.327 0.097
0.000 0.327 0.097
0.000 0.327 0.097
0.000 0.334 0.094
0.000 0.354 0.059
0.000 0.381 0.016
0.000 0.398 0.002
0.061 0.423 0.000
0.358 0.453 0.000
0.526 0.460 0.000
0.653 0.464 0.000
0.739 0.463 0.000
0.793 0.456 0.000
0.825 0.444 0.000
0.832 0.414 0.000
0.823 0.373 0.004
0.805 0.326 0.095
0.793 0.289 0.172
0.807 0.299 0.236
0.858 0.377 0.312
0.902 0.461 0.390
0.939 0.549 0.471
0.964 0.633 0.544
0.977 0.701 0.583
0.983 0.739 0.556
0.988 0.775 0.556
0.991 0.818 0.610
0.993 0.858 0.675
0.994 0.881 0.726
0.993 0.884 0.747
0.992 0.886 0.775
0.990 0.887 0.811
0.000 0.404 0.113
0.000 0.404 0.113
0.000 0.404 0.113
0.000 0.403 0.112
0.000 0.407 0.111
0.000 0.419 0.085
0.000 0.446 0.020
0.000 0.471 0.000
0.000 0.478 0.000
0.211 0.503 0.000
0.463 0.528 0.000
0.624 0.537 0.000
0.745 0.541 0.000
0.823 0.537 0.000
0.866 0.529 0.000
0.886 0.514 0.000
0.888 0.490 0.000
0.877 0.455 0.029
0.859 0.410 0.173
0.846 0.372 0.249
0.858 0.377 0.312
0.902 0.461 0.390
0.939 0.549 0.471
0.964 0.633 0.544
0.977 0.701 0.583
0.983 0.739 0.556
0.988 0.775 0.556
0.991 0.818 0.610
0.993 0.858 0.675
0.994 0.881 0.726
0.993 0.884 0.747
0.992 0.886 0.775
0.990 0.887 0.811
0.000 0.474 0.136
0.000 0.474 0.136
0.000 0.474 0.136
0.000 0.474 0.136
0.000 0.475 0.136
0.000 0.482 0.123
0.000 0.505 0.057
0.000 0.535 0.001
0.000 0.544 0.000
0.003 0.548 0.000
0.335 0.573 0.000
0.560 0.596 0.000
0.713 0.605 0.000
0.824 0.607 0.000
0.888 0.602 0.000
0.918 0.593 0.000
0.931 0.581 0.000
0.930 0.562 0.000
0.920 0.535 0.130
0.904 0.493 0.260
0.895 0.458 0.329
0.902 0.461 0.389
0.939 0.549 0.471
0.964 0.633 0.544
0.977 0.701 0.583
0.983 0.739 0.556
0.988 0.775 0.556
0.991 0.818 0.610
0.993 0.858 0.675
0.994 0.881 0.726
0.993 0.884 0.747
0.992 0.886 0.775
0.990 0.887 0.811
0.000 0.531 0.165
0.000 0.531 0.165
0.000 0.531 0.165
0.000 0.531 0.165
0.000 0.531 0.165
0.000 0.534 0.159
0.000 0.552 0.119
0.000 0.580 0.032
0.000 0.600 0.002
0.000 0.599 0.000
0.096 0.607 0.000
0.439 0.633 0.000
0.642 0.654 0.000
0.790 0.662 0.000
0.884 0.663 0.000
0.931 0.659 0.000
0.953 0.652 0.000
0.960 0.644 0.000
0.958 0.630 0.044
0.951 0.610 0.240
0.939 0.574 0.344
0.933 0.543 0.407
0.939 0.549 0.470
0.964 0.633 0.544
0.977 0.701 0.583
0.983 0.741 0.556
0.988 0.775 0.556
0.991 0.818 0.610
0.993 0.858 0.674
0.994 0.881 0.726
0.993 0.884 0.747
0.992 0.886 0.775
0.990 0.887 0.811
0.000 0.573 0.193
0.000 0.573 0.193
0.000 0.573 0.193
0.000 0.573 0.193
0.000 0.573 0.193
0.000 0.574 0.191
0.000 0.586 0.173
0.000 0.609 0.129
0.000 0.633 0.064
0.000 0.640 0.037
0.000 0.639 0.022
0.278 0.654 0.002
0.526 0.681 0.000
0.714 0.704 0.000
0.847 0.712 0.000
0.923 0.712 0.000
0.956 0.709 0.000
0.969 0.704 0.000
0.972 0.700 0.036
0.973 0.694 0.217
0.970 0.675 0.330
0.964 0.648 0.418
0.961 0.627 0.484
0.964 0.633 0.543
0.977 0.701 0.583
0.983 0.741 0.556
0.988 0.775 0.556
0.991 0.818 0.610
0.993 0.858 0.674
0.994 0.881 0.726
0.993 0.884 0.747
0.992 0.886 0.775
0.990 0.887 0.811
0.000 0.605 0.221
0.000 0.605 0.221
0.000 0.605 0.221
0.000 0.605 0.221
0.000 0.605 0.221
0.000 0.605 0.221
0.000 0.611 0.216
0.000 0.627 0.197
0.000 0.647 0.166
0.000 0.660 0.163
0.000 0.661 0.165
0.033 0.668 0.155
0.388 0.692 0.126
0.602 0.723 0.091
0.774 0.746 0.045
0.885 0.754 0.012
0.943 0.754 0.010
0.966 0.753 0.028
0.975 0.751 0.115
0.979 0.752 0.241
0.981 0.748 0.331
0.981 0.733 0.408
0.979 0.714 0.480
0.976 0.699 0.538
0.977 0.704 0.581
0.983 0.741 0.556
0.988 0.775 0.556
0.991 0.818 0.608
0.993 0.858 0.674
0.994 0.881 0.726
0.993 0.884 0.746
0.992 0.886 0.775
0.990 0.887 0.811
0.000 0.628 0.255
0.000 0.628 0.255
0.000 0.628 0.255
0.000 0.628 0.255
0.000 0.628 0.255
0.000 0.628 0.255
0.000 0.628 0.255
0.000 0.638 0.249
0.000 0.652 0.237
0.000 0.665 0.239
0.000 0.670 0.253
0.000 0.675 0.264
0.198 0.694 0.265
0.473 0.727 0.265
0.669 0.761 0.264
0.822 0.783 0.254
0.914 0.789 0.229
0.955 0.792 0.235
0.972 0.793 0.246
0.980 0.795 0.299
0.985 0.797 0.365
0.988 0.794 0.426
0.989 0.782 0.469
0.987 0.763 0.502
0.985 0.746 0.528
0.983 0.741 0.551
0.988 0.775 0.555
0.991 0.818 0.608
0.994 0.857 0.673
0.994 0.881 0.726
0.993 0.884 0.746
0.992 0.886 0.774
0.990 0.887 0.810
0.000 0.643 0.293
0.000 0.643 0.293
0.000 0.643 0.293
0.000 0.643 0.293
0.000 0.643 0.293
0.000 0.643 0.293
0.000 0.643 0.293
0.000 0.644 0.292
0.000 0.654 0.290
0.000 0.664 0.292
0.000 0.670 0.314
0.000 0.676 0.333
0.005 0.690 0.346
0.334 0.720 0.353
0.547 0.760 0.362
0.728 0.797 0.374
0.862 0.819 0.371
0.934 0.824 0.359
0.964 0.828 0.363
0.978 0.830 0.373
0.985 0.834 0.416
0.989 0.836 0.467
0.992 0.835 0.512
0.993 0.823 0.519
0.992 0.796 0.491
0.990 0.775 0.501
0.988 0.776 0.552
0.991 0.818 0.607
0.994 0.857 0.673
0.994 0.881 0.725
0.993 0.884 0.746
0.992 0.886 0.774
0.990 0.887 0.810
0.000 0.652 0.333
0.000 0.652 0.333
0.000 0.652 0.333
0.000 0.652 0.333
0.000 0.652 0.333
0.000 0.652 0.333
0.000 0.652 0.333
0.000 0.652 0.333
0.000 0.654 0.333
0.000 0.661 0.336
0.000 0.667 0.357
0.000 0.673 0.382
0.000 0.683 0.403
0.087 0.707 0.419
0.421 0.746 0.433
0.614 0.792 0.449
0.782 0.830 0.466
0.894 0.849 0.465
0.949 0.855 0.457
0.972 0.859 0.459
0.983 0.864 0.474
0.988 0.869 0.513
0.991 0.872 0.563
0.993 0.873 0.604
0.994 0.862 0.590
0.995 0.831 0.528
0.993 0.813 0.544
0.991 0.819 0.607
0.994 0.857 0.673
0.994 0.881 0.725
0.993 0.884 0.745
0.992 0.886 0.774
0.990 0.887 0.810
0.000 0.658 0.372
0.000 0.658 0.372
0.000 0.658 0.372
0.000 0.658 0.372
0.000 0.658 0.372
0.000 0.658 0.372
0.000 0.658 0.372
0.000 0.658 0.372
0.000 0.658 0.372
0.000 0.660 0.374
0.000 0.665 0.393
0.000 0.670 0.418
0.000 0.678 0.445
0.000 0.695 0.469
0.249 0.728 0.488
0.496 0.775 0.510
0.678 0.825 0.532
0.828 0.861 0.553
0.916 0.879 0.556
0.959 0.885 0.545
0.979 0.890 0.551
0.986 0.895 0.567
0.990 0.898 0.598
0.992 0.903 0.646
0.993 0.905 0.691
0.993 0.898 0.697
0.995 0.870 0.620
0.994 0.854 0.619
0.994 0.859 0.672
0.994 0.881 0.724
0.993 0.884 0.745
0.992 0.886 0.774
0.990 0.887 0.809
0.000 0.663 0.418
0.000 0.663 0.418
0.000 0.663 0.417
0.000 0.663 0.417
0.000 0.663 0.417
0.000 0.663 0.417
0.000 0.663 0.417
0.000 0.663 0.417
0.000 0.663 0.417
0.000 0.663 0.417
0.000 0.665 0.428
0.000 0.669 0.451
0.000 0.676 0.479
0.000 0.688 0.508
0.024 0.714 0.533
0.352 0.754 0.558
0.568 0.806 0.585
0.738 0.857 0.611
0.867 0.890 0.633
0.932 0.906 0.641
0.969 0.913 0.626
0.984 0.919 0.633
0.988 0.923 0.652
0.990 0.927 0.684
0.992 0.929 0.719
0.992 0.930 0.759
0.991 0.928 0.786
0.994 0.903 0.724
0.995 0.886 0.691
0.994 0.883 0.723
0.993 0.884 0.745
0.992 0.886 0.773
0.990 0.887 0.809
0.000 0.668 0.476
0.000 0.668 0.476
0.000 0.668 0.476
0.000 0.668 0.476
0.000 0.668 0.476
0.000 0.668 0.476
0.000 0.668 0.476
0.000 0.668 0.476
0.000 0.668 0.476
0.000 0.668 0.476
0.000 0.668 0.476
0.000 0.671 0.490
0.000 0.676 0.514
0.000 0.687 0.542
0.000 0.706 0.572
0.156 0.739 0.601
0.438 0.786 0.628
0.640 0.842 0.658
0.795 0.892 0.684
0.893 0.919 0.706
0.943 0.932 0.715
0.973 0.939 0.703
0.987 0.945 0.702
0.990 0.948 0.725
0.990 0.950 0.754
0.991 0.952 0.784
0.990 0.952 0.814
0.987 0.950 0.839
0.992 0.929 0.804
0.995 0.907 0.747
0.994 0.885 0.743
0.992 0.886 0.773
0.990 0.887 0.808
0.000 0.676 0.542
0.000 0.676 0.542
0.000 0.676 0.542
0.000 0.676 0.542
0.000 0.676 0.542
0.000 0.675 0.541
0.000 0.675 0.541
0.000 0.675 0.541
0.000 0.675 0.541
0.000 0.675 0.541
0.000 0.675 0.541
0.000 0.675 0.541
0.000 0.680 0.555
0.000 0.690 0.581
0.000 0.706 0.610
0.023 0.733 0.639
0.315 0.774 0.667
0.528 0.827 0.694
0.716 0.884 0.724
0.841 0.926 0.748
0.913 0.946 0.767
0.950 0.956 0.776
0.975 0.961 0.769
0.988 0.965 0.767
0.992 0.967 0.782
0.992 0.968 0.807
0.992 0.969 0.831
0.989 0.968 0.850
0.987 0.963 0.862
0.988 0.949 0.854
0.995 0.918 0.776
0.993 0.888 0.769
0.990 0.887 0.807
0.000 0.691 0.610
0.000 0.691 0.610
0.000 0.691 0.610
0.000 0.691 0.610
0.000 0.691 0.610
0.000 0.691 0.610
0.000 0.691 0.610
0.000 0.691 0.610
0.000 0.691 0.610
0.000 0.691 0.610
0.000 0.691 0.610
0.000 0.691 0.610
0.000 0.691 0.610
0.000 0.699 0.627
0.000 0.714 0.651
0.004 0.738 0.677
0.207 0.772 0.704
0.445 0.820 0.731
0.637 0.876 0.756
0.790 0.925 0.781
0.879 0.955 0.801
0.931 0.967 0.816
0.960 0.972 0.822
0.978 0.975 0.821
0.989 0.977 0.821
0.991 0.978 0.832
0.991 0.979 0.850
0.990 0.979 0.864
0.988 0.977 0.871
0.988 0.972 0.874
0.987 0.963 0.873
0.992 0.933 0.820
0.991 0.892 0.802
0.000 0.718 0.680
0.000 0.718 0.680
0.000 0.718 0.680
0.000 0.718 0.680
0.000 0.718 0.680
0.000 0.718 0.680
0.000 0.718 0.680
0.000 0.718 0.680
0.000 0.718 0.680
0.000 0.718 0.680
0.000 0.718 0.680
0.000 0.718 0.680
0.000 0.718 0.680
0.000 0.718 0.680
0.000 0.730 0.696
0.002 0.751 0.718
0.145 0.781 0.742
0.398 0.823 0.767
0.575 0.874 0.788
0.743 0.923 0.809
0.849 0.957 0.828
0.910 0.973 0.841
0.946 0.979 0.848
0.970 0.981 0.853
0.982 0.983 0.856
0.988 0.984 0.860
0.989 0.985 0.868
0.989 0.985 0.875
0.989 0.984 0.880
0.988 0.983 0.883
0.988 0.980 0.881
0.988 0.973 0.880
0.988 0.951 0.867
0.000 0.759 0.748
0.000 0.759 0.748
0.000 0.759 0.748
0.000 0.759 0.748
0.000 0.759 0.748
0.000 0.759 0.748
0.000 0.759 0.748
0.000 0.759 0.748
0.000 0.759 0.748
0.000 0.759 0.748
0.000 0.759 0.748
0.000 0.759 0.748
0.000 0.759 0.748
0.000 0.759 0.748
0.000 0.759 0.748
0.012 0.775 0.762
0.151 0.799 0.780
0.378 0.834 0.800
0.545 0.878 0.819
0.704 0.924 0.834
0.825 0.958 0.850
0.893 0.975 0.863
0.931 0.983 0.868
0.957 0.986 0.870
0.976 0.987 0.874
0.985 0.987 0.877
0.988 0.988 0.880
0.988 0.988 0.885
0.988 0.988 0.888
0.988 0.987 0.890
0.988 0.986 0.890
0.988 0.985 0.890
0.988 0.980 0.890
0.085 0.810 0.808
0.085 0.810 0.808
0.085 0.810 0.808
0.085 0.810 0.808
0.085 0.810 0.808
0.085 0.810 0.808
0.085 0.810 0.808
0.085 0.810 0.808
0.085 0.810 0.808
0.085 0.810 0.808
0.085 0.810 0.808
0.085 0.810 0.808
0.085 0.810 0.808
0.085 0.810 0.808
0.085 0.810 0.808
0.085 0.810 0.808
0.232 0.827 0.818
0.397 0.855 0.833
0.543 0.891 0.847
0.683 0.929 0.857
0.804 0.960 0.869
0.880 0.976 0.881
0.921 0.985 0.884
0.946 0.988 0.883
0.965 0.989 0.885
0.978 0.989 0.888
0.984 0.989 0.890
0.986 0.989 0.892
0.986 0.989 0.894
0.987 0.989 0.896
0.987 0.989 0.896
0.987 0.988 0.897
0.987 0.987 0.899
0.351 0.863 0.853
0.351 0.863 0.853
0.351 0.863 0.853
0.351 0.863 0.853
0.351 0.863 0.853
0.351 0.863 0.853
0.351 0.863 0.853
0.351 0.863 0.853
0.351 0.863 0.853
