LUT/LogC4/709/looks/Alexa_LogC4_709_D65_5219_B.cube
LUT_3D_SIZE 5
0 0.00306706 0.00505074
0.338918 0 0
0.695445 0.135027 0.117906
0.836576 0.611246 0.458778
0.873167 0.809979 0.675242
0.0426947 0.210727 0.131563
0.346807 0.33547 0.0338598
0.715175 0.166735 0.118639
0.837629 0.612299 0.459831
0.873167 0.809979 0.675242
0.0895094 0.764553 0.358038
0.0831311 0.785153 0.335637
0.893233 0.808545 0.2224
0.831556 0.651194 0.427741
0.873182 0.809995 0.675242
0.308309 1 0.992706
0.308476 1 0.992859
0.322454 1 0.984863
0.971603 0.972427 0.808637
0.989105 0.96994 0.836133
0.663584 0.993698 0.884337
0.663584 0.993698 0.884337
0.663584 0.993698 0.884337
0.94728 0.997177 0.874266
0.986557 0.986419 0.857572
0.0254215 0.0116884 0.27039
0.373739 0.00169375 0.203006
0.737987 0.147707 0.268452
0.837797 0.609491 0.473014
0.872602 0.809415 0.679667
0.0451972 0.275441 0.360998
0.33283 0.344854 0.358816
0.782818 0.196536 0.310292
0.838865 0.610559 0.474067
0.872602 0.809415 0.679667
0.115419 0.77055 0.463935
0.110933 0.788052 0.456428
0.862623 0.816129 0.380728
0.83299 0.648646 0.445182
0.872709 0.809537 0.678782
0.321218 1 1
0.32134 1 1
0.334768 1 0.998154
0.971511 0.972335 0.809537
0.989105 0.969955 0.836149
0.665156 0.99527 0.885908
0.664591 0.994705 0.885328
0.663569 0.993683 0.884321
0.94728 0.997177 0.87425
0.986557 0.986419 0.857572
0 0.407752 0.628779
0 0.419791 0.638834
0.634333 0.247395 0.553597
0.84831 0.638148 0.628489
0.870954 0.801816 0.723018
0 0.437247 0.658274
0.00181582 0.459373 0.679408
0.704784 0.31783 0.624048
0.849409 0.639246 0.629587
0.870954 0.801816 0.723018
0.261311 0.873671 0.803815
0.26688 0.87924 0.8094
0.819455 0.848371 0.758434
0.852842 0.665675 0.633997
0.873762 0.804639 0.724834
0.315221 1 1
0.315373 1 1
0.285054 1 1
0.990112 0.994965 0.849134
1 0.979431 0.862608
0.690791 1 0.911543
0.690791 1 0.911543
0.690776 1 0.911528
0.969665 1 0.896651
0.995102 0.996979 0.871122
0.709163 0.759213 0.780118
0.717205 0.767254 0.788159
0.807996 0.813031 0.844984
0.876051 0.716075 0.837171
0.89749 0.810452 0.837552
0.710292 0.760357 0.781247
0.719097 0.769146 0.790051
0.808347 0.816388 0.847333
0.876371 0.716396 0.837491
0.89749 0.810452 0.837552
0.719112 0.769162 0.790066
0.719997 0.770047 0.790951
0.826703 0.839734 0.868681
1 0.842939 0.964034
0.897505 0.810483 0.837583
0.199207 1 1
0.199252 1 1
0.199863 1 1
0.977859 0.997787 0.915862
1 0.968627 0.974716
0.788998 0.967132 0.963851
0.788998 0.967132 0.963851
0.788998 0.967117 0.963851
0.989242 1 0.945251
0.996689 1 0.911681
0.906538 0.916548 0.916533
0.909483 0.919493 0.919478
0.949874 0.959884 0.959869
0.981765 0.956786 0.979782
0.903746 0.801755 0.882811
0.906462 0.916472 0.916457
0.90956 0.91957 0.919554
0.950134 0.960143 0.960128
0.982513 0.957519 0.980529
0.903746 0.801755 0.882811
0.897292 0.907301 0.907286
0.906935 0.916945 0.91693
0.952682 0.962692 0.962676
0.989822 0.964828 0.987839
1 0.920165 1
0.901381 0.911391 0.911376
0.901381 0.911391 0.911376
0.901305 0.911315 0.911299
1 0.984955 0.999954
1 0.95375 1
0.889036 0.924056 0.923003
0.889036 0.924056 0.923003
0.889036 0.924056 0.923003
0.971679 1 1
0.995026 1 0.931014
