LUT/LogC4/709/looks/Arri35_LogC4_709_D65_ArriFilm.cube
LUT_3D_SIZE 9
0 0 0
0.0376745 0.00640879 0.00482185
0.228412 0.0138399 0
0.428794 0 0
0.552819 0 0
0.629969 0 0
0.68423 0 0
0.710063 0 0
0.713909 0 0
0 0.0341802 0.00939956
0.0468299 0.0366827 0.0103761
0.254078 0.0231327 0
0.427863 0 0
0.552712 0 0
0.629969 0 0
0.68423 0 0
0.710063 0 0
0.713909 0 0
0 0.230228 0.0217899
0 0.232914 0.0222629
0.370855 0.292638 0
0.660182 0.209735 0
0.552346 0 0
0.629877 0 0
0.684199 0 0
0.710063 0 0
0.713909 0 0
0 0.47126 0.0196994
0 0.470192 0.0192874
0.0385748 0.581201 0
0.741115 0.648936 0
0.935622 0.569421 0
0.629602 0 0
0.684138 0 0
0.710018 0 0
0.713909 0 0
0 0.668452 0.269429
0 0.668284 0.268696
0 0.667659 0.266133
0.318502 0.849943 0.0500343
0.934768 0.876585 0.0418097
1 0.822293 0
0.946166 0.331441 0
0.709895 0 0
0.713909 0 0
0 0.796796 0.617594
0 0.796796 0.617594
0 0.796735 0.617121
0 0.79646 0.615167
0.70161 0.964279 0.446464
0.997711 0.976532 0.503258
1 0.96466 0.4804
1 0.917281 0.173358
1 0.894881 0
0 0.821103 0.795209
0 0.821088 0.795071
0 0.821088 0.795071
0 0.821057 0.794659
0 0.820981 0.793423
0.912657 0.991608 0.767117
0.999847 0.995178 0.808362
1 0.993713 0.814466
1 0.992325 0.804685
0 0.82385 0.860273
0 0.82385 0.860273
0 0.82385 0.860273
0 0.82385 0.860197
0 0.823835 0.859815
0.782483 0.984771 0.848569
0.987564 0.999344 0.897063
1 0.999268 0.913405
1 0.999146 0.916854
0 0.824201 0.878752
0 0.824201 0.878752
0 0.824201 0.878752
0 0.824216 0.878691
0 0.824216 0.878416
0.235172 0.933272 0.861006
0.979812 0.999847 0.920119
0.999756 0.999954 0.940307
1 0.999969 0.94519
0.000137331 0.00129702 0.0312352
0.049012 0.0077821 0.0300145
0.259281 0.00213626 0.0147707
0.468727 0 0
0.563943 0 0
0.629969 0 0
0.68423 0 0
0.710063 0 0
0.713909 0 0
0 0.0456855 0.0438392
0.0400397 0.0410163 0.0424811
0.2972 0.0204318 0.0182803
0.471183 0 0.0009308
0.567071 0 0
0.629969 0 0
0.68423 0 0
0.710063 0 0
0.713909 0 0
0 0.257694 0.0493782
0 0.259495 0.0458381
0.356542 0.302312 0.0218662
0.685863 0.209277 0
0.580011 0 0
0.629877 0 0
0.684199 0 0
0.710063 0 0
0.713909 0 0
0 0.491661 0.0709544
0 0.490654 0.0700694
0.00471504 0.577966 0.0171664
0.724193 0.646174 0
0.955856 0.570291 0
0.629602 0 0
0.684138 0 0
0.710018 0 0
0.713909 0 0
0 0.674022 0.323278
0 0.673747 0.322698
0 0.673198 0.321233
0.297627 0.850996 0.10811
0.930449 0.879973 0.143145
1 0.824491 0.0226596
0.947265 0.336614 0
0.709895 0 0
0.713909 0 0
0 0.797513 0.629725
0 0.797467 0.629465
0 0.797421 0.629206
0 0.797162 0.627466
0.696361 0.965072 0.472129
0.997345 0.978073 0.530526
1 0.965713 0.505562
1 0.923629 0.307027
1 0.894682 0
0 0.82118 0.797391
0 0.82118 0.797391
0 0.82118 0.797269
0 0.821164 0.797024
0 0.821149 0.795926
0.912383 0.991714 0.77026
0.999832 0.995346 0.811337
1 0.993973 0.818128
1 0.992615 0.808743
0 0.823865 0.861143
0 0.823865 0.861067
0 0.823865 0.861067
0 0.823865 0.86099
0 0.82385 0.860609
0.782361 0.984802 0.849699
0.987533 0.999374 0.897887
1 0.999313 0.91426
1 0.999191 0.917739
0 0.824186 0.879286
0 0.824186 0.879286
0 0.824201 0.879225
0 0.824201 0.879149
0 0.824201 0.87895
0.235859 0.933333 0.86183
0.979797 0.999863 0.920623
0.999756 0.999969 0.940841
1 0.999969 0.945678
0 0 0.231891
0.062623 0 0.24744
0.31606 0 0.254749
0.524407 0 0.240345
0.644953 0 0.217212
0.702678 0 0.136614
0.68423 0 0
0.710063 0 0
0.713909 0 0
0 0.019028 0.278401
0.00189212 0.00920119 0.3122
0.354894 0.0108644 0.297078
0.523781 0 0.24242
0.645197 0 0.220172
0.703349 0 0.140093
0.68423 0 0
0.710063 0 0
0.713909 0 0
0 0.293111 0.337667
0 0.291417 0.337697
0.30399 0.317494 0.338888
0.693889 0.193164 0.303166
0.646204 0 0.231189
0.705501 0 0.153552
0.684199 0 0
0.710063 0 0
0.713909 0 0
0 0.531929 0.350744
0 0.53106 0.350103
0 0.599634 0.313985
0.695628 0.656168 0.289494
0.949477 0.574914 0.278996
0.711879 0 0.197879
0.684138 0 0
0.710018 0 0
0.713909 0 0
0 0.688563 0.465003
0 0.688319 0.464698
0 0.687831 0.463798
0.242115 0.857099 0.316167
0.922408 0.889525 0.328466
1 0.841764 0.326574
0.947555 0.306401 0.168292
0.709895 0 0
0.713909 0 0
0 0.799725 0.665492
0 0.799725 0.665492
0 0.799634 0.665248
0 0.79942 0.664118
0.680293 0.967453 0.550179
0.995315 0.982101 0.60119
1 0.970687 0.592691
1 0.934829 0.491356
1 0.884718 0.280598
0 0.821454 0.805478
0 0.821454 0.805478
0 0.821454 0.805463
0 0.821439 0.805097
0 0.821424 0.80412
0.911345 0.992126 0.78146
0.999786 0.995941 0.821927
1 0.994659 0.82919
1 0.993606 0.822919
0 0.823941 0.864073
0 0.823941 0.864073
0 0.823941 0.864073
0 0.823941 0.863996
0 0.823926 0.863615
0.781903 0.984878 0.854093
0.987366 0.999481 0.900877
1 0.999466 0.917418
1 0.999344 0.920913
0 0.82414 0.881163
0 0.82414 0.881163
0 0.82414 0.881163
0 0.82414 0.881102
0 0.824155 0.880903
0.236164 0.93341 0.864759
0.979706 0.999878 0.922499
0.999756 1 0.942626
1 0.999985 0.947478
0 0 0.486671
0 6.10361e-05 0.544305
0.376272 0 0.572686
0.537026 0 0.456016
0.664027 0 0.442451
0.735058 0 0.421271
0.773419 0 0.379309
0.784924 0 0.298116
0.773068 0 0.162539
0 0.0387884 0.523751
0 0.0212863 0.571908
0.359365 0.0813916 0.614923
0.618799 0 0.52723
0.66389 0 0.442939
0.735042 0 0.421759
0.77348 0 0.380056
0.785046 0 0.29926
0.773388 0 0.165835
0 0.313497 0.599786
0 0.30341 0.614176
0.203784 0.319951 0.657374
0.697841 0.226078 0.62295
0.663523 0 0.444602
0.735073 0 0.423667
0.773648 0 0.382498
0.785504 0 0.3037
0.774563 0 0.177859
0 0.551659 0.626703
0 0.550988 0.626383
0 0.610361 0.663569
0.63859 0.667231 0.648173
0.939788 0.587701 0.640024
0.735302 0 0.430838
0.774304 0 0.39147
0.786984 0 0.3187
0.779263 0 0.218555
0 0.700069 0.663905
0 0.69984 0.66389
0 0.699397 0.663676
0.118959 0.865385 0.652781
0.898405 0.897276 0.665125
0.996811 0.851087 0.66009
0.963577 0.33817 0.602075
0.79089 0 0.362036
0.789532 0 0.307118
0 0.803708 0.738796
0 0.803708 0.738796
0 0.803662 0.738628
0 0.803433 0.737942
0.653178 0.971511 0.686244
0.989868 0.986847 0.725185
1 0.974182 0.735027
1 0.94229 0.706981
1 0.90544 0.66952
0 0.822492 0.83061
0 0.822492 0.83061
0 0.822492 0.830503
0 0.822477 0.830274
0 0.822446 0.829587
0.908263 0.993255 0.815274
0.999619 0.997452 0.851652
1 0.996506 0.860822
1 0.995789 0.858198
0 0.824186 0.874296
0 0.824186 0.874296
0 0.824186 0.874296
0 0.824186 0.87422
0 0.82417 0.873899
0.78056 0.985153 0.868986
0.986801 0.999832 0.911208
1 0.999771 0.926925
1 0.99971 0.930709
0 0.823957 0.887877
0 0.823957 0.887877
0 0.823957 0.887877
0 0.823957 0.887816
0 0.823957 0.887617
0.238575 0.933745 0.875044
0.979431 0.999924 0.929061
0.999725 1 0.94818
1 1 0.952987
0 0.192706 0.743236
0 0.172595 0.797925
0.279911 0.204105 0.834897
0.702144 0.178805 0.828199
0.667506 0 0.576379
0.736614 0 0.568093
0.778073 0 0.555077
0.796689 0 0.540047
0.800183 0 0.533028
0 0.254597 0.745998
0 0.216358 0.804593
0.217441 0.239948 0.84097
0.703075 0.208362 0.842451
0.699092 0 0.604379
0.736568 0 0.5682
0.778058 0 0.555169
0.796689 0 0.540139
0.800183 0 0.533104
0 0.39852 0.761379
0 0.38407 0.805386
0.0348974 0.399405 0.859434
0.692531 0.349889 0.870085
0.897353 0.173678 0.811719
0.736507 0 0.56846
0.778058 0 0.555459
0.796689 0 0.540413
0.800168 0 0.533379
0 0.556527 0.786954
0 0.556023 0.786892
0 0.611719 0.867384
0.584375 0.677836 0.885298
0.934218 0.615946 0.877363
0.900542 0.01355 0.709529
0.777951 0 0.556664
0.796643 0 0.541619
0.800092 0 0.53463
0 0.696468 0.806134
0 0.696361 0.806012
0 0.695903 0.805951
0.049485 0.859037 0.873198
0.87248 0.891615 0.878874
0.992294 0.848676 0.877226
0.979385 0.454444 0.845243
0.796506 0 0.545998
0.799908 0 0.539086
0 0.80383 0.835447
0 0.80383 0.835447
0 0.803769 0.835431
0 0.803479 0.835218
0.630823 0.975372 0.853269
0.980972 0.986633 0.86804
1 0.969162 0.873976
1 0.940322 0.871504
1 0.904784 0.868345
0 0.824002 0.878676
0 0.824002 0.878676
0 0.824002 0.87866
0 0.824002 0.878569
0 0.823987 0.878172
0.90193 0.994995 0.882719
0.999023 0.999451 0.907515
1 0.998901 0.916228
1 0.99794 0.916304
0 0.824338 0.899687
0 0.824338 0.899687
0 0.824338 0.899687
0 0.824338 0.899626
0 0.824323 0.899443
0.780194 0.985824 0.905241
0.98555 1 0.936461
1 1 0.949783
1 1 0.953445
0 0.824613 0.907607
0 0.824613 0.907607
0 0.824613 0.907607
0 0.824613 0.907546
0 0.824613 0.907408
0.251225 0.934569 0.901854
0.978698 1 0.946654
0.999664 1 0.962951
1 1 0.967041
0 0.498344 0.934615
0 0.516442 0.944991
0.00502022 0.556924 0.9561
0.646342 0.566964 0.971954
0.930343 0.431403 0.969894
0.731029 0 0.648203
0.774243 0 0.642435
0.79736 0 0.638651
0.802426 0 0.636988
0 0.509209 0.93373
0 0.525338 0.944274
0.00244144 0.57023 0.957076
0.640253 0.584283 0.972564
0.930617 0.459495 0.971572
0.731029 0 0.648203
0.774212 0 0.642435
0.79736 0 0.638651
0.802426 0 0.636988
0 0.537606 0.919951
0 0.54696 0.940932
0 0.607279 0.959487
0.615503 0.637949 0.974258
0.929717 0.549538 0.976379
0.933623 0.140749 0.872145
0.774212 0 0.642512
0.797314 0 0.638727
0.802441 0 0.637049
0 0.597253 0.877791
0 0.596963 0.878141
0 0.677485 0.960311
0.512383 0.745251 0.97586
0.915969 0.726772 0.985183
0.982101 0.497383 0.97171
0.774121 0 0.642725
0.797284 0 0.638926
0.802441 0 0.637263
0 0.696986 0.892958
0 0.696849 0.892943
0 0.696468 0.892866
0.0080415 0.862013 0.971481
0.846006 0.8916 0.989273
0.990967 0.858793 0.987533
0.99443 0.686641 0.978622
0.797131 0 0.639765
0.802472 0 0.638102
0 0.80177 0.917739
0 0.801694 0.917723
0 0.801617 0.917632
0 0.801312 0.917556
0.627344 0.974151 0.976257
0.968643 0.976165 0.972869
1 0.961578 0.97145
1 0.939025 0.974502
1 0.910704 0.978607
0 0.826047 0.935683
0 0.826047 0.935683
0 0.826047 0.935683
0 0.826032 0.935622
0 0.826017 0.935546
0.898802 0.996292 0.957794
0.997284 0.99942 0.964614
1 0.997253 0.968338
1 0.995621 0.968551
0 0.826139 0.939818
0 0.826139 0.939818
0 0.826139 0.939818
0 0.826139 0.939773
0 0.826139 0.939742
0.782956 0.98587 0.955749
0.983261 1 0.970352
1 1 0.978286
1 1 0.980331
0 0.826185 0.940444
0 0.826185 0.940444
0 0.826185 0.940444
0 0.826169 0.940414
0 0.826169 0.940383
0.299809 0.936965 0.944305
0.977951 1 0.973754
0.999512 1 0.983383
1 1 0.986038
0 0.747982 0.965454
0 0.761196 0.968917
0.0053254 0.792889 0.972854
0.569818 0.827909 0.984146
0.901732 0.826795 0.993774
0.989425 0.763149 0.99205
0.772015 0 0.70161
0.797299 0 0.700069
0.802976 0 0.699748
0 0.748272 0.964981
0 0.761959 0.96875
0.0011902 0.794507 0.972946
0.565316 0.830121 0.984085
0.900465 0.829938 0.993896
0.989563 0.768505 0.992309
0.772 0 0.701656
0.797253 0 0.700069
0.802976 0 0.699748
0 0.748852 0.962982
0 0.764019 0.9673
0 0.799619 0.972961
0.548486 0.837903 0.983795
0.895613 0.839414 0.994171
0.990021 0.786587 0.993164
0.771954 0 0.701656
0.797253 0 0.700069
0.802976 0 0.699748
0 0.730739 0.950576
0 0.758419 0.95848
0 0.811551 0.972229
0.482597 0.861753 0.982528
0.878462 0.870497 0.995056
0.990982 0.833143 0.995377
0.985595 0.493858 0.976211
0.797192 0 0.700175
0.802976 0 0.699855
0 0.722484 0.938613
0 0.722362 0.938613
0 0.722103 0.938598
0.098146 0.900008 0.977005
0.823941 0.92784 0.995712
0.990204 0.910109 0.998352
0.999496 0.863142 0.995773
0.951324 0.187884 0.902449
0.802945 0 0.700053
0 0.807355 0.943252
0 0.807263 0.943252
0 0.807172 0.943236
0 0.806882 0.943221
0.653223 0.97438 0.99202
0.957809 0.975891 0.99971
1 0.966033 0.999237
1 0.952651 0.998474
1 0.937087 0.997833
0 0.828092 0.949477
0 0.828092 0.949477
0 0.828092 0.949477
0 0.828092 0.949477
0 0.828092 0.949477
0.900786 0.996292 0.997314
0.993927 0.99707 0.99617
1 0.994659 0.995697
1 0.993637 0.995636
0 0.828077 0.949462
0 0.828077 0.949462
0 0.828077 0.949462
0 0.828077 0.949462
0 0.828077 0.949462
0.798138 0.985794 0.990677
0.982834 1 0.993454
1 1 0.995499
1 0.999954 0.99617
0 0.828092 0.949477
0 0.828092 0.949477
0 0.828092 0.949477
0 0.828092 0.949477
0 0.828092 0.949477
0.380453 0.942687 0.976074
0.978668 1 0.9935
0.99942 1 0.996826
1 1 0.997909
0 0.862135 0.974685
0.0009308 0.868009 0.975326
0.0724651 0.88246 0.976181
0.569726 0.908354 0.986786
0.86656 0.91577 0.996368
0.99147 0.898177 0.998337
0.998734 0.840467 0.996048
0.79202 0 0.723369
0.798032 0 0.723751
0 0.862089 0.974594
0.000534066 0.868086 0.975296
0.0655833 0.882872 0.976211
0.566781 0.908904 0.986709
0.865675 0.916503 0.996384
0.99144 0.899275 0.998383
0.998825 0.843122 0.996185
0.79202 0 0.723369
0.798032 0 0.723751
0 0.861662 0.974258
0 0.868208 0.975097
0.0371405 0.884367 0.976303
0.554894 0.911101 0.986374
0.862669 0.919524 0.996429
0.991257 0.903181 0.998535
0.999069 0.851865 0.996612
0.79202 0 0.723369
0.798032 0 0.723751
0 0.856153 0.971847
0 0.864836 0.973648
0 0.887007 0.976287
0.50837 0.917815 0.985031
0.851438 0.930022 0.996567
0.990219 0.915206 0.998993
0.999557 0.877211 0.997726
0.977279 0.36025 0.966247
0.798016 0 0.723781
0 0.76141 0.941054
0 0.761318 0.941039
0 0.857099 0.966506
0.243488 0.927672 0.979446
0.81529 0.953628 0.996506
0.983597 0.945296 0.999893
1 0.926619 0.999557
1 0.869276 0.997055
0.991028 0.664103 0.983688
0 0.814618 0.944213
0 0.814618 0.944213
0 0.814572 0.944198
0 0.81442 0.944183
0.687205 0.975509 0.992966
0.952209 0.981613 1
1 0.974899 1
1 0.967742 1
1 0.959442 0.999985
0 0.828092 0.949477
0 0.828092 0.949477
0 0.828092 0.949477
0 0.828092 0.949477
0 0.828092 0.949477
0.905821 0.996033 1
0.991974 0.996643 1
1 0.994965 1
1 0.994278 0.999985
0 0.828092 0.949477
0 0.828092 0.949477
0 0.828092 0.949477
0 0.828092 0.949477
0 0.828092 0.949477
0.81355 0.98558 0.996292
0.98352 1 1
0.999817 1 1
1 0.999924 1
0 0.828092 0.949477
0 0.828092 0.949477
0 0.828092 0.949477
0 0.828092 0.949477
0 0.828092 0.949477
0.465919 0.947585 0.980117
0.979934 1 1
0.999191 1 1
1 1 1
0.00456245 0.89601 0.976562
0.0126955 0.899825 0.976822
0.15967 0.908858 0.976913
0.588602 0.930968 0.987915
0.857359 0.940169 0.997086
0.989364 0.930144 0.999512
0.999908 0.903487 0.998596
0.996185 0.765194 0.990448
0.795193 0 0.731655
0.00411994 0.895842 0.976547
0.00653086 0.899947 0.976837
0.152712 0.909056 0.976867
0.586542 0.931243 0.987839
0.85658 0.940658 0.997086
0.989212 0.930632 0.999527
0.999908 0.904524 0.998627
0.996506 0.771679 0.99089
0.795193 0 0.731655
0.00260929 0.895415 0.976455
0.00422675 0.899611 0.976776
0.131701 0.909575 0.976913
0.579004 0.932479 0.987594
0.854276 0.942336 0.997086
0.988708 0.932586 0.999573
0.999969 0.908186 0.998764
0.997543 0.792493 0.992279
0.795193 0 0.731655
0 0.891875 0.975738
0.00030518 0.897246 0.976364
0.0558175 0.911177 0.977142
0.548012 0.936522 0.986542
0.845457 0.948501 0.997101
0.986664 0.939605 0.999741
1 0.91931 0.999207
0.999542 0.843595 0.995468
0.963928 0.24509 0.949889
0 0.830243 0.953536
0 0.848661 0.960739
0 0.889998 0.973816
0.377905 0.939834 0.980804
0.815183 0.963195 0.996704
0.977768 0.958282 1
1 0.946319 0.999924
1 0.918486 0.998886
1 0.868406 0.996689
0 0.818784 0.944793
0 0.818784 0.944793
0 0.818738 0.944793
0 0.818647 0.944778
0.7066 0.97731 0.993332
0.95053 0.984573 1
0.999985 0.979309 1
1 0.974014 1
1 0.968826 1
0 0.828092 0.949477
0 0.828092 0.949477
0 0.828092 0.949477
0 0.828092 0.949477
0 0.828092 0.949477
0.909834 0.996002 1
0.991684 0.996902 1
1 0.995804 1
1 0.995239 1
0 0.828092 0.949477
0 0.828092 0.949477
0 0.828092 0.949477
0 0.828092 0.949477
0 0.828092 0.949477
0.82269 0.985687 0.996338
0.984176 1 1
0.999634 1 1
1 1 1
0 0.828092 0.949477
0 0.828092 0.949477
0 0.828092 0.949477
0 0.828092 0.949477
0 0.828092 0.949477
0.53489 0.950393 0.981323
0.980926 1 1
0.999466 1 1
1 1 1
