LUT/LogC4/709/looks/Arri35_LogC4_709_D65_ArriFilm.cube
LUT_3D_SIZE 33
0 0 0
0.00213626 0.000686656 0.00315862
0.00604257 0.0012665 0.0040589
0.0120089 0.00280766 0.00479133
0.0376745 0.00640879 0.00482185
0.0713664 0.0112459 0.00399786
0.121263 0.0142214 0.000991836
0.171588 0.0147402 0
0.228412 0.0138399 0
0.284627 0.00610361 0
0.332937 0 0
0.382773 0 0
0.428794 0 0
0.465599 0 0
0.501518 0 0
0.525902 0 0
0.552819 0 0
0.573373 0 0
0.594293 0 0
0.613291 0 0
0.629969 0 0
0.646494 0 0
0.660395 0 0
0.672251 0 0
0.68423 0 0
0.689616 0 0
0.698787 0 0
0.706966 0 0
0.710063 0 0
0.712551 0 0
0.713909 0 0
0.713909 0 0
0.713909 0 0
0.000991836 0.000976577 0.00260929
0.0021973 0.00129702 0.00383001
0.00570687 0.00187686 0.00466926
0.0115663 0.00318914 0.00515755
0.03682 0.00639353 0.00502022
0.070222 0.0111543 0.00410468
0.120241 0.0142061 0.00102235
0.170809 0.0147402 0
0.227726 0.0138552 0
0.284184 0.0061799 0
0.332769 0 0
0.382635 0 0
0.428641 0 0
0.465599 0 0
0.501442 0 0
0.525902 0 0
0.552773 0 0
0.573281 0 0
0.594232 0 0
0.613291 0 0
0.629969 0 0
0.646494 0 0
0.660395 0 0
0.672251 0 0
0.68423 0 0
0.689616 0 0
0.698787 0 0
0.706966 0 0
0.710063 0 0
0.712551 0 0
0.713909 0 0
0.713909 0 0
0.713909 0 0
0.00120546 0.00384527 0.00444038
0.00204471 0.00384527 0.0049897
0.00556954 0.00428778 0.00556954
0.0117952 0.00547799 0.00598154
0.0378729 0.00796521 0.00607309
0.0714275 0.0122072 0.00512703
0.120729 0.0145724 0.00128176
0.169711 0.0147402 0
0.226871 0.0138705 0
0.283757 0.00627146 0
0.33225 0 0
0.382345 0 0
0.428489 0 0
0.465476 0 0
0.501442 0 0
0.525902 0 0
0.552773 0 0
0.573281 0 0
0.594232 0 0
0.613291 0 0
0.629969 0 0
0.646494 0 0
0.660395 0 0
0.672251 0 0
0.68423 0 0
0.689616 0 0
0.698787 0 0
0.706966 0 0
0.710063 0 0
0.712551 0 0
0.713909 0 0
0.713909 0 0
0.713909 0 0
0 0.0116121 0.00675975
0.00047303 0.0112612 0.00680552
0.00434882 0.0117037 0.0071107
0.0125277 0.013489 0.00750744
0.0430304 0.0159609 0.0075227
0.0804456 0.0180514 0.00637827
0.130755 0.0176547 0.00221256
0.178836 0.0169985 0
0.228931 0.014435 0
0.283024 0.00639353 0
0.331731 0 0
0.38204 0 0
0.428168 0 0
0.46537 0 0
0.50135 0 0
0.525795 0 0
0.552773 0 0
0.573281 0 0
0.594232 0 0
0.613291 0 0
0.629969 0 0
0.646494 0 0
0.660395 0 0
0.672175 0 0
0.68423 0 0
0.689616 0 0
0.698787 0 0
0.706966 0 0
0.710063 0 0
0.712551 0 0
0.713909 0 0
0.713909 0 0
0.713909 0 0
0 0.0341802 0.00939956
0 0.0331121 0.00923171
0.000381476 0.0321355 0.00943008
0.0100404 0.0334478 0.00994888
0.0468299 0.0366827 0.0103761
0.0936904 0.0385748 0.00929274
0.15021 0.0345769 0.00442512
0.204898 0.0284123 0
0.254078 0.0231327 0
0.29984 0.0137789 0
0.334203 0 0
0.38146 0 0
0.427863 0 0
0.465141 0 0
0.501274 0 0
0.525689 0 0
0.552712 0 0
0.57319 0 0
0.594232 0 0
0.613214 0 0
0.629969 0 0
0.646418 0 0
0.660395 0 0
0.672175 0 0
0.68423 0 0
0.689616 0 0
0.698787 0 0
0.706966 0 0
0.710063 0 0
0.712551 0 0
0.713909 0 0
0.713909 0 0
0.713909 0 0
0 0.0717632 0.014374
0 0.0709544 0.0142519
0 0.0703136 0.0141756
0.000122072 0.0721141 0.013901
0.0304417 0.0770428 0.0136721
0.0996414 0.0831617 0.0122835
0.173327 0.0819867 0.00627146
0.241001 0.072694 0
0.303441 0.0593118 0
0.355138 0.0358129 0
0.388159 0.0175631 0
0.395331 0 0
0.42739 0 0
0.464927 0 0
0.501122 0 0
0.525597 0 0
0.552651 0 0
0.57319 0 0
0.594186 0 0
0.613214 0 0
0.629969 0 0
0.646418 0 0
0.660395 0 0
0.672175 0 0
0.68423 0 0
0.689616 0 0
0.698787 0 0
0.706966 0 0
0.710063 0 0
0.712551 0 0
0.713909 0 0
0.713909 0 0
0.713909 0 0
0 0.118532 0.0181582
0 0.117708 0.0181125
0 0.116548 0.0180514
0 0.117418 0.0180056
0 0.121828 0.0174105
0.0818647 0.130343 0.0146029
0.177157 0.133989 0.00794995
0.261295 0.131807 0
0.340398 0.12549 0
0.411246 0.108263 0
0.466178 0.0746471 0
0.493431 0.0287785 0
0.473701 0 0
0.464591 0 0
0.500954 0 0
0.525383 0 0
0.55259 0 0
0.573098 0 0
0.594186 0 0
0.613214 0 0
0.629923 0 0
0.646418 0 0
0.660365 0 0
0.672175 0 0
0.684199 0 0
0.689616 0 0
0.698787 0 0
0.706966 0 0
0.710063 0 0
0.712551 0 0
0.713909 0 0
0.713909 0 0
0.713909 0 0
0 0.172259 0.0213931
0 0.171618 0.0213931
0 0.170855 0.0213626
0 0.170138 0.0211643
0 0.176822 0.020676
0.0431067 0.187762 0.0146792
0.158587 0.199619 0.00328069
0.272404 0.209628 1.5259e-05
0.366659 0.203937 0
0.450599 0.192691 0
0.517266 0.171359 0
0.564828 0.132097 0
0.594018 0.0683452 0
0.562844 0 0
0.500465 0 0
0.52517 0 0
0.552468 0 0
0.573007 0 0
0.594125 0 0
0.613123 0 0
0.629923 0 0
0.646418 0 0
0.660365 0 0
0.672175 0 0
0.684199 0 0
0.689616 0 0
0.698787 0 0
0.706966 0 0
0.710063 0 0
0.712551 0 0
0.713909 0 0
0.713909 0 0
0.713909 0 0
0 0.230228 0.0217899
0 0.229648 0.0217899
0 0.228885 0.0218051
0 0.227924 0.0218051
0 0.232914 0.0222629
0.00062562 0.250553 0.016434
0.0998856 0.267597 0.000869764
0.251652 0.288472 0
0.370855 0.292638 0
0.472511 0.288014 0
0.555108 0.276158 0
0.616144 0.249821 0
0.660182 0.209735 0
0.678798 0.140017 0
0.65687 0.0258488 0
0.524865 0 0
0.552346 0 0
0.572824 0 0
0.594079 0 0
0.613031 0 0
0.629877 0 0
0.646326 0 0
0.660365 0 0
0.672175 0 0
0.684199 0 0
0.689601 0 0
0.698787 0 0
0.706935 0 0
0.710063 0 0
0.712551 0 0
0.713909 0 0
0.713909 0 0
0.713909 0 0
0 0.293202 0.0192264
0 0.29279 0.0192416
0 0.292195 0.0192874
0 0.291585 0.0193179
0 0.290913 0.0196536
0 0.308339 0.0188602
0.0123903 0.337072 0
0.185214 0.363775 0
0.345815 0.381582 0
0.470832 0.383734 0
0.575051 0.373709 0
0.644984 0.359426 0
0.700404 0.336065 0
0.740993 0.298085 0
0.759274 0.226749 0
0.733104 0.0817578 0
0.552163 0 0
0.572625 0 0
0.593973 0 0
0.612955 0 0
0.629831 0 0
0.64625 0 0
0.660319 0 0
0.672114 0 0
0.684199 0 0
0.689601 0 0
0.698726 0 0
0.706935 0 0
0.710033 0 0
0.712551 0 0
0.713909 0 0
0.713909 0 0
0.713909 0 0
0 0.356268 0.0158236
0 0.355856 0.0158236
0 0.355612 0.0158083
0 0.354986 0.0158083
0 0.354345 0.0157931
0 0.35903 0.0165103
0 0.398764 0.000854505
0.0916915 0.433112 0
0.278645 0.462165 0
0.446204 0.474678 0
0.571176 0.472129 0
0.659464 0.46598 0
0.727443 0.450904 0
0.778134 0.427466 0
0.810834 0.382513 0
0.824781 0.31368 0
0.805844 0.183505 0
0.592966 0 0
0.593866 0 0
0.612787 0 0
0.629786 0 0
0.64625 0 0
0.660273 0 0
0.672114 0 0
0.684169 0 0
0.689601 0 0
0.698726 0 0
0.706935 0 0
0.710033 0 0
0.71252 0 0
0.713909 0 0
0.713909 0 0
0.713909 0 0
0 0.413138 0.0130159
0 0.412955 0.0130465
0 0.412741 0.0130465
0 0.41236 0.013077
0 0.411917 0.0130465
0 0.41117 0.0131228
0 0.435691 0.00460822
0 0.48896 0
0.183734 0.533028 0
0.387381 0.558282 0
0.551308 0.565011 0
0.660838 0.564904 0
0.741451 0.5579 0
0.802579 0.544213 0
0.847639 0.520104 0
0.875654 0.475898 0
0.884764 0.409186 0
0.868574 0.288823 0
0.683635 0 0
0.612604 0 0
0.629694 0 0
0.646097 0 0
0.660243 0 0
0.672038 0 0
0.684169 0 0
0.68957 0 0
0.698726 0 0
0.706935 0 0
0.710033 0 0
0.71252 0 0
0.713909 0 0
0.713909 0 0
0.713909 0 0
0 0.47126 0.0196994
0 0.471061 0.0196536
0 0.470863 0.0196078
0 0.470619 0.01944
0 0.470192 0.0192874
0 0.469718 0.0190127
0 0.468849 0.0186465
0 0.519631 0
0.0385748 0.581201 0
0.264012 0.625986 0
0.491798 0.646571 0
0.64062 0.652873 0
0.741115 0.648936 0
0.813382 0.641062 0
0.86894 0.627649 0
0.910109 0.605051 0
0.935622 0.569421 0
0.943954 0.515236 0
0.924193 0.391409 0
0.80177 0.0539254 0
0.629602 0 0
0.645945 0 0
0.660197 0 0
0.671977 0 0
0.684138 0 0
0.68957 0 0
0.698665 0 0
0.706905 0 0
0.710018 0 0
0.71252 0 0
0.713909 0 0
0.713909 0 0
0.713909 0 0
0 0.530388 0.0420996
0 0.530205 0.0419928
0 0.530175 0.041886
0 0.529961 0.0416724
0 0.529747 0.0414588
0 0.529351 0.0411231
0 0.528786 0.0408026
0 0.528176 0.0403754
0 0.59292 0.000518807
0.086305 0.661234 0
0.33434 0.70074 0
0.569955 0.718837 0
0.715557 0.724071 0
0.801541 0.722103 0
0.872328 0.717357 0
0.92723 0.705043 0
0.964828 0.683772 0
0.986969 0.65214 0
0.989822 0.599771 0
0.974914 0.506935 0
0.892912 0.214237 0
0.645777 0 0
0.660105 0 0
0.671839 0 0
0.684108 0 0
0.68954 0 0
0.698604 0 0
0.706874 0 0
0.710018 0 0
0.712489 0 0
0.713909 0 0
0.713909 0 0
0.713909 0 0
0 0.581827 0.0857862
0 0.581796 0.0856336
0 0.581674 0.0856489
0 0.581598 0.0853437
0 0.581445 0.0851911
0 0.581247 0.0848859
0 0.58088 0.0844434
0 0.580484 0.0838483
0 0.579965 0.0826581
0 0.662989 0.0462348
0.163821 0.728725 0.000534066
0.429007 0.761227 0
0.654566 0.777386 0
0.769162 0.775921 0
0.849195 0.771038 0
0.915404 0.765454 0
0.96614 0.757 0
0.994217 0.742596 0
1 0.717998 0
1 0.673274 0
1 0.603876 0
0.955047 0.381567 0
0.659983 0 0
0.671702 0 0
0.684062 0 0
0.689479 0 0
0.698528 0 0
0.706844 0 0
0.709987 0 0
0.712474 0 0
0.713909 0 0
0.713909 0 0
0.713909 0 0
0 0.627939 0.156435
0 0.627909 0.156161
0 0.627909 0.156161
0 0.627756 0.155871
0 0.62771 0.155596
0 0.627558 0.155306
0 0.627253 0.154742
0 0.627024 0.153887
0 0.626535 0.152743
0 0.629511 0.143816
0 0.732464 0.0723278
0.227955 0.789975 0.00720226
0.545586 0.825437 0
0.724285 0.833616 0
0.821271 0.832441 0.00062562
0.896483 0.828443 0
0.954437 0.81976 0
0.991882 0.806729 0
1 0.789425 0
1 0.774075 0
1 0.745785 0
1 0.684459 0
0.994583 0.553201 0
0.671504 0 0
0.684001 0 0
0.689418 0 0
0.698466 0 0
0.706813 0 0
0.709957 0 0
0.712444 0 0
0.713909 0 0
0.713909 0 0
0.713909 0 0
0 0.668452 0.269429
0 0.668452 0.269429
0 0.668421 0.269078
0 0.668421 0.269078
0 0.668284 0.268696
0 0.668254 0.268345
0 0.668116 0.267979
0 0.667964 0.267247
0 0.667659 0.266133
0 0.667231 0.264637
0 0.680232 0.211276
0.00981155 0.795071 0.109453
0.318502 0.849943 0.0500343
0.632471 0.876066 0.0365759
0.776394 0.882673 0.0739452
0.866361 0.881544 0.0603189
0.934768 0.876585 0.0418097
0.985428 0.86807 0.0141909
1 0.856657 0.013077
1 0.842237 0.00537118
1 0.822293 0
1 0.804776 0
1 0.762676 0
1 0.673213 0
0.946166 0.331441 0
0.689357 0 0
0.698283 0 0
0.706767 0 0
0.709895 0 0
0.712413 0 0
0.713909 0 0
0.713909 0 0
0.713909 0 0
0 0.705242 0.363928
0 0.705211 0.363622
0 0.705119 0.363592
0 0.705119 0.363592
0 0.705074 0.363287
0 0.704982 0.363256
0 0.704952 0.362951
0 0.704784 0.362325
0 0.704616 0.3617
0 0.704356 0.361028
0 0.703929 0.359731
0 0.745678 0.278813
0.0586252 0.852995 0.15462
0.42887 0.902464 0.122896
0.695567 0.921859 0.158862
0.822904 0.925643 0.16878
0.903548 0.923858 0.170214
0.965286 0.91986 0.172656
0.99762 0.911665 0.16553
1 0.900298 0.146517
1 0.88748 0.09308
1 0.869825 0.0304723
1 0.849958 0
1 0.832258 0
1 0.775204 0
1 0.654398 0
0.698146 0 0
0.706706 0 0
0.709834 0 0
0.712352 0 0
0.713909 0 0
0.713909 0 0
0.713909 0 0
0 0.741329 0.45919
0 0.741329 0.45919
0 0.741222 0.459144
0 0.741222 0.459144
0 0.741207 0.458885
0 0.741207 0.458885
0 0.741085 0.458564
0 0.741054 0.458305
0 0.740932 0.457984
0 0.740688 0.457359
0 0.74052 0.456504
0 0.740139 0.455299
0 0.808423 0.379294
0.174121 0.894133 0.229572
0.521614 0.934462 0.207431
0.752224 0.94847 0.221729
0.8607 0.952239 0.229419
0.93286 0.953368 0.244755
0.984421 0.950851 0.254627
1 0.944518 0.255177
1 0.937026 0.242054
1 0.926772 0.220172
1 0.911772 0.17229
1 0.890288 0.0564126
1 0.871641 0
1 0.853651 0
1 0.80235 0
1 0.701534 0
0.952895 0.370565 0
0.712276 0 0
0.713909 0 0
0.713909 0 0
0.713909 0 0
0 0.773709 0.54377
0 0.773709 0.54377
0 0.773709 0.54377
0 0.773709 0.54377
0 0.773678 0.543526
0 0.773678 0.543526
0 0.773602 0.543481
0 0.773587 0.543236
0 0.773495 0.542947
0 0.773373 0.542412
0 0.773251 0.541878
0 0.773053 0.541299
0 0.772824 0.54023
0 0.841321 0.443366
0.270146 0.920256 0.313512
0.625437 0.951385 0.30779
0.798535 0.961166 0.311223
0.89099 0.964843 0.319219
0.955215 0.966522 0.330541
0.993362 0.965728 0.349065
1 0.962768 0.361349
1 0.958724 0.355718
1 0.953399 0.350179
1 0.945876 0.329656
1 0.931411 0.274403
1 0.910964 0.138903
1 0.893263 0.0056611
1 0.885771 0
1 0.858701 0
1 0.820813 0
1 0.767971 0
1 0.693202 0
0.998016 0.587625 0
0 0.796796 0.617594
0 0.796796 0.617594
0 0.796796 0.617594
0 0.796796 0.617594
0 0.796796 0.617594
0 0.79678 0.61738
0 0.79678 0.61738
0 0.796735 0.617121
0 0.796735 0.617121
0 0.796689 0.616861
0 0.796628 0.616388
0 0.796567 0.6159
0 0.79646 0.615167
0 0.796323 0.614374
0 0.876081 0.520485
0.373678 0.943679 0.457313
0.70161 0.964279 0.446464
0.837201 0.972274 0.459358
0.914412 0.975586 0.47895
0.969436 0.977157 0.495583
0.997711 0.976532 0.503258
1 0.974685 0.50782
1 0.97203 0.505989
1 0.968475 0.495644
1 0.96466 0.4804
1 0.957992 0.456352
1 0.949248 0.418647
1 0.935943 0.338781
1 0.917281 0.173358
1 0.910155 0.0360571
1 0.91281 0
1 0.903578 0
1 0.894881 0
0 0.808667 0.678859
0 0.808667 0.678859
0 0.808667 0.678859
0 0.808667 0.678859
0 0.808667 0.678706
0 0.808667 0.678706
0 0.808652 0.67866
0 0.808652 0.67866
0 0.808637 0.678508
0 0.808606 0.678294
0 0.808591 0.678141
0 0.808576 0.677943
0 0.808515 0.677531
0 0.808454 0.676982
0 0.808377 0.676265
0.02327 0.909819 0.587655
0.53669 0.96051 0.559731
0.768658 0.974456 0.563455
0.872816 0.980621 0.579965
0.936553 0.983581 0.598077
0.980468 0.984787 0.611978
0.999969 0.984421 0.618906
1 0.983139 0.62179
1 0.981674 0.620539
1 0.979843 0.613642
1 0.977234 0.598581
1 0.973587 0.576715
1 0.968765 0.552926
1 0.964263 0.528923
1 0.959899 0.501991
1 0.955642 0.473808
1 0.948638 0.424079
1 0.942092 0.374319
0 0.81445 0.725567
0 0.81445 0.725567
0 0.81445 0.725567
0 0.81445 0.725567
0 0.81445 0.725567
0 0.81445 0.725567
0 0.814435 0.725429
0 0.814435 0.725429
0 0.81442 0.725383
0 0.81442 0.725246
0 0.814404 0.725063
0 0.814389 0.724926
0 0.814374 0.724605
0 0.814328 0.724239
0 0.814282 0.723735
0 0.814221 0.723049
0.222309 0.938369 0.637522
0.670695 0.97174 0.634043
0.827222 0.98201 0.645609
0.906935 0.986465 0.663371
0.956558 0.988647 0.679164
0.989319 0.989487 0.69044
1 0.989197 0.698009
1 0.988449 0.702388
1 0.987671 0.704097
1 0.986725 0.702373
1 0.985397 0.695842
1 0.983658 0.684306
1 0.981567 0.671183
1 0.97937 0.656886
1 0.977142 0.641794
1 0.975296 0.624414
1 0.9738 0.608835
0 0.819181 0.765225
0 0.819181 0.765225
0 0.819181 0.765225
0 0.819181 0.765225
0 0.819181 0.765225
0 0.819165 0.765087
0 0.819165 0.765087
0 0.81915 0.765042
0 0.81915 0.765042
0 0.81915 0.76492
0 0.819135 0.764874
0 0.81912 0.764736
0 0.819089 0.764569
0 0.819059 0.764263
0 0.818998 0.763775
0 0.818936 0.763302
0 0.818845 0.762646
0.469276 0.960723 0.691936
0.765637 0.980484 0.698833
0.874449 0.987518 0.713191
0.933852 0.990814 0.72987
0.971725 0.992386 0.74345
0.994644 0.992966 0.753246
0.999756 0.992676 0.759625
1 0.992142 0.763775
1 0.991516 0.76553
1 0.990875 0.765301
1 0.990173 0.762875
1 0.989441 0.758984
1 0.988724 0.754543
1 0.988052 0.750011
1 0.987488 0.743877
1 0.98703 0.737896
0 0.821103 0.795209
0 0.821088 0.795071
0 0.821088 0.795071
0 0.821088 0.795071
0 0.821088 0.795071
0 0.821088 0.795071
0 0.821088 0.795071
0 0.821088 0.795071
0 0.821088 0.795071
0 0.821073 0.794934
0 0.821073 0.794934
0 0.821073 0.794812
0 0.821057 0.794659
0 0.821057 0.794522
0 0.821027 0.794247
0 0.821012 0.793835
0 0.820981 0.793423
0 0.911833 0.749355
0.665156 0.974578 0.740749
0.834836 0.986694 0.751293
0.912657 0.991608 0.767117
0.955505 0.993927 0.782284
0.983169 0.995056 0.794095
0.997223 0.995361 0.802487
0.999847 0.995178 0.808362
1 0.994812 0.812177
1 0.99443 0.814313
1 0.99411 0.815167
1 0.993713 0.814466
1 0.993332 0.81297
1 0.992935 0.811154
1 0.992599 0.808255
1 0.992325 0.804685
0 0.821622 0.817578
0 0.821622 0.817578
0 0.821622 0.817578
0 0.821622 0.817578
0 0.821622 0.817578
0 0.821622 0.817578
0 0.821622 0.817456
0 0.821622 0.817456
0 0.821622 0.817456
0 0.821622 0.817456
0 0.821622 0.817349
0 0.821622 0.817349
0 0.821607 0.817227
0 0.821607 0.817105
0 0.821591 0.816876
0 0.821591 0.816632
0 0.821576 0.816281
0 0.821561 0.81593
0.421698 0.956466 0.771252
0.781277 0.983856 0.782254
0.88687 0.991226 0.795636
0.940993 0.994675 0.8112
0.97171 0.996246 0.824491
0.99086 0.996933 0.834287
0.998596 0.997055 0.841352
1 0.996902 0.846159
1 0.996658 0.849393
1 0.996429 0.851286
1 0.996185 0.852186
1 0.995956 0.852338
1 0.995773 0.852399
1 0.99559 0.851316
1 0.995453 0.849165
0 0.822568 0.835752
0 0.822568 0.835752
0 0.822568 0.835752
0 0.822568 0.835752
0 0.822568 0.835752
0 0.822568 0.835752
0 0.822553 0.835645
0 0.822553 0.835645
0 0.822553 0.835645
0 0.822553 0.835645
0 0.822553 0.835645
0 0.822553 0.835538
0 0.822553 0.835431
0 0.822553 0.835431
0 0.822538 0.835218
0 0.822522 0.835111
0 0.822507 0.834791
0 0.822477 0.83447
0 0.859419 0.820523
0.698894 0.977737 0.805158
0.858442 0.990311 0.818357
0.925551 0.99469 0.832502
0.961898 0.996963 0.84741
0.983215 0.997894 0.858015
0.99556 0.998245 0.866056
1 0.998215 0.871565
1 0.998032 0.875334
1 0.997864 0.877867
1 0.997711 0.879561
1 0.997589 0.880613
1 0.997482 0.881209
1 0.997391 0.881361
1 0.997314 0.879973
0 0.823484 0.850278
0 0.823484 0.850278
0 0.823484 0.850278
0 0.823484 0.850278
0 0.823484 0.850278
0 0.823484 0.850278
0 0.823484 0.850278
0 0.823484 0.850278
0 0.823484 0.850278
