LUT/LogC4/709/looks/Arri35_LogC4_709_D65_ArriFilm.cube
LUT_3D_SIZE 5
0 0 0
0.228412 0.0138399 0
0.552819 0 0
0.68423 0 0
0.713909 0 0
0 0.230228 0.0217899
0.370855 0.292638 0
0.552346 0 0
0.684199 0 0
0.713909 0 0
0 0.668452 0.269429
0 0.667659 0.266133
0.934768 0.876585 0.0418097
0.946166 0.331441 0
0.713909 0 0
0 0.821103 0.795209
0 0.821088 0.795071
0 0.820981 0.793423
0.999847 0.995178 0.808362
1 0.992325 0.804685
0 0.824201 0.878752
0 0.824201 0.878752
0 0.824216 0.878416
0.979812 0.999847 0.920119
1 0.999969 0.94519
0 0 0.231891
0.31606 0 0.254749
0.644953 0 0.217212
0.68423 0 0
0.713909 0 0
0 0.293111 0.337667
0.30399 0.317494 0.338888
0.646204 0 0.231189
0.684199 0 0
0.713909 0 0
0 0.688563 0.465003
0 0.687831 0.463798
0.922408 0.889525 0.328466
0.947555 0.306401 0.168292
0.713909 0 0
0 0.821454 0.805478
0 0.821454 0.805463
0 0.821424 0.80412
0.999786 0.995941 0.821927
1 0.993606 0.822919
0 0.82414 0.881163
0 0.82414 0.881163
0 0.824155 0.880903
0.979706 0.999878 0.922499
1 0.999985 0.947478
0 0.192706 0.743236
0.279911 0.204105 0.834897
0.667506 0 0.576379
0.778073 0 0.555077
0.800183 0 0.533028
0 0.39852 0.761379
0.0348974 0.399405 0.859434
0.897353 0.173678 0.811719
0.778058 0 0.555459
0.800168 0 0.533379
0 0.696468 0.806134
0 0.695903 0.805951
0.87248 0.891615 0.878874
0.979385 0.454444 0.845243
0.799908 0 0.539086
0 0.824002 0.878676
0 0.824002 0.87866
0 0.823987 0.878172
0.999023 0.999451 0.907515
1 0.99794 0.916304
0 0.824613 0.907607
0 0.824613 0.907607
0 0.824613 0.907408
0.978698 1 0.946654
1 1 0.967041
0 0.747982 0.965454
0.0053254 0.792889 0.972854
0.901732 0.826795 0.993774
0.772015 0 0.70161
0.802976 0 0.699748
0 0.748852 0.962982
0 0.799619 0.972961
0.895613 0.839414 0.994171
0.771954 0 0.701656
0.802976 0 0.699748
0 0.722484 0.938613
0 0.722103 0.938598
0.823941 0.92784 0.995712
0.999496 0.863142 0.995773
0.802945 0 0.700053
0 0.828092 0.949477
0 0.828092 0.949477
0 0.828092 0.949477
0.993927 0.99707 0.99617
1 0.993637 0.995636
0 0.828092 0.949477
0 0.828092 0.949477
0 0.828092 0.949477
0.978668 1 0.9935
1 1 0.997909
0.00456245 0.89601 0.976562
0.15967 0.908858 0.976913
0.857359 0.940169 0.997086
0.999908 0.903487 0.998596
0.795193 0 0.731655
0.00260929 0.895415 0.976455
0.131701 0.909575 0.976913
0.854276 0.942336 0.997086
0.999969 0.908186 0.998764
0.795193 0 0.731655
0 0.830243 0.953536
0 0.889998 0.973816
0.815183 0.963195 0.996704
1 0.946319 0.999924
1 0.868406 0.996689
0 0.828092 0.949477
0 0.828092 0.949477
0 0.828092 0.949477
0.991684 0.996902 1
1 0.995239 1
0 0.828092 0.949477
0 0.828092 0.949477
0 0.828092 0.949477
0.980926 1 1
1 1 1
