LUT/LogC3/Alexa_LogC3_709_D65_ArriFilm.cube
LUT_3D_SIZE 9
0.000000 0.000000 0.000000
0.015503 0.003128 0.004196
0.084398 0.012314 0.002823
0.236683 0.013642 0.000000
0.400488 0.000000 0.000000
0.521508 0.000000 0.000000
0.601099 0.000000 0.000000
0.665476 0.000000 0.000000
0.713909 0.000000 0.000000
0.000000 0.019120 0.006668
0.027802 0.026398 0.008545
0.119677 0.035370 0.006256
0.292348 0.032166 0.000000
0.491279 0.012070 0.000000
0.626490 0.000000 0.000000
0.706447 0.000000 0.000000
0.766613 0.000000 0.000000
0.811337 0.000000 0.000000
0.000000 0.098314 0.016770
0.000000 0.106126 0.015320
0.150683 0.124056 0.010010
0.372061 0.135958 0.000000
0.591119 0.121950 0.000000
0.733730 0.087205 0.000000
0.824475 0.094636 0.000000
0.883619 0.113161 0.000000
0.914092 0.145464 0.000000
0.000000 0.255558 0.020340
0.000000 0.275242 0.018677
0.102007 0.309239 0.000000
0.422553 0.359533 0.000000
0.680415 0.370932 0.000000
0.836332 0.362524 0.000000
0.927718 0.369467 0.000000
0.959899 0.395758 0.000000
0.964172 0.420890 0.000000
0.000000 0.428824 0.000000
0.000000 0.472877 0.000000
0.037827 0.530434 0.000000
0.394949 0.610391 0.000000
0.727520 0.638666 0.000000
0.900298 0.646403 0.000000
0.999069 0.653742 0.000000
1.000000 0.666224 0.000000
1.000000 0.683375 0.000000
0.000000 0.578546 0.000000
0.000000 0.613931 0.000000
0.000000 0.685283 0.000000
0.285283 0.777829 0.000000
0.726070 0.836301 0.000000
0.906676 0.849210 0.000000
1.000000 0.849470 0.000000
1.000000 0.856062 0.000000
1.000000 0.864515 0.000000
0.000000 0.689860 0.000000
0.000000 0.724346 0.000000
0.000000 0.787304 0.000000
0.235584 0.876539 0.000000
0.717876 0.942199 0.000000
0.895567 0.951644 0.000000
0.992248 0.949722 0.000000
1.000000 0.948775 0.000000
1.000000 0.948486 0.000000
0.000000 0.751614 0.000000
0.000000 0.765438 0.000000
0.000000 0.806897 0.000000
0.255360 0.877577 0.000000
0.717449 0.946395 0.000000
0.886091 0.960250 0.000000
0.968444 0.958892 0.000000
1.000000 0.957748 0.000000
1.000000 0.957046 0.058274
0.000000 0.751415 0.016571
0.000000 0.759304 0.000000
0.000000 0.806104 0.000000
0.345235 0.868345 0.000000
0.718730 0.942550 0.000000
0.886061 0.961700 0.000000
0.952590 0.958816 0.018204
0.998703 0.955306 0.163195
1.000000 0.953933 0.253864
0.000473 0.000824 0.021195
0.019135 0.004608 0.019669
0.100572 0.013397 0.025452
0.264042 0.000000 0.002197
0.445304 0.000000 0.000000
0.560189 0.000000 0.000000
0.638056 0.000000 0.000000
0.698024 0.000000 0.000000
0.741329 0.000000 0.000000
0.000000 0.021805 0.025772
0.022583 0.025345 0.028046
0.123934 0.031891 0.026184
0.315587 0.027192 0.000000
0.533303 0.000000 0.000000
0.667353 0.000000 0.000000
0.744182 0.000000 0.000000
0.797848 0.000000 0.000000
0.836561 0.000000 0.000000
0.000000 0.104967 0.032319
0.000000 0.115145 0.027756
0.140719 0.129488 0.025223
0.371450 0.134112 0.000000
0.611566 0.106386 0.000000
0.770230 0.069825 0.000000
0.862318 0.079332 0.000000
0.909468 0.095766 0.000000
0.916930 0.120256 0.000000
0.000000 0.275425 0.030564
0.000000 0.292882 0.030091
0.062425 0.321492 0.011490
0.412543 0.370275 0.000000
0.692927 0.369146 0.000000
0.861372 0.351415 0.000000
0.950225 0.359808 0.000000
0.963516 0.390646 0.000000
0.966125 0.415427 0.000000
0.000000 0.447944 0.001328
0.000000 0.487999 0.000000
0.000000 0.543679 0.000000
0.346822 0.622141 0.000000
0.729625 0.648402 0.000000
0.921157 0.658625 0.000000
1.000000 0.650919 0.000000
1.000000 0.664332 0.000000
1.000000 0.683162 0.000000
0.000000 0.594263 0.000000
0.000000 0.628901 0.000000
0.000000 0.691951 0.000000
0.233448 0.788296 0.000000
0.706233 0.849393 0.000000
0.912795 0.857954 0.000000
1.000000 0.852186 0.000000
1.000000 0.858610 0.000000
1.000000 0.864607 0.000000
0.000000 0.702968 0.000000
0.000000 0.730831 0.000000
0.000000 0.785977 0.000000
0.199222 0.867948 0.000000
0.663493 0.942138 0.000000
0.884169 0.952636 0.000000
0.994018 0.949401 0.000000
1.000000 0.949294 0.000000
1.000000 0.949050 0.000000
0.000000 0.751614 0.000000
0.000000 0.759686 0.000000
0.000000 0.800031 0.000000
0.183597 0.867765 0.000000
0.672526 0.944091 0.000000
0.871901 0.960586 0.000000
0.963714 0.958419 0.000000
1.000000 0.957443 0.000000
1.000000 0.956619 0.159030
0.000000 0.751049 0.135454
0.000000 0.753201 0.094591
0.000000 0.799680 0.006424
0.234897 0.859586 0.000000
0.685496 0.939132 0.000000
0.876371 0.961120 0.007416
0.947799 0.958175 0.124285
0.996368 0.954498 0.218982
1.000000 0.953307 0.294316
0.000000 0.000000 0.106996
0.026535 0.000000 0.099702
0.114656 0.010773 0.108309
0.295689 0.000000 0.114473
0.470192 0.000000 0.107271
0.591302 0.000000 0.109102
0.671183 0.000000 0.104692
0.728084 0.000000 0.104631
0.766979 0.000000 0.106966
0.000000 0.005905 0.121691
0.000778 0.016587 0.126772
0.131838 0.025422 0.127382
0.349874 0.020035 0.123552
0.554421 0.000000 0.101778
0.698131 0.000000 0.098909
0.776715 0.000000 0.095598
0.825452 0.000000 0.106935
0.859174 0.000000 0.124239
0.000000 0.113039 0.138567
0.000000 0.115724 0.136690
0.119249 0.125017 0.136126
0.369604 0.125032 0.126162
0.621775 0.080873 0.081346
0.790112 0.049516 0.060441
0.886595 0.052186 0.057267
0.907805 0.066468 0.094606
0.911666 0.076570 0.130037
0.000000 0.290639 0.128908
0.000000 0.305333 0.107958
0.000000 0.328283 0.090715
0.383474 0.369848 0.088350
0.678080 0.363882 0.037308
0.868009 0.340505 0.000000
0.943832 0.335378 0.000000
0.956634 0.362219 0.019425
0.959365 0.397650 0.097658
0.000000 0.476875 0.061219
0.000000 0.507851 0.053513
0.000000 0.543938 0.042512
0.266957 0.619730 0.000000
0.708461 0.648264 0.000000
0.918257 0.642924 0.000000
0.997803 0.640803 0.000000
1.000000 0.653666 0.000000
1.000000 0.674571 0.074800
0.000000 0.619165 0.067781
0.000000 0.647608 0.059876
0.000000 0.697704 0.047501
0.163607 0.784253 0.000000
0.656275 0.850401 0.000000
0.912291 0.852934 0.000000
1.000000 0.845075 0.000000
1.000000 0.847333 0.000000
1.000000 0.852323 0.033387
0.000000 0.721935 0.082582
0.000000 0.743542 0.058366
0.000000 0.783200 0.047364
0.104631 0.853040 0.000000
0.507073 0.935637 0.000000
0.863935 0.947921 0.000000
0.994842 0.943359 0.000000
1.000000 0.941421 0.000000
1.000000 0.939590 0.099443
0.000000 0.768002 0.243641
0.000000 0.768521 0.189776
0.000000 0.799680 0.103243
0.042817 0.849485 0.029984
0.559823 0.931106 0.000000
0.846784 0.956146 0.000000
0.955871 0.950896 0.000000
1.000000 0.947646 0.099672
1.000000 0.946807 0.259846
0.000000 0.764202 0.318929
0.000000 0.763699 0.290715
0.000000 0.803632 0.260700
0.016724 0.844709 0.161685
0.604471 0.921508 0.090669
0.853300 0.952880 0.138125
0.941817 0.950790 0.254643
0.992660 0.951949 0.391165
1.000000 0.953475 0.472129
0.000000 0.000000 0.244450
0.002243 0.000000 0.260533
0.145541 0.000000 0.271611
0.328969 0.000000 0.294194
0.502907 0.000000 0.281010
0.623941 0.000000 0.292836
0.698466 0.000000 0.287709
0.751278 0.000000 0.279545
0.786419 0.000000 0.280095
0.000000 0.000000 0.286473
0.000000 0.000000 0.319371
0.151522 0.000000 0.346410
0.364416 0.000000 0.331640
0.582605 0.000000 0.311650
0.724865 0.000000 0.314839
0.799481 0.000000 0.302007
0.845579 0.000000 0.306508
0.876387 0.000000 0.314229
0.000000 0.071962 0.325170
0.000000 0.062989 0.343252
0.092058 0.073625 0.385794
0.376303 0.081361 0.371054
0.638270 0.073030 0.344198
0.809033 0.047166 0.337942
0.899733 0.055360 0.323781
0.912474 0.072236 0.335393
0.918700 0.090379 0.350332
0.000000 0.311620 0.377188
0.000000 0.319310 0.391119
0.000000 0.335607 0.396963
0.342351 0.365301 0.379385
0.671931 0.360784 0.355352
0.874571 0.330297 0.347845
0.944839 0.313558 0.345861
0.955337 0.343206 0.367041
0.959487 0.392508 0.398215
0.000000 0.517586 0.352193
0.000000 0.538537 0.324422
0.000000 0.569848 0.336034
0.129519 0.623178 0.293584
0.677867 0.654917 0.306950
0.909957 0.657969 0.320226
0.988647 0.649989 0.322301
0.998230 0.662394 0.350774
1.000000 0.683726 0.399985
0.000000 0.653376 0.344671
0.000000 0.677638 0.301457
0.000000 0.724178 0.263157
0.000000 0.782345 0.195193
0.591516 0.848829 0.157076
0.893141 0.864973 0.211963
1.000000 0.861326 0.240269
1.000000 0.861997 0.314458
1.000000 0.864530 0.414832
0.000000 0.754635 0.386175
0.000000 0.771252 0.341695
0.000000 0.804715 0.263737
0.000000 0.850950 0.164111
0.376638 0.921309 0.130251
0.824796 0.952285 0.180255
0.992691 0.959365 0.230243
1.000000 0.959945 0.300481
1.000000 0.955779 0.469139
0.000000 0.790738 0.462852
0.000000 0.789136 0.439567
0.000000 0.820966 0.413153
0.000000 0.862303 0.297597
0.362799 0.921019 0.181827
0.788495 0.958602 0.209201
0.945083 0.966827 0.311467
1.000000 0.969390 0.466316
1.000000 0.970642 0.570718
0.000000 0.787076 0.493996
0.000000 0.786679 0.473426
0.000000 0.819394 0.463676
0.000000 0.856504 0.415518
0.496239 0.913619 0.383200
0.804807 0.955932 0.430137
0.934936 0.969223 0.515129
0.988739 0.972442 0.603983
1.000000 0.975830 0.684825
0.000000 0.000000 0.329091
0.000000 0.000000 0.377508
0.148928 0.000000 0.421363
0.339834 0.000000 0.446098
0.508598 0.000000 0.455100
0.635386 0.000000 0.445762
0.712673 0.000000 0.437736
0.766049 0.000000 0.434241
0.799893 0.000000 0.422385
0.000000 0.000000 0.414542
0.000000 0.000000 0.461769
0.132341 0.000000 0.508583
0.374105 0.000000 0.533730
0.582681 0.000000 0.519860
0.727947 0.000000 0.516197
0.808087 0.000000 0.487282
0.856153 0.000000 0.483589
0.890089 0.000000 0.484092
0.000000 0.000000 0.493706
0.000000 0.000000 0.530251
0.008988 0.050263 0.575311
0.374701 0.069871 0.604898
0.632807 0.082033 0.578576
0.811246 0.058045 0.565377
0.906065 0.063157 0.548974
0.921553 0.088991 0.544457
0.926680 0.104570 0.551522
0.000000 0.280491 0.588769
0.000000 0.269886 0.615534
0.000000 0.282841 0.642939
0.316182 0.308904 0.653620
0.662745 0.306188 0.621454
0.877485 0.271031 0.617533
0.951049 0.258549 0.609247
0.961212 0.289769 0.612802
0.963561 0.377737 0.621332
0.000000 0.527810 0.607980
0.000000 0.540612 0.622980
0.000000 0.566415 0.644694
0.013748 0.619989 0.645121
0.626093 0.651575 0.630838
0.888930 0.653147 0.628489
0.980301 0.640436 0.624842
0.992279 0.654597 0.634623
0.995087 0.679988 0.654658
0.000000 0.672877 0.625681
0.000000 0.696712 0.632975
0.000000 0.737758 0.636835
0.000000 0.799451 0.627451
0.483116 0.852552 0.609339
0.867552 0.874083 0.622644
0.992920 0.869474 0.629023
1.000000 0.869306 0.640345
1.000000 0.872099 0.667353
0.000000 0.778363 0.644648
0.000000 0.796292 0.636942
0.000000 0.827283 0.620203
0.000000 0.875685 0.586450
0.262776 0.935790 0.552834
0.775479 0.970138 0.548959
0.981567 0.979492 0.596323
1.000000 0.974670 0.647440
1.000000 0.966751 0.696269
0.000000 0.814542 0.693294
0.000000 0.812528 0.677333
0.000000 0.839872 0.655329
0.000000 0.881285 0.615747
0.228962 0.934813 0.572274
0.723598 0.971710 0.569818
0.928893 0.986053 0.628901
1.000000 0.988525 0.693614
1.000000 0.988876 0.757473
0.000000 0.813626 0.706188
0.000000 0.811612 0.681697
0.000000 0.838483 0.666575
0.000000 0.876448 0.649943
0.373663 0.926986 0.636179
0.743984 0.967056 0.646815
0.916350 0.984497 0.700557
0.985367 0.989868 0.772900
1.000000 0.991257 0.832258
0.000000 0.000000 0.398337
0.000000 0.000000 0.450736
0.165042 0.000000 0.504692
0.361105 0.000000 0.545220
0.519966 0.000000 0.556374
0.637903 0.000000 0.561242
0.713176 0.000000 0.557397
0.764935 0.000000 0.551034
0.799908 0.000000 0.537850
0.000000 0.000000 0.488884
0.000000 0.000000 0.546807
0.107195 0.000000 0.609369
0.375006 0.000000 0.654108
0.582010 0.000000 0.651743
0.719997 0.000000 0.637461
0.799344 0.000000 0.624231
0.853864 0.000000 0.621942
0.891859 0.000000 0.605020
0.000000 0.000000 0.585809
0.000000 0.000000 0.639948
0.000000 0.047211 0.699931
0.355612 0.072969 0.746258
0.626047 0.056229 0.741451
0.795377 0.017487 0.728908
0.898009 0.000244 0.710613
0.927703 0.093416 0.706065
0.932067 0.107134 0.703441
0.000000 0.181125 0.697948
0.000000 0.155932 0.741314
0.000000 0.157488 0.782361
0.276936 0.200168 0.813855
0.658686 0.212146 0.822858
0.868818 0.219196 0.808713
0.948867 0.220844 0.800534
0.960479 0.236027 0.794217
0.962905 0.288563 0.782834
0.000000 0.502220 0.760525
0.000000 0.508293 0.792020
0.000000 0.523217 0.826108
0.000000 0.581369 0.850156
0.597620 0.613107 0.854627
0.880186 0.618006 0.847745
0.978500 0.603784 0.842908
0.990066 0.624720 0.840772
0.992508 0.661448 0.840696
0.000000 0.663386 0.777646
0.000000 0.682841 0.797482
0.000000 0.720684 0.825620
0.000000 0.785000 0.842786
0.418326 0.839841 0.841016
0.839918 0.862516 0.846723
0.985565 0.857786 0.845182
1.000000 0.857359 0.842954
1.000000 0.865660 0.849165
0.000000 0.778637 0.793790
0.000000 0.797940 0.799191
0.000000 0.831556 0.813535
0.000000 0.882048 0.816983
0.191669 0.940612 0.802365
0.738399 0.977050 0.804837
0.967803 0.979431 0.821927
1.000000 0.970748 0.834867
1.000000 0.964691 0.850950
0.000000 0.822278 0.822034
0.000000 0.820172 0.818631
0.000000 0.845762 0.815473
0.000000 0.889494 0.804440
0.135363 0.939055 0.781811
0.684169 0.978134 0.787457
0.912520 0.993301 0.808652
1.000000 0.997299 0.845487
1.000000 0.997162 0.879652
0.000000 0.821912 0.828931
0.000000 0.821805 0.818173
0.000000 0.846830 0.812589
0.000000 0.884306 0.807599
0.252995 0.931319 0.793332
0.706310 0.973556 0.806577
0.900008 0.991257 0.833127
0.983261 0.998184 0.882750
1.000000 0.999130 0.922850
0.000000 0.000000 0.432197
0.000000 0.000000 0.490303
0.146761 0.000000 0.563836
0.362799 0.000000 0.624811
0.523507 0.000000 0.636683
0.634684 0.000000 0.636347
0.708080 0.000000 0.632746
0.760586 0.000000 0.626078
0.801984 0.000000 0.623758
0.000000 0.000000 0.534310
0.000000 0.000000 0.595285
0.035843 0.055406 0.665171
0.360586 0.057908 0.725750
0.568643 0.000000 0.733700
0.700420 0.000000 0.727749
0.785412 0.000000 0.716320
0.846952 0.000000 0.711025
0.894652 0.000000 0.709682
0.000000 0.024170 0.650309
0.000000 0.040665 0.710445
0.000000 0.096040 0.784573
0.319875 0.139528 0.840864
0.611933 0.109728 0.852399
0.773342 0.066575 0.834882
0.881834 0.079011 0.820905
0.933257 0.107912 0.811215
0.937819 0.122683 0.805127
0.000000 0.166705 0.768887
0.000000 0.159716 0.820111
0.000000 0.180072 0.880766
0.211002 0.224598 0.914092
0.642969 0.226398 0.933684
0.854826 0.222629 0.932815
0.950896 0.226703 0.927749
0.961715 0.239017 0.914733
0.964691 0.247929 0.897612
0.000000 0.466712 0.840772
0.000000 0.463691 0.882643
0.000000 0.462837 0.928862
0.000000 0.501976 0.950668
0.570871 0.528542 0.964630
0.872023 0.520424 0.971725
0.976074 0.506538 0.968704
0.988846 0.561883 0.967742
0.991318 0.633036 0.961242
0.000000 0.644785 0.868009
0.000000 0.658320 0.899519
0.000000 0.688136 0.940871
0.000000 0.751049 0.963790
0.340307 0.807218 0.970565
0.821744 0.832258 0.984237
0.983429 0.829313 0.981857
0.998322 0.836088 0.977462
1.000000 0.853361 0.969329
0.000000 0.767636 0.887053
0.000000 0.787320 0.905715
0.000000 0.826810 0.936995
0.000000 0.881910 0.957885
0.135622 0.935866 0.958587
0.721843 0.964889 0.964172
0.953231 0.962570 0.957794
1.000000 0.957656 0.952560
1.000000 0.957137 0.951202
0.000000 0.824903 0.909789
0.000000 0.823224 0.913787
0.000000 0.846616 0.924483
0.000000 0.889570 0.931273
0.020508 0.940459 0.922179
0.671839 0.980026 0.926101
0.901732 0.995880 0.929549
0.996872 0.999908 0.940810
1.000000 0.997559 0.952865
0.000000 0.824659 0.908553
0.000000 0.824384 0.903716
0.000000 0.848432 0.906996
0.000000 0.884596 0.909316
0.221576 0.932219 0.903456
0.695964 0.975265 0.914931
0.894774 0.994507 0.929458
0.980743 1.000000 0.950072
1.000000 1.000000 0.972549
0.000000 0.000000 0.468162
0.000000 0.000000 0.526818
0.104768 0.000000 0.596170
0.352834 0.000000 0.660426
0.523278 0.000000 0.692561
0.632380 0.000000 0.702678
0.705623 0.000000 0.701045
0.759930 0.000000 0.698054
0.803479 0.000000 0.693263
0.000000 0.000000 0.572854
0.000000 0.000000 0.629007
0.029129 0.054475 0.691722
0.323033 0.062379 0.751049
0.553597 0.035538 0.779278
0.683528 0.000000 0.782712
0.768856 0.040513 0.781353
0.834852 0.064607 0.777554
0.886366 0.066972 0.774411
0.000000 0.018936 0.684367
0.000000 0.049699 0.742000
0.000000 0.095247 0.808911
0.286198 0.142077 0.865782
0.592081 0.146304 0.895720
0.759960 0.147372 0.900832
0.866102 0.146426 0.892622
0.937636 0.158358 0.885283
0.947585 0.170855 0.878981
0.000000 0.164630 0.806317
0.000000 0.157382 0.853330
0.000000 0.179477 0.899062
0.182238 0.223270 0.915526
0.625055 0.244785 0.940566
0.838727 0.247318 0.948348
0.954482 0.249592 0.949813
0.965805 0.259022 0.952026
0.968399 0.264271 0.953231
0.000000 0.426291 0.889036
0.000000 0.407691 0.921675
0.000000 0.418021 0.934127
0.000000 0.489433 0.952407
0.565332 0.530282 0.968093
0.861295 0.526833 0.977966
0.976699 0.526452 0.980789
0.988724 0.578607 0.981109
0.991028 0.640864 0.980758
0.000000 0.621805 0.926665
0.000000 0.631647 0.934264
0.000000 0.676310 0.947631
0.000000 0.745953 0.968399
0.368627 0.802106 0.976364
0.815061 0.829465 0.992050
0.983169 0.826673 0.994980
0.997559 0.836805 0.994354
1.000000 0.854597 0.994232
0.000000 0.755108 0.940795
0.000000 0.776379 0.940307
0.000000 0.821683 0.953124
0.000000 0.874830 0.971237
0.090959 0.927214 0.977478
0.724727 0.954009 0.993515
0.944656 0.952468 0.998505
0.999115 0.949157 0.998184
1.000000 0.952193 0.997726
0.000000 0.825589 0.947982
0.000000 0.825696 0.948043
0.000000 0.849485 0.958862
0.000000 0.888258 0.972457
0.037659 0.937682 0.977188
0.677943 0.978836 0.991684
0.899535 0.996063 0.996597
0.991257 0.995056 0.993820
1.000000 0.993347 0.991958
0.000000 0.827558 0.948821
0.000000 0.826688 0.947875
0.000000 0.850828 0.958862
0.065980 0.883482 0.967330
0.256123 0.930236 0.967514
0.703151 0.973953 0.975357
0.897322 0.994797 0.981842
0.980102 1.000000 0.987869
1.000000 1.000000 0.995438
0.000000 0.000000 0.505257
0.000000 0.000000 0.561746
0.097475 0.000000 0.628092
0.322332 0.000000 0.686900
0.511177 0.000000 0.719051
0.617548 0.000000 0.728511
0.688457 0.000000 0.728023
0.746853 0.000000 0.733806
0.794598 0.000000 0.733303
0.000000 0.000000 0.607233
0.000000 0.000000 0.657664
0.025757 0.051392 0.713420
0.292363 0.064698 0.770123
0.528389 0.047410 0.799756
0.662318 0.015457 0.809857
0.751400 0.051255 0.813794
0.821546 0.085176 0.817487
0.877424 0.093706 0.818570
0.000000 0.047196 0.717433
0.000000 0.045747 0.762188
0.000000 0.093309 0.821332
0.266575 0.139864 0.874434
0.569207 0.144793 0.905623
0.738430 0.144121 0.917174
0.845151 0.155383 0.922469
0.926131 0.178973 0.927016
0.951675 0.189181 0.924590
0.000000 0.162585 0.833783
0.000000 0.155489 0.871717
0.000000 0.175952 0.897597
0.202487 0.222446 0.914336
0.610742 0.243091 0.939696
0.816388 0.240970 0.946593
0.937636 0.249256 0.950942
0.968322 0.271153 0.956771
0.970871 0.279576 0.958343
0.000000 0.374838 0.920058
0.000000 0.344320 0.921233
0.000000 0.417075 0.933272
0.011322 0.494057 0.951156
0.565927 0.541604 0.966583
0.847486 0.551888 0.976974
0.976715 0.565209 0.980056
0.988159 0.615885 0.982544
0.991043 0.676097 0.983719
0.000000 0.604440 0.934508
0.000000 0.626932 0.933944
0.000000 0.670970 0.946822
0.000000 0.739864 0.967788
0.417258 0.799374 0.975692
0.814633 0.830747 0.991470
0.981643 0.831998 0.994888
0.997528 0.844984 0.995987
1.000000 0.867216 0.996582
0.000000 0.753307 0.940688
0.000000 0.772381 0.940078
0.000000 0.813733 0.952941
0.000000 0.864256 0.970352
0.134478 0.915984 0.977035
0.739239 0.947738 0.993820
0.941985 0.950607 0.999496
0.999130 0.949920 1.000000
1.000000 0.956695 1.000000
0.000000 0.825254 0.947784
0.000000 0.825254 0.947784
0.000000 0.847898 0.958343
0.000000 0.885130 0.971969
0.182635 0.933227 0.977295
0.698039 0.976608 0.992538
0.904738 0.993683 1.000000
0.989364 0.992538 1.000000
1.000000 0.992554 1.000000
0.000000 0.828092 0.949477
0.000000 0.828092 0.949477
0.015122 0.849928 0.959091
0.212985 0.881086 0.969482
0.314961 0.927306 0.976837
0.718608 0.971572 0.990402
0.905058 0.993988 0.999741
0.981918 1.000000 1.000000
1.000000 1.000000 1.000000
