LUT/LogC3/Alexa_LogC3_709_D65_ArriFilm.cube
LUT_3D_SIZE 33
0.000000 0.000000 0.000000
0.003098 0.001007 0.004593
0.006607 0.001312 0.003952
0.009110 0.002533 0.005295
0.015503 0.003128 0.004196
0.029664 0.005127 0.005509
0.043061 0.007279 0.004349
0.060044 0.010330 0.005020
0.084398 0.012314 0.002823
0.119600 0.014191 0.001038
0.152483 0.014786 0.000000
0.192584 0.014694 0.000000
0.236683 0.013642 0.000000
0.281407 0.006683 0.000000
0.318883 0.000000 0.000000
0.363317 0.000000 0.000000
0.400488 0.000000 0.000000
0.440528 0.000000 0.000000
0.469306 0.000000 0.000000
0.500954 0.000000 0.000000
0.521508 0.000000 0.000000
0.548302 0.000000 0.000000
0.563745 0.000000 0.000000
0.587686 0.000000 0.000000
0.601099 0.000000 0.000000
0.623087 0.000000 0.000000
0.634836 0.000000 0.000000
0.654994 0.000000 0.000000
0.665476 0.000000 0.000000
0.682811 0.000000 0.000000
0.690394 0.000000 0.000000
0.706676 0.000000 0.000000
0.713909 0.000000 0.000000
0.001678 0.001648 0.004395
0.003143 0.002152 0.005188
0.006653 0.002960 0.005493
0.009827 0.003891 0.005722
0.016526 0.004944 0.005829
0.031220 0.006531 0.006043
0.046265 0.008743 0.005982
0.063081 0.011627 0.005600
0.088411 0.013825 0.004639
0.123583 0.015045 0.001419
0.158770 0.016007 0.000000
0.196689 0.015610 0.000000
0.241657 0.014374 0.000000
0.287007 0.009644 0.000000
0.330373 0.000000 0.000000
0.372885 0.000000 0.000000
0.413779 0.000000 0.000000
0.452079 0.000000 0.000000
0.484718 0.000000 0.000000
0.512505 0.000000 0.000000
0.537301 0.000000 0.000000
0.559396 0.000000 0.000000
0.579767 0.000000 0.000000
0.598764 0.000000 0.000000
0.616815 0.000000 0.000000
0.634073 0.000000 0.000000
0.650263 0.000000 0.000000
0.665690 0.000000 0.000000
0.680812 0.000000 0.000000
0.693416 0.000000 0.000000
0.705562 0.000000 0.000000
0.717250 0.000000 0.000000
0.728542 0.000000 0.000000
0.000916 0.005219 0.004471
0.002960 0.005814 0.006149
0.008103 0.006699 0.005600
0.011460 0.008225 0.006653
0.020081 0.009293 0.005905
0.036011 0.011170 0.006989
0.053315 0.012879 0.005676
0.071412 0.015473 0.006531
0.097932 0.016999 0.004150
0.134783 0.017960 0.002075
0.171221 0.018479 0.000000
0.210407 0.018997 0.000000
0.254505 0.019913 0.000000
0.304585 0.015900 0.000000
0.350759 0.011475 0.000000
0.396429 0.000000 0.000000
0.438590 0.000000 0.000000
0.479332 0.000000 0.000000
0.511971 0.000000 0.000000
0.542123 0.000000 0.000000
0.566171 0.000000 0.000000
0.589914 0.000000 0.000000
0.609003 0.000000 0.000000
0.629129 0.000000 0.000000
0.645609 0.000000 0.000000
0.663874 0.000000 0.000000
0.678508 0.000000 0.000000
0.694820 0.000000 0.000000
0.708095 0.000000 0.000000
0.721935 0.000000 0.000000
0.732494 0.000000 0.000000
0.745037 0.000000 0.000000
0.754681 0.000000 0.000000
0.000000 0.011261 0.006714
0.001907 0.011902 0.007187
0.008026 0.013413 0.007340
0.012924 0.015320 0.007797
0.023438 0.017304 0.008286
0.041764 0.019135 0.008225
0.060151 0.021103 0.007965
0.079484 0.023178 0.007813
0.107027 0.024216 0.006394
0.145922 0.024521 0.003052
0.185397 0.024613 0.000000
0.226307 0.024933 0.000000
0.273167 0.024720 0.000000
0.325338 0.022797 0.000000
0.375189 0.018814 0.000000
0.420981 0.011322 0.000000
0.465537 0.000000 0.000000
0.506828 0.000000 0.000000
0.542184 0.000000 0.000000
0.571557 0.000000 0.000000
0.597574 0.000000 0.000000
0.620371 0.000000 0.000000
0.640940 0.000000 0.000000
0.659632 0.000000 0.000000
0.677119 0.000000 0.000000
0.693828 0.000000 0.000000
0.709270 0.000000 0.000000
0.723934 0.000000 0.000000
0.738155 0.000000 0.000000
0.750698 0.000000 0.000000
0.762249 0.000000 0.000000
0.773220 0.000000 0.000000
0.783948 0.000000 0.000000
0.000000 0.019120 0.006668
0.000000 0.019928 0.008087
0.008240 0.021347 0.007462
0.014069 0.024186 0.009171
0.027802 0.026398 0.008545
0.046632 0.028901 0.009598
0.067262 0.031281 0.008316
0.088136 0.033951 0.009155
0.119677 0.035370 0.006256
0.157717 0.035569 0.004059
0.199466 0.034424 0.000000
0.242252 0.033188 0.000000
0.292348 0.032166 0.000000
0.346075 0.029419 0.000000
0.399329 0.026795 0.000000
0.445716 0.021256 0.000000
0.491279 0.012070 0.000000
0.533867 0.000000 0.000000
0.569757 0.000000 0.000000
0.600580 0.000000 0.000000
0.626490 0.000000 0.000000
0.650385 0.000000 0.000000
0.670512 0.000000 0.000000
0.689937 0.000000 0.000000
0.706447 0.000000 0.000000
0.723674 0.000000 0.000000
0.738064 0.000000 0.000000
0.753414 0.000000 0.000000
0.766613 0.000000 0.000000
0.780026 0.000000 0.000000
0.790234 0.000000 0.000000
0.801877 0.000000 0.000000
0.811337 0.000000 0.000000
0.000000 0.033600 0.009171
0.000000 0.033722 0.009476
0.003510 0.035340 0.009812
0.011719 0.037720 0.010544
0.026169 0.040543 0.010986
0.048814 0.043442 0.011002
0.071153 0.046509 0.010849
0.095857 0.049775 0.010391
0.128969 0.052262 0.008759
0.170550 0.051911 0.004639
0.213550 0.050462 0.000000
0.259678 0.049805 0.000000
0.311543 0.048142 0.000000
0.367468 0.043076 0.000000
0.421027 0.037522 0.000000
0.471839 0.032425 0.000000
0.520073 0.024063 0.000000
0.561334 0.010925 0.000000
0.597559 0.001495 0.000000
0.628595 0.000000 0.000000
0.655680 0.000000 0.000000
0.679469 0.000000 0.000000
0.700740 0.000000 0.000000
0.719692 0.000000 0.000000
0.737011 0.000000 0.000000
0.753735 0.000000 0.000000
0.769375 0.000000 0.000000
0.783642 0.000000 0.000000
0.797192 0.000000 0.000000
0.809705 0.001465 0.000000
0.820447 0.002182 0.000000
0.830762 0.003555 0.000000
0.840742 0.005249 0.000000
0.000000 0.051698 0.011139
0.000000 0.052262 0.011719
0.000000 0.053635 0.010575
0.001999 0.057008 0.012192
0.022583 0.059693 0.011292
0.047364 0.063462 0.012406
0.072816 0.066865 0.011063
0.101381 0.071107 0.011429
0.140444 0.073655 0.007889
0.183536 0.074556 0.004501
0.229496 0.073213 0.000000
0.278294 0.075044 0.000000
0.336522 0.074907 0.000000
0.390066 0.069581 0.000000
0.444923 0.061448 0.000000
0.497963 0.052384 0.000000
0.550576 0.044602 0.000000
0.589075 0.039612 0.000000
0.624674 0.037659 0.000000
0.655680 0.022583 0.000000
0.683192 0.007538 0.000000
0.707652 0.005844 0.000000
0.728862 0.007675 0.000000
0.748333 0.007004 0.000000
0.765286 0.010224 0.000000
0.782803 0.018463 0.000000
0.799435 0.036973 0.000000
0.813672 0.039384 0.000000
0.826841 0.046967 0.000000
0.839506 0.047608 0.000000
0.849561 0.049943 0.000000
0.860151 0.049897 0.000000
0.869825 0.053727 0.000000
0.000000 0.072389 0.014298
0.000000 0.072908 0.014359
0.000000 0.075303 0.014328
0.000000 0.078294 0.014435
0.010224 0.081575 0.014420
0.042420 0.085573 0.014145
0.070588 0.089998 0.013672
0.104128 0.094285 0.012650
0.145617 0.097673 0.010361
0.193759 0.100069 0.005097
0.241703 0.101396 0.000000
0.294179 0.103365 0.000000
0.351965 0.103670 0.000000
0.409888 0.100206 0.000000
0.465217 0.094148 0.000000
0.518547 0.086046 0.000000
0.569146 0.075685 0.000000
0.611048 0.067964 0.000000
0.648463 0.063035 0.000000
0.680766 0.055268 0.000000
0.708614 0.046540 0.000000
0.734096 0.048188 0.000000
0.756954 0.051026 0.000000
0.777066 0.052354 0.000000
0.794919 0.054292 0.000000
0.812268 0.059113 0.000000
0.828580 0.064210 0.000000
0.842664 0.067048 0.000000
0.855955 0.070298 0.000000
0.868711 0.073503 0.000000
0.879316 0.075547 0.000000
0.888792 0.079515 0.000000
0.896361 0.085100 0.000000
0.000000 0.098314 0.016770
0.000000 0.098329 0.016831
0.000000 0.100328 0.016434
0.000000 0.103746 0.016663
0.000000 0.106126 0.015320
0.033173 0.111070 0.016007
0.063691 0.115816 0.014191
0.102052 0.120760 0.013947
0.150683 0.124056 0.010010
0.201221 0.128725 0.005295
0.254215 0.131548 0.000000
0.308980 0.134585 0.000000
0.372061 0.135958 0.000000
0.430274 0.135317 0.000000
0.488792 0.132341 0.000000
0.539544 0.128481 0.000000
0.591119 0.121950 0.000000
0.632212 0.113405 0.000000
0.671550 0.104555 0.000000
0.704845 0.093965 0.000000
0.733730 0.087205 0.000000
0.760525 0.088121 0.000000
0.785336 0.091798 0.000000
0.805859 0.091600 0.000000
0.824475 0.094636 0.000000
0.841001 0.097093 0.000000
0.856275 0.102174 0.000000
0.870405 0.106416 0.000000
0.883619 0.113161 0.000000
0.896284 0.118456 0.000000
0.906020 0.125933 0.000000
0.911604 0.133639 0.000000
0.914092 0.145464 0.000000
0.000000 0.133318 0.019043
0.000000 0.133577 0.019059
0.000000 0.136309 0.019074
0.000000 0.139467 0.018753
0.000000 0.143206 0.018708
0.015625 0.146227 0.017090
0.050233 0.151019 0.015671
0.092287 0.156741 0.013779
0.149660 0.161700 0.009812
0.209033 0.168536 0.000000
0.267201 0.175357 0.000000
0.327718 0.178424 0.000000
0.390784 0.179690 0.000000
0.454261 0.181979 0.000000
0.512734 0.182330 0.000000
0.566171 0.179858 0.000000
0.616587 0.175662 0.000000
0.660212 0.173205 0.000000
0.699550 0.170397 0.000000
0.733425 0.161746 0.000000
0.762173 0.153933 0.000000
0.788846 0.152972 0.000000
0.812879 0.154192 0.000000
0.833707 0.155627 0.000000
0.851911 0.158938 0.000000
0.868360 0.164401 0.000000
0.883604 0.171756 0.000000
0.897520 0.180514 0.000000
0.909590 0.189654 0.000000
0.918975 0.198871 0.000000
0.923003 0.206378 0.000000
0.923018 0.213291 0.000000
0.922988 0.220157 0.000000
0.000000 0.171176 0.021485
0.000000 0.171817 0.021363
0.000000 0.175326 0.021271
0.000000 0.179812 0.020661
0.000000 0.184237 0.019654
0.000000 0.187594 0.017716
0.040864 0.192157 0.013397
0.077577 0.200015 0.011093
0.142443 0.206485 0.000000
0.211948 0.217197 0.000000
0.279637 0.227527 0.000000
0.343862 0.231250 0.000000
0.412314 0.233051 0.000000
0.476005 0.237476 0.000000
0.538979 0.241596 0.000000
0.591363 0.238132 0.000000
0.644465 0.234562 0.000000
0.686595 0.234546 0.000000
0.727962 0.236179 0.000000
0.760403 0.228763 0.000000
0.790066 0.223377 0.000000
0.815335 0.222431 0.000000
0.839170 0.224964 0.000000
0.859159 0.226856 0.000000
0.877958 0.232502 0.000000
0.894118 0.236866 0.000000
0.909743 0.245106 0.000000
0.921782 0.251575 0.000000
0.929824 0.260853 0.000000
0.932540 0.266529 0.000000
0.932647 0.272755 0.000000
0.932464 0.277150 0.000000
0.932815 0.284169 0.000000
0.000000 0.210895 0.021546
0.000000 0.211490 0.021653
0.000000 0.216281 0.021942
0.000000 0.221622 0.021469
0.000000 0.227390 0.020554
0.000000 0.233341 0.017548
0.006134 0.241535 0.012161
0.060090 0.249058 0.004547
0.119158 0.256443 0.000000
0.199207 0.269825 0.000000
0.277226 0.283482 0.000000
0.348104 0.289693 0.000000
0.418601 0.294194 0.000000
0.491402 0.298268 0.000000
0.555810 0.300526 0.000000
0.610636 0.300893 0.000000
0.661830 0.300328 0.000000
0.708034 0.300923 0.000000
0.748882 0.301366 0.000000
0.783429 0.296376 0.000000
0.813062 0.291936 0.000000
0.840085 0.293065 0.000000
0.864042 0.295171 0.000000
0.884901 0.297520 0.000000
0.903136 0.300694 0.000000
0.920150 0.306401 0.000000
0.934340 0.313329 0.000000
0.942107 0.320562 0.000000
0.944854 0.328130 0.000000
0.947311 0.336355 0.000000
0.947829 0.342107 0.000000
0.947845 0.346822 0.000000
0.947906 0.351781 0.000000
0.000000 0.255558 0.020340
0.000000 0.256138 0.020676
0.000000 0.261631 0.020951
0.000000 0.268116 0.020294
0.000000 0.275242 0.018677
0.000000 0.284215 0.014527
0.000000 0.295384 0.000000
0.027604 0.301701 0.000000
0.102007 0.309239 0.000000
0.174014 0.326055 0.000000
0.266911 0.342870 0.000000
0.345220 0.352041 0.000000
0.422553 0.359533 0.000000
0.501717 0.362585 0.000000
0.573983 0.364569 0.000000
0.626688 0.366964 0.000000
0.680415 0.370932 0.000000
0.726421 0.369375 0.000000
0.770138 0.370123 0.000000
0.804501 0.364843 0.000000
0.836332 0.362524 0.000000
0.862928 0.362661 0.000000
0.888823 0.367102 0.000000
0.908522 0.365835 0.000000
0.927718 0.369467 0.000000
0.943313 0.373175 0.000000
0.954376 0.381476 0.000000
0.956924 0.386603 0.000000
0.959899 0.395758 0.000000
0.962203 0.403388 0.000000
0.964080 0.412039 0.000000
0.963455 0.414618 0.000000
0.964172 0.420890 0.000000
0.000000 0.302220 0.016449
0.000000 0.302815 0.017029
0.000000 0.309331 0.017411
0.000000 0.316167 0.017182
0.000000 0.324056 0.014710
0.000000 0.334127 0.006271
0.000000 0.346365 0.000000
0.001740 0.354437 0.000000
0.084703 0.362997 0.000000
0.152361 0.380514 0.000000
0.241993 0.397864 0.000000
0.339345 0.409842 0.000000
0.422263 0.419928 0.000000
0.507057 0.426581 0.000000
0.579782 0.430701 0.000000
0.639429 0.434607 0.000000
0.694041 0.437156 0.000000
0.743984 0.439445 0.000000
0.787182 0.440787 0.000000
0.823987 0.438972 0.000000
0.855711 0.437049 0.000000
0.884550 0.438972 0.000000
0.910536 0.442481 0.000000
0.932403 0.443992 0.000000
0.951995 0.446830 0.000000
0.966766 0.452216 0.000000
0.972564 0.457694 0.000000
0.974792 0.463691 0.000000
0.976654 0.469932 0.000000
0.979232 0.478035 0.000000
0.979919 0.483497 0.000000
0.979828 0.487160 0.000000
0.979828 0.491600 0.000000
0.000000 0.347753 0.010101
0.000000 0.348257 0.011551
0.000000 0.356069 0.012238
0.000000 0.363424 0.011414
0.000000 0.372580 0.003372
0.000000 0.383734 0.000000
0.000000 0.398642 0.000000
0.000000 0.408164 0.000000
0.067185 0.418463 0.000000
0.138857 0.436362 0.000000
0.217075 0.454810 0.000000
0.321553 0.469566 0.000000
0.420020 0.483528 0.000000
0.507897 0.492943 0.000000
0.586099 0.502022 0.000000
0.648844 0.504723 0.000000
0.709743 0.509514 0.000000
0.758648 0.511757 0.000000
0.804868 0.517144 0.000000
0.840711 0.515358 0.000000
0.875105 0.517769 0.000000
0.903838 0.517967 0.000000
0.932189 0.523949 0.000000
0.954437 0.524849 0.000000
0.976028 0.531090 0.000000
0.987564 0.533242 0.000000
0.991623 0.540612 0.000000
0.992630 0.542977 0.000000
0.995453 0.551186 0.000000
0.996460 0.554726 0.000000
0.997208 0.560586 0.000000
0.996536 0.562478 0.000000
0.997131 0.569680 0.000000
0.000000 0.388373 0.000000
0.000000 0.389471 0.002609
0.000000 0.398093 0.003174
0.000000 0.409201 0.000000
0.000000 0.422766 0.000000
0.000000 0.435676 0.000000
0.000000 0.451255 0.000000
0.000000 0.463798 0.000000
0.043122 0.476265 0.000000
0.135637 0.497215 0.000000
0.201724 0.517922 0.000000
0.294194 0.533974 0.000000
0.411139 0.548440 0.000000
0.509468 0.559045 0.000000
0.589181 0.566766 0.000000
0.657404 0.571664 0.000000
0.718074 0.574640 0.000000
0.770520 0.578271 0.000000
0.815717 0.581231 0.000000
0.854017 0.581933 0.000000
0.887633 0.582208 0.000000
0.918334 0.584039 0.000000
0.945922 0.586984 0.000000
0.970413 0.590051 0.000000
0.990433 0.593683 0.000000
1.000000 0.597284 0.000000
1.000000 0.601236 0.000000
1.000000 0.605463 0.000000
1.000000 0.610101 0.000000
1.000000 0.614740 0.000000
1.000000 0.618448 0.000000
1.000000 0.622873 0.000000
1.000000 0.627832 0.000000
0.000000 0.428824 0.000000
0.000000 0.430365 0.000000
0.000000 0.440604 0.000000
0.000000 0.454795 0.000000
0.000000 0.472877 0.000000
0.000000 0.485389 0.000000
0.000000 0.503624 0.000000
0.000000 0.515846 0.000000
0.037827 0.530434 0.000000
0.127153 0.551858 0.000000
0.194598 0.576547 0.000000
0.270466 0.592691 0.000000
0.394949 0.610391 0.000000
0.504677 0.619059 0.000000
0.591882 0.628580 0.000000
0.661830 0.632731 0.000000
0.727520 0.638666 0.000000
0.778927 0.639719 0.000000
0.826444 0.644129 0.000000
0.864256 0.643336 0.000000
0.900298 0.646403 0.000000
0.930068 0.645319 0.000000
0.959716 0.649973 0.000000
0.981918 0.649638 0.000000
0.999069 0.653742 0.000000
1.000000 0.653529 0.000000
1.000000 0.658244 0.000000
1.000000 0.659998 0.000000
1.000000 0.666224 0.000000
1.000000 0.668269 0.000000
1.000000 0.674083 0.000000
1.000000 0.676905 0.000000
1.000000 0.683375 0.000000
0.000000 0.472709 0.000000
0.000000 0.474311 0.000000
0.000000 0.484657 0.000000
0.000000 0.496849 0.000000
0.000000 0.511223 0.000000
0.000000 0.526238 0.000000
0.000000 0.543359 0.000000
0.000000 0.558663 0.000000
0.000000 0.573877 0.000000
0.085710 0.596078 0.000000
0.174868 0.620981 0.000000
0.243488 0.640772 0.000000
0.350759 0.657572 0.000000
0.486000 0.669902 0.000000
0.579934 0.679011 0.000000
0.658610 0.688106 0.000000
0.726101 0.694453 0.000000
0.782101 0.698695 0.000000
0.829679 0.701610 0.000000
0.870283 0.703578 0.000000
0.906294 0.705226 0.000000
0.937240 0.705867 0.000000
0.961929 0.705989 0.000000
0.984085 0.706569 0.000000
1.000000 0.707790 0.000000
1.000000 0.709224 0.000000
1.000000 0.711818 0.000000
1.000000 0.714412 0.000000
1.000000 0.717739 0.000000
1.000000 0.721538 0.000000
1.000000 0.725750 0.000000
1.000000 0.729519 0.000000
1.000000 0.733700 0.000000
0.000000 0.512718 0.000000
0.000000 0.514519 0.000000
0.000000 0.524727 0.000000
0.000000 0.535286 0.000000
0.000000 0.548196 0.000000
0.000000 0.563119 0.000000
0.000000 0.581033 0.000000
0.000000 0.596597 0.000000
0.000000 0.615198 0.000000
0.028305 0.637247 0.000000
0.155276 0.662852 0.000000
0.219257 0.683330 0.000000
0.318212 0.702861 0.000000
0.461982 0.716609 0.000000
0.569940 0.729473 0.000000
0.653315 0.740017 0.000000
0.727749 0.750774 0.000000
0.783169 0.753643 0.000000
0.833433 0.758434 0.000000
0.874449 0.760296 0.000000
0.910018 0.763317 0.000000
0.937011 0.761028 0.000000
0.961517 0.761471 0.000000
0.984482 0.760754 0.000000
1.000000 0.762936 0.000000
1.000000 0.762982 0.000000
1.000000 0.766278 0.000000
1.000000 0.766873 0.000000
1.000000 0.771435 0.000000
1.000000 0.773358 0.000000
1.000000 0.778378 0.000000
1.000000 0.780514 0.000000
1.000000 0.785916 0.000000
0.000000 0.546777 0.000000
0.000000 0.548882 0.000000
0.000000 0.558312 0.000000
0.000000 0.569543 0.000000
0.000000 0.582177 0.000000
0.000000 0.597894 0.000000
0.000000 0.615045 0.000000
0.000000 0.632670 0.000000
0.000000 0.652003 0.000000
0.018082 0.675425 0.000000
0.134752 0.699794 0.000000
0.210483 0.722469 0.000000
0.302876 0.742336 0.000000
0.437552 0.759609 0.000000
0.556161 0.773922 0.000000
0.648753 0.786297 0.000000
0.725139 0.794934 0.000000
0.784588 0.800443 0.000000
0.834958 0.804578 0.000000
0.877592 0.807736 0.000000
0.908492 0.808057 0.000000
0.935546 0.807126 0.000000
0.960769 0.806836 0.000000
0.984527 0.807156 0.000000
1.000000 0.807813 0.000000
1.000000 0.808469 0.000000
1.000000 0.809857 0.000000
1.000000 0.812009 0.000000
1.000000 0.815259 0.000000
1.000000 0.818280 0.000000
1.000000 0.821271 0.000000
1.000000 0.824216 0.000000
1.000000 0.827039 0.000000
0.000000 0.578546 0.000000
0.000000 0.580575 0.000000
0.000000 0.589761 0.000000
0.000000 0.601038 0.000000
0.000000 0.613931 0.000000
0.000000 0.629191 0.000000
0.000000 0.646555 0.000000
0.000000 0.663752 0.000000
0.000000 0.685283 0.000000
0.007492 0.707836 0.000000
0.107713 0.732479 0.000000
0.200229 0.755810 0.000000
0.285283 0.777829 0.000000
0.403708 0.795758 0.000000
0.544076 0.813230 0.000000
0.642695 0.825879 0.000000
0.726070 0.836301 0.000000
0.785122 0.841352 0.000000
0.837522 0.846799 0.000000
0.877058 0.848661 0.000000
0.906676 0.849210 0.000000
0.934112 0.848035 0.000000
0.959960 0.848859 0.000000
0.984344 0.848112 0.000000
1.000000 0.849470 0.000000
1.000000 0.848951 0.000000
1.000000 0.850950 0.000000
1.000000 0.852247 0.000000
1.000000 0.856062 0.000000
1.000000 0.857343 0.000000
1.000000 0.860395 0.000000
1.000000 0.861585 0.000000
1.000000 0.864515 0.000000
0.000000 0.608560 0.000000
0.000000 0.610651 0.000000
0.000000 0.618677 0.000000
0.000000 0.630762 0.000000
0.000000 0.643290 0.000000
0.000000 0.658289 0.000000
0.000000 0.674250 0.000000
0.000000 0.691814 0.000000
0.000000 0.713283 0.000000
0.000000 0.736522 0.000000
0.082399 0.759838 0.000000
0.188632 0.785168 0.000000
0.260060 0.807599 0.000000
0.373800 0.827512 0.000000
0.530739 0.844770 0.000000
0.638300 0.860685 0.000000
0.722698 0.871427 0.000000
0.784955 0.878096 0.000000
0.837324 0.883162 0.000000
0.875196 0.885039 0.000000
0.904921 0.885115 0.000000
0.932738 0.884932 0.000000
0.958953 0.884993 0.000000
0.983673 0.885145 0.000000
1.000000 0.885481 0.000000
1.000000 0.885420 0.000000
1.000000 0.885878 0.000000
1.000000 0.887541 0.000000
1.000000 0.889342 0.000000
1.000000 0.890532 0.000000
1.000000 0.891630 0.000000
1.000000 0.892607 0.000000
1.000000 0.893462 0.000000
0.000000 0.637003 0.000000
0.000000 0.639002 0.000000
0.000000 0.646448 0.000000
0.000000 0.658793 0.000000
0.000000 0.671611 0.000000
0.000000 0.685801 0.000000
0.000000 0.701930 0.000000
0.000000 0.718349 0.000000
0.000000 0.740703 0.000000
0.000000 0.762966 0.000000
0.065797 0.786923 0.000000
0.174868 0.811612 0.000000
0.250355 0.836774 0.000000
0.361257 0.856229 0.000000
0.523064 0.875700 0.000000
0.633982 0.892302 0.000000
0.723842 0.905379 0.000000
0.784482 0.911360 0.000000
0.837675 0.917266 0.000000
0.873320 0.918257 0.000000
0.903105 0.918944 0.000000
0.930938 0.918105 0.000000
0.957092 0.918654 0.000000
0.981674 0.917830 0.000000
0.999496 0.918059 0.000000
1.000000 0.916808 0.000000
1.000000 0.917357 0.000000
1.000000 0.917403 0.000000
1.000000 0.918593 0.000000
1.000000 0.918242 0.000000
1.000000 0.919081 0.000000
1.000000 0.918715 0.000000
1.000000 0.919524 0.000000
0.000000 0.663737 0.000000
0.000000 0.666407 0.000000
0.000000 0.673014 0.000000
0.000000 0.685176 0.000000
0.000000 0.698039 0.000000
0.000000 0.712001 0.000000
0.000000 0.726986 0.000000
0.000000 0.743786 0.000000
0.000000 0.765454 0.000000
0.000000 0.788037 0.000000
0.040497 0.810925 0.000000
0.165042 0.836606 0.000000
0.239765 0.860960 0.000000
0.351797 0.880934 0.000000
0.510491 0.899413 0.000000
0.629007 0.917601 0.000000
0.719005 0.929824 0.000000
0.783154 0.936660 0.000000
0.836652 0.941924 0.000000
0.870909 0.942428 0.000000
0.900206 0.942031 0.000000
0.927703 0.941558 0.000000
0.953384 0.941146 0.000000
0.977493 0.940612 0.000000
0.996750 0.940032 0.000000
1.000000 0.939055 0.000000
1.000000 0.938537 0.000000
1.000000 0.938582 0.000000
1.000000 0.938659 0.000000
1.000000 0.938537 0.000000
1.000000 0.938369 0.000000
1.000000 0.938262 0.000000
1.000000 0.938079 0.000000
0.000000 0.689860 0.000000
0.000000 0.693095 0.000000
0.000000 0.700481 0.000000
0.000000 0.710353 0.000000
0.000000 0.724346 0.000000
0.000000 0.737636 0.000000
0.000000 0.752697 0.000000
0.000000 0.767163 0.000000
0.000000 0.787304 0.000000
0.000000 0.807340 0.000000
0.026703 0.828809 0.000000
0.156008 0.851987 0.000000
0.235584 0.876539 0.000000
0.343023 0.894285 0.000000
0.502846 0.912108 0.000000
0.623926 0.929641 0.000000
0.717876 0.942199 0.000000
0.780179 0.947539 0.000000
0.834272 0.952605 0.000000
0.866911 0.952087 0.000000
0.895567 0.951644 0.000000
0.922438 0.950530 0.000000
0.947570 0.950423 0.000000
0.971191 0.949645 0.000000
0.992248 0.949722 0.000000
1.000000 0.948760 0.000000
1.000000 0.948836 0.000000
1.000000 0.948455 0.000000
1.000000 0.948775 0.000000
1.000000 0.948287 0.000000
1.000000 0.948577 0.000000
1.000000 0.948165 0.000000
1.000000 0.948486 0.000000
0.000000 0.717556 0.000000
0.000000 0.720226 0.000000
0.000000 0.725994 0.000000
0.000000 0.733547 0.000000
0.000000 0.745510 0.000000
0.000000 0.757580 0.000000
0.000000 0.769787 0.000000
0.000000 0.781491 0.000000
0.000000 0.797101 0.000000
0.000000 0.814710 0.000000
0.019577 0.832868 0.000000
0.150317 0.853834 0.000000
0.225360 0.875731 0.000000
0.334157 0.894957 0.000000
0.490410 0.912306 0.000000
0.616709 0.931487 0.000000
0.709194 0.943801 0.000000
0.774640 0.950576 0.000000
0.828183 0.955596 0.000000
0.861021 0.955673 0.000000
0.889174 0.954955 0.000000
0.915633 0.954299 0.000000
0.940383 0.953902 0.000000
0.963638 0.953597 0.000000
0.985443 0.953368 0.000000
1.000000 0.952972 0.000000
1.000000 0.952697 0.000000
1.000000 0.952651 0.000000
1.000000 0.952621 0.000000
1.000000 0.952544 0.000000
1.000000 0.952468 0.000000
1.000000 0.952453 0.000000
1.000000 0.952407 0.000000
0.000000 0.740887 0.000000
0.000000 0.741512 0.000000
0.000000 0.743786 0.000000
0.000000 0.747097 0.000000
0.000000 0.757534 0.000000
0.000000 0.766308 0.000000
0.000000 0.776547 0.000000
0.000000 0.785245 0.000000
0.000000 0.800061 0.000000
0.000000 0.816693 0.000000
0.019242 0.835065 0.000000
0.142290 0.854337 0.000000
0.223774 0.877241 0.000000
0.329564 0.895338 0.000000
0.489998 0.913649 0.000000
0.613184 0.932204 0.000000
0.708278 0.945983 0.000000
0.771130 0.952316 0.000000
0.825727 0.958099 0.000000
0.857603 0.958129 0.000000
0.884916 0.957595 0.000000
0.910536 0.956863 0.000000
0.934447 0.956649 0.000000
0.956878 0.956268 0.000000
0.977874 0.956222 0.000000
0.995712 0.955749 0.000000
1.000000 0.955718 0.000000
1.000000 0.955505 0.000000
1.000000 0.955596 0.000000
1.000000 0.955306 0.000000
