LUT/LogC3/Alexa_LogC3_709_D65_ArriFilm.cube
LUT_3D_SIZE 5
0.000000 0.000000 0.000000
0.084398 0.012314 0.002823
0.400488 0.000000 0.000000
0.601099 0.000000 0.000000
0.713909 0.000000 0.000000
0.000000 0.098314 0.016770
0.150683 0.124056 0.010010
0.591119 0.121950 0.000000
0.824475 0.094636 0.000000
0.914092 0.145464 0.000000
0.000000 0.428824 0.000000
0.037827 0.530434 0.000000
0.727520 0.638666 0.000000
0.999069 0.653742 0.000000
1.000000 0.683375 0.000000
0.000000 0.689860 0.000000
0.000000 0.787304 0.000000
0.717876 0.942199 0.000000
0.992248 0.949722 0.000000
1.000000 0.948486 0.000000
0.000000 0.751415 0.016571
0.000000 0.806104 0.000000
0.718730 0.942550 0.000000
0.952590 0.958816 0.018204
1.000000 0.953933 0.253864
0.000000 0.000000 0.106996
0.114656 0.010773 0.108309
0.470192 0.000000 0.107271
0.671183 0.000000 0.104692
0.766979 0.000000 0.106966
0.000000 0.113039 0.138567
0.119249 0.125017 0.136126
0.621775 0.080873 0.081346
0.886595 0.052186 0.057267
0.911666 0.076570 0.130037
0.000000 0.476875 0.061219
0.000000 0.543938 0.042512
0.708461 0.648264 0.000000
0.997803 0.640803 0.000000
1.000000 0.674571 0.074800
0.000000 0.721935 0.082582
0.000000 0.783200 0.047364
0.507073 0.935637 0.000000
0.994842 0.943359 0.000000
1.000000 0.939590 0.099443
0.000000 0.764202 0.318929
0.000000 0.803632 0.260700
0.604471 0.921508 0.090669
0.941817 0.950790 0.254643
1.000000 0.953475 0.472129
0.000000 0.000000 0.329091
0.148928 0.000000 0.421363
0.508598 0.000000 0.455100
0.712673 0.000000 0.437736
0.799893 0.000000 0.422385
0.000000 0.000000 0.493706
0.008988 0.050263 0.575311
0.632807 0.082033 0.578576
0.906065 0.063157 0.548974
0.926680 0.104570 0.551522
0.000000 0.527810 0.607980
0.000000 0.566415 0.644694
0.626093 0.651575 0.630838
0.980301 0.640436 0.624842
0.995087 0.679988 0.654658
0.000000 0.778363 0.644648
0.000000 0.827283 0.620203
0.262776 0.935790 0.552834
0.981567 0.979492 0.596323
1.000000 0.966751 0.696269
0.000000 0.813626 0.706188
0.000000 0.838483 0.666575
0.373663 0.926986 0.636179
0.916350 0.984497 0.700557
1.000000 0.991257 0.832258
0.000000 0.000000 0.432197
0.146761 0.000000 0.563836
0.523507 0.000000 0.636683
0.708080 0.000000 0.632746
0.801984 0.000000 0.623758
0.000000 0.024170 0.650309
0.000000 0.096040 0.784573
0.611933 0.109728 0.852399
0.881834 0.079011 0.820905
0.937819 0.122683 0.805127
0.000000 0.466712 0.840772
0.000000 0.462837 0.928862
0.570871 0.528542 0.964630
0.976074 0.506538 0.968704
0.991318 0.633036 0.961242
0.000000 0.767636 0.887053
0.000000 0.826810 0.936995
0.135622 0.935866 0.958587
0.953231 0.962570 0.957794
1.000000 0.957137 0.951202
0.000000 0.824659 0.908553
0.000000 0.848432 0.906996
0.221576 0.932219 0.903456
0.894774 0.994507 0.929458
1.000000 1.000000 0.972549
0.000000 0.000000 0.505257
0.097475 0.000000 0.628092
0.511177 0.000000 0.719051
0.688457 0.000000 0.728023
0.794598 0.000000 0.733303
0.000000 0.047196 0.717433
0.000000 0.093309 0.821332
0.569207 0.144793 0.905623
0.845151 0.155383 0.922469
0.951675 0.189181 0.924590
0.000000 0.374838 0.920058
0.000000 0.417075 0.933272
0.565927 0.541604 0.966583
0.976715 0.565209 0.980056
0.991043 0.676097 0.983719
0.000000 0.753307 0.940688
0.000000 0.813733 0.952941
0.134478 0.915984 0.977035
0.941985 0.950607 0.999496
1.000000 0.956695 1.000000
0.000000 0.828092 0.949477
0.015122 0.849928 0.959091
0.314961 0.927306 0.976837
0.905058 0.993988 0.999741
1.000000 1.000000 1.000000
