LUT/LogC4/Arri35_LogC4_LogC3_D65_v1.cube
TITLE "Generated by Resolve"
LUT_3D_SIZE 5
0 0 0
0.391714 0 0
0.689418 0 0
0.936233 0 0
1 0 0
0.192416 0.398077 0
0.391043 0.376837 0
0.688502 0 0
0.936141 0 0
1 0 0
0.109361 0.694774 0
0.109392 0.694087 0
0.687968 0.675364 0
0.934951 0 0
1 0 0
0.106554 0.941543 0
0.106554 0.941482 0
0.106584 0.94052 0
0.934752 0.92224 0
1 0.88333 0
0.10631 1 0
0.106325 1 0
0.10634 1 0
0.926436 1 0
1 1 0
0 0.0800183 0.376959
0.383322 0 0.369757
0.688945 0 0.195209
0.936248 0 0
1 0 0
0.0585489 0.40383 0.378714
0.383032 0.385733 0.372534
0.687984 0 0.225467
0.936156 0 0
1 0 0
0.10312 0.695109 0.389746
0.10312 0.694438 0.389395
0.687434 0.675898 0.272892
0.93492 0 0
1 0 0
0.105928 0.941573 0.345617
0.105928 0.941512 0.345037
0.105959 0.940551 0.336675
0.934691 0.922286 0
1 0.883436 0
0.106081 1 0.0746929
0.106081 1 0.0547799
0.106111 1 0
0.926375 1 0
1 1 0
0.0121462 0.411582 0.673838
0.353216 0.40032 0.673411
0.681758 0 0.667308
0.935485 0 0.590417
1 0 0
0 0.478401 0.674006
0.346868 0.471763 0.673594
0.681682 0.32253 0.667552
0.935378 0 0.591379
1 0 0
0.0502785 0.700389 0.6757
0.0500649 0.699748 0.675669
0.680781 0.683574 0.670039
0.934264 0 0.602792
1 0 0.120287
0.0978561 0.942061 0.685557
0.0978408 0.942 0.685542
0.0977951 0.941039 0.685206
0.933959 0.923049 0.625727
1 0.885039 0.373327
0.10277 1 0.692531
0.10277 1 0.69247
0.1028 1 0.691615
0.925536 1 0.646891
1 1 0.31107
0.300664 0.662898 0.920623
0.390799 0.661845 0.920577
0.656413 0.646235 0.919982
0.928618 0 0.914137
1 0 0.904738
0.284169 0.671351 0.920638
0.38439 0.670359 0.920592
0.656153 0.655772 0.919997
0.928527 0 0.914183
1 0 0.904799
0 0.750317 0.920851
0 0.749935 0.920851
0.651392 0.742077 0.920256
0.928557 0.635355 0.914458
1 0 0.905516
0.049958 0.947158 0.922484
0.0499428 0.947082 0.922484
0.0496376 0.946181 0.922438
0.927611 0.930404 0.916854
1 0.898543 0.907668
0.0767681 1 0.925536
0.0767834 1 0.925521
0.0767987 1 0.925444
0.918273 1 0.920714
1 1 0.910506
0.407065 0.765026 1
0.449042 0.764614 1
0.648859 0.758801 1
0.920836 0.687739 1
1 0 1
0.401282 0.768353 1
0.445258 0.767956 1
0.648432 0.762295 1
0.920821 0.693614 1
1 0 1
0.202564 0.807095 1
0.360235 0.80679 1
0.641627 0.802579 1
0.920775 0.755001 1
1 0.609049 1
0.0136416 0.956832 1
0.013611 0.956786 1
0.0132753 0.955962 1
0.918853 0.942855 1
1 0.91754 1
0.0464637 1 1
0.0464637 1 1
0.0464637 1 1
0.907118 1 1
1 1 1
