LUT/LogC4/Arri35_LogC4_709_D65_K1S1_v1.cube
TITLE "Generated by Resolve"
LUT_3D_SIZE 9
0 0 0
0.0179141 0.00248722 0.00637827
0.191012 0.00827039 0.0402533
0.595697 0.0228733 0.101106
0.965026 0.0511025 0.172274
0.999878 0.4318 0.370108
1 0.724651 0.667521
1 0.963058 0.953079
1 0.998856 0.99852
0.00129702 0.0193484 0.0116732
0.028397 0.0313878 0.005066
0.226734 0.0256809 0.0208896
0.616617 0.0170748 0.0927138
0.969589 0.0601205 0.170642
0.999878 0.433478 0.371023
1 0.725063 0.667918
1 0.963088 0.953109
1 0.998856 0.99852
0.00437934 0.186526 0.0864118
0.00254826 0.213886 0.0853742
0.320668 0.330739 0.00654612
0.686809 0.25214 0.0223697
0.991211 0.0966049 0.157702
0.999802 0.440452 0.374777
0.999985 0.726696 0.669459
1 0.963211 0.953246
1 0.998856 0.99852
0.00859083 0.530755 0.224231
0.00843824 0.54342 0.226703
0.0462806 0.613123 0.138659
0.638224 0.652277 0.016968
1 0.483192 0.186984
0.999741 0.471 0.391592
1 0.733104 0.675532
1 0.963638 0.953735
1 0.998856 0.99852
0 0.873915 0.319799
0 0.876951 0.320577
0 0.889632 0.329168
0.104585 0.946761 0.16318
0.865034 0.893812 0.0222782
1 0.705272 0.538369
0.999969 0.760037 0.701442
1 0.965286 0.955627
1 0.998871 0.99852
0.67718 1 0.676493
0.679393 1 0.678157
0.688136 1 0.684657
0.717052 1 0.711254
0.826017 1 0.786679
0.971283 0.985763 0.686503
1 0.903136 0.835538
0.999985 0.971389 0.962768
1 0.998901 0.99855
0.878874 1 0.86511
0.878996 1 0.865202
0.879438 1 0.865583
0.881285 1 0.867109
0.888716 0.999985 0.873213
0.929427 1 0.903258
0.991958 0.998734 0.936889
1 0.991394 0.984237
1 0.998978 0.998657
0.98378 1 0.980423
0.98378 1 0.980423
0.983825 1 0.980484
0.983993 1 0.980667
0.984665 1 0.981414
0.986999 1 0.984161
0.993988 1 0.991455
0.999313 0.999924 0.995483
1 0.999802 0.999664
0.999496 1 0.999374
0.999496 1 0.999374
0.999496 1 0.999374
0.999496 1 0.999374
0.999496 1 0.999374
0.999512 1 0.99939
0.999527 1 0.99942
0.999664 1 0.999496
0.999954 1 0.99968
0.00128176 0.000854505 0.00935378
0.0260166 0.00396735 0.0213474
0.209644 0.0109712 0.0764477
0.607431 0.0251621 0.135317
0.968429 0.0540169 0.18497
0.999878 0.433249 0.373281
1 0.724971 0.668177
1 0.963088 0.953109
1 0.998856 0.99852
0.00143435 0.0270848 0.0251774
0.0507668 0.0507668 0.0507668
0.276265 0.0154574 0.0791638
0.630182 0.0291752 0.131609
0.973022 0.0679637 0.183597
0.999863 0.434928 0.374197
1 0.725383 0.668574
1 0.963104 0.953155
1 0.998856 0.99852
0.00633249 0.204578 0.108568
0.00215152 0.253956 0.123491
0.33167 0.339483 0.0203403
0.716747 0.233066 0.0595102
0.992828 0.119234 0.175494
0.999802 0.441886 0.377981
0.999969 0.727016 0.670115
1 0.963226 0.953277
1 0.998856 0.99852
0.00740063 0.540841 0.233433
0.00830091 0.555627 0.236698
0.0414435 0.62501 0.153414
0.641901 0.653925 0.0298619
1 0.485771 0.207691
0.999725 0.472526 0.394812
1 0.733425 0.676173
1 0.963653 0.953765
1 0.998856 0.99852
0 0.876188 0.324559
0 0.879316 0.325383
0 0.892241 0.333989
0.103517 0.948928 0.167636
0.865446 0.89398 0.0271153
1 0.706142 0.541024
0.999969 0.760342 0.702052
1 0.965301 0.955657
1 0.998871 0.99852
0.67866 1 0.678172
0.680873 1 0.679835
0.689586 1 0.686381
0.718395 1 0.71281
0.826459 1 0.787442
0.971283 0.985748 0.686976
1 0.903258 0.835889
0.999985 0.971405 0.962798
1 0.998901 0.99855
0.878996 1 0.865278
0.879118 1 0.86537
0.879561 1 0.865751
0.881422 1 0.867277
0.888853 0.999985 0.873381
0.929503 1 0.903395
0.991974 0.998734 0.936919
1 0.991394 0.984253
1 0.998978 0.998657
0.98378 1 0.980438
0.983795 1 0.980438
0.983841 1 0.980499
0.984009 1 0.980682
0.984665 1 0.98143
0.987015 1 0.984176
0.994003 1 0.991455
0.999313 0.999924 0.995483
1 0.999802 0.999664
0.999496 1 0.999374
0.999496 1 0.999374
0.999496 1 0.999374
0.999496 1 0.999374
0.999496 1 0.999374
0.999512 1 0.99939
0.999527 1 0.99942
0.999664 1 0.999496
0.999954 1 0.99968
0.00244144 0.045243 0.114641
0.0442969 0.0101625 0.18558
0.305867 0.019791 0.258686
0.649866 0.0284123 0.314855
0.985168 0.0905318 0.291676
0.999802 0.43975 0.387839
0.999985 0.726207 0.670771
1 0.963149 0.953246
1 0.998856 0.99852
0.00271611 0.0708019 0.141085
0.0344396 0.0448005 0.229206
0.341955 0.0184634 0.291005
0.673335 0.0347753 0.322881
0.988495 0.113146 0.292409
0.999786 0.441444 0.388754
0.999985 0.726635 0.671168
1 0.96318 0.953277
1 0.998856 0.99852
0.00500496 0.278721 0.265385
0 0.304616 0.289097
0.330007 0.330007 0.330007
0.751232 0.229328 0.341634
0.999878 0.185428 0.297154
0.999832 0.448432 0.392432
0.999969 0.728252 0.672694
1 0.963302 0.953414
1 0.998856 0.99852
0.00901808 0.572412 0.35552
0.00880446 0.58761 0.363348
0.0468299 0.642023 0.351202
0.634256 0.650202 0.325978
0.996124 0.513924 0.354559
0.999725 0.47924 0.409003
1 0.734676 0.678752
1 0.963729 0.953902
1 0.998856 0.99852
0 0.882704 0.37174
0 0.886122 0.372808
0 0.900008 0.378454
0.0830091 0.955474 0.228153
0.865583 0.894362 0.118853
1 0.709957 0.551125
0.999969 0.761532 0.704524
1 0.965377 0.955795
1 0.998871 0.99852
0.684123 1 0.684047
0.686336 1 0.685771
0.694957 1 0.692409
0.724163 1 0.718334
0.828336 1 0.788678
0.971313 0.985687 0.68838
1 0.903716 0.837263
0.999985 0.971481 0.962921
1 0.998901 0.99855
0.879484 1 0.86595
0.879606 1 0.866041
0.880064 1 0.866423
0.881926 1 0.867964
0.889372 0.999985 0.874098
0.929839 1 0.90396
0.992004 0.998718 0.936996
1 0.991409 0.984298
1 0.998978 0.998657
0.983825 1 0.980484
0.983841 1 0.980499
0.983886 1 0.98056
0.984054 1 0.980743
0.98471 1 0.981491
0.98706 1 0.984222
0.994003 1 0.99147
0.999313 0.999924 0.995483
1 0.999802 0.999664
0.999496 1 0.999374
0.999496 1 0.999374
0.999496 1 0.999374
0.999496 1 0.999374
0.999496 1 0.999374
0.999512 1 0.99939
0.999527 1 0.99942
0.999664 1 0.999496
0.999954 1 0.99968
0.00581369 0.208026 0.446891
0.00321965 0.190433 0.509941
0.316899 0.090425 0.635813
0.691768 0.0211185 0.588464
0.994049 0.147433 0.515785
0.999786 0.47451 0.488365
1 0.731563 0.682322
1 0.963424 0.95375
1 0.998856 0.99852
0.00572213 0.220539 0.458595
0.00112917 0.211994 0.512886
0.318944 0.125734 0.648585
0.701396 0.0367437 0.597498
0.996612 0.161013 0.518135
0.999786 0.476387 0.489357
1 0.731975 0.682704
1 0.963439 0.953796
1 0.998856 0.99852
0.00721752 0.319677 0.506523
0.00608835 0.324895 0.530465
0.276265 0.304387 0.659327
0.737881 0.174807 0.634012
1 0.228901 0.527443
0.999832 0.48397 0.4934
1 0.733593 0.684199
1 0.963561 0.953918
1 0.998856 0.99852
0.0115816 0.612467 0.584527
0.016144 0.618418 0.590463
0.108583 0.638651 0.612116
0.622477 0.622477 0.622477
0.979416 0.551263 0.603387
0.999939 0.51603 0.510948
1 0.739971 0.690074
1 0.963989 0.954406
1 0.998856 0.99852
0.00727855 0.886671 0.562753
0.012253 0.889677 0.563973
0.0323949 0.900923 0.567834
0.287495 0.923491 0.555581
0.845823 0.874006 0.610285
1 0.740719 0.644907
0.999954 0.766552 0.715145
1 0.965637 0.956298
1 0.998856 0.99852
0.695018 1 0.712581
0.697429 1 0.714061
0.706706 1 0.719921
0.734157 1 0.741222
0.824979 1 0.786892
0.970672 0.985077 0.702937
1 0.905562 0.842908
1 0.971725 0.963378
1 0.998901 0.99855
0.8813 1 0.868467
0.881422 1 0.868559
0.881895 1 0.868955
0.883787 1 0.870481
0.89134 0.999969 0.876829
0.931151 1 0.906294
0.992142 0.998672 0.937209
1 0.991455 0.984466
1 0.998978 0.998657
0.984009 1 0.980728
0.984024 1 0.980743
0.98407 1 0.980789
0.984237 1 0.980987
0.984894 1 0.98172
0.987213 1 0.984436
0.994034 1 0.991531
0.999313 0.999924 0.995499
1 0.999802 0.999664
0.999496 1 0.999374
0.999496 1 0.999374
0.999496 1 0.999374
0.999496 1 0.999374
0.999496 1 0.999374
0.999512 1 0.99939
0.999527 1 0.99942
0.999664 1 0.999496
0.999954 1 0.99968
0.00790417 0.357488 0.75964
0.00779736 0.355291 0.778042
0.0468757 0.31136 0.907897
0.546899 0.314122 0.934127
0.97293 0.0911116 0.831327
0.999802 0.505257 0.647959
1 0.753796 0.745037
1 0.964416 0.955734
1 0.998856 0.99852
0.00758373 0.36257 0.76286
0.00759899 0.360479 0.780926
0.0420233 0.320638 0.905882
0.547417 0.322164 0.935637
0.974487 0.0987564 0.832929
0.999802 0.507057 0.648798
1 0.754223 0.745388
1 0.964446 0.955779
1 0.998856 0.99852
0.00575265 0.38265 0.775845
0.00560006 0.38117 0.792416
0.0453193 0.355123 0.899275
0.54873 0.355352 0.93872
0.98027 0.139849 0.839033
0.999786 0.514168 0.652201
1 0.755901 0.746807
1 0.964569 0.955901
1 0.998856 0.99852
0.0671855 0.57702 0.865797
0.0809339 0.578119 0.871931
0.146883 0.581033 0.898131
0.550454 0.59057 0.904997
0.970489 0.441749 0.847517
1 0.542199 0.666133
1 0.762478 0.752346
1 0.964996 0.956374
1 0.998856 0.99852
0.467384 0.859739 0.826551
0.471427 0.860334 0.827405
0.486198 0.862303 0.830472
0.593759 0.861906 0.83769
0.840116 0.840116 0.840116
1 0.775082 0.794537
0.999939 0.788708 0.774838
1 0.966628 0.958221
1 0.998856 0.99852
0.64918 1 0.7906
0.651057 1 0.791333
0.658015 1 0.794095
0.681559 1 0.803876
0.780941 0.99733 0.823896
0.955825 0.972473 0.837186
1 0.917021 0.88217
0.999985 0.972641 0.965133
1 0.998886 0.99855
0.900404 0.999954 0.893568
0.900511 0.999954 0.89366
0.900938 0.999954 0.894041
0.902617 0.999954 0.895491
0.909285 0.999939 0.901549
0.942321 1 0.925444
0.992676 0.998199 0.937163
1 0.991623 0.985046
1 0.998978 0.998657
0.984512 1 0.981399
0.984527 1 0.981414
0.984573 1 0.981476
0.984741 1 0.981659
0.985367 1 0.982361
0.987701 1 0.985046
0.994125 1 0.99173
0.999329 0.999924 0.995544
1 0.999786 0.999664
0.999496 1 0.999374
0.999496 1 0.999374
0.999496 1 0.999374
0.999496 1 0.999374
0.999496 1 0.99939
0.999512 1 0.99939
0.999527 1 0.99942
0.999664 1 0.999496
0.999954 1 0.99968
0.189899 0.542473 1
0.196017 0.542977 1
0.229007 0.545922 1
0.318837 0.555306 1
0.715831 0.579355 1
1 0.55697 0.876158
0.999878 0.782208 0.833387
1 0.9682 0.966064
1 0.99881 0.998459
0.191959 0.544274 1
0.19794 0.544778 1
0.231022 0.547723 1
0.320104 0.557092 1
0.716075 0.581079 1
1 0.558038 0.876356
0.999878 0.782605 0.833646
1 0.968231 0.966094
1 0.99881 0.998459
0.199725 0.551385 1
0.206577 0.55198 1
0.238956 0.554849 1
0.325154 0.564095 1
0.717083 0.587701 1
1 0.562264 0.877073
0.999893 0.7841 0.834653
1 0.968338 0.966201
1 0.99881 0.998474
0.234867 0.577661 1
0.241886 0.578332 1
0.268147 0.580957 1
0.344915 0.589715 1
0.721202 0.61207 1
1 0.57847 0.880003
0.999878 0.789944 0.83856
1 0.96875 0.966613
1 0.99881 0.998474
0.4925 0.785565 0.99826
0.49485 0.785809 0.998276
0.504158 0.786755 0.998383
0.540948 0.790356 0.996658
0.768658 0.804623 0.988052
1 0.719676 0.912749
0.999878 0.811505 0.853361
1 0.970336 0.968185
1 0.998825 0.998474
0.78584 0.966934 0.946487
0.786358 0.966964 0.946578
0.788357 0.967102 0.946929
0.795773 0.967422 0.948135
0.848066 0.964172 0.950347
0.951614 0.951614 0.951614
1 0.930739 0.935561
0.999985 0.97586 0.973724
1 0.998856 0.99852
0.921065 1 0.946014
0.921172 1 0.946075
0.921553 1 0.946303
0.923018 1 0.947158
0.927749 1 0.950072
0.947967 1 0.955215
0.9897 0.993988 0.962356
1 0.99202 0.988205
1 0.998962 0.998657
0.988602 0.999985 0.986954
0.988602 0.999985 0.986954
0.988647 0.999985 0.986999
0.988769 0.999985 0.987137
0.989273 0.999985 0.987671
0.99089 0.999985 0.989487
0.993683 1 0.991379
0.999374 0.999893 0.995758
1 0.999786 0.999649
0.999512 1 0.999405
0.999512 1 0.999405
0.999512 1 0.999405
0.999512 1 0.999405
0.999512 1 0.999405
0.999527 1 0.999405
0.999542 1 0.999435
0.999664 1 0.999512
0.999954 1 0.99968
0.685954 0.830411 0.999939
0.686534 0.83061 0.999939
0.688807 0.831342 0.999985
0.697581 0.834119 1
0.729946 0.843915 0.999863
0.903181 0.862989 1
1 0.875074 0.951812
0.999985 0.978698 0.983383
1 0.99855 0.998428
0.686381 0.830701 0.999939
0.686961 0.830884 0.999954
0.689219 0.831617 0.999985
0.697993 0.834379 1
0.730297 0.844175 0.999863
0.903258 0.863218 1
1 0.875212 0.951873
0.999985 0.978714 0.983398
1 0.99855 0.998428
0.688014 0.831769 0.999939
0.688594 0.831952 0.999954
0.690852 0.832685 0.999985
0.69958 0.835431 1
0.731685 0.845167 0.999863
0.903593 0.864088 1
1 0.875761 0.952071
0.999985 0.97879 0.983459
1 0.99855 0.998428
0.694286 0.835889 0.999969
0.694865 0.836072 0.999985
0.697093 0.836789 0.999985
0.705592 0.83946 1
0.736873 0.848951 0.999863
0.90483 0.867414 1
1 0.877806 0.952865
0.999985 0.979065 0.983658
1 0.99855 0.998428
0.715023 0.849302 0.999954
0.715557 0.84947 0.999954
0.717632 0.850111 0.999954
0.725475 0.852537 0.999969
0.754803 0.861112 1
0.909178 0.878294 1
1 0.885176 0.955703
0.999985 0.980087 0.984421
1 0.998566 0.998444
0.842954 0.935805 1
0.843183 0.935851 1
0.844083 0.936065 1
0.847532 0.936843 1
0.860334 0.939605 1
0.934905 0.947646 0.998718
1 0.932616 0.975204
0.999985 0.9832 0.986786
1 0.998611 0.998489
0.948333 0.992645 0.987259
0.948363 0.992645 0.987259
0.948531 0.992645 0.987289
0.949157 0.99266 0.987396
0.951354 0.992691 0.987762
0.963729 0.991791 0.98851
0.988922 0.988922 0.988922
1 0.992706 0.993118
1 0.998795 0.998688
0.987396 1 0.990814
0.987396 1 0.990814
0.987427 1 0.990829
0.987533 1 0.990906
0.98793 1 0.99118
0.989242 1 0.992096
0.993469 1 0.994186
0.99942 0.99968 0.996887
1 0.99968 0.999542
0.999588 1 0.999481
0.999588 1 0.999481
0.999588 1 0.999481
0.999588 1 0.999481
0.999573 1 0.999481
0.999573 1 0.999466
0.999557 1 0.999466
0.99968 1 0.999557
0.999969 1 0.99971
0.973342 0.986557 1
0.973373 0.986557 1
0.973449 0.986587 1
0.973739 0.986694 1
0.974853 0.987106 1
0.977829 0.988479 0.999939
0.99295 0.990295 1
1 0.994049 0.997696
1 0.998672 0.998978
0.973373 0.986557 1
0.973388 0.986572 1
0.973465 0.986603 1
0.973754 0.986709 1
0.974868 0.987106 1
0.977844 0.988479 0.999939
0.99295 0.990295 1
1 0.994049 0.997696
1 0.998672 0.998978
0.973434 0.986603 1
0.973449 0.986603 1
0.973526 0.986633 1
0.973816 0.98674 1
0.974929 0.987152 1
0.97789 0.98851 0.999939
0.992966 0.990311 1
1 0.994064 0.997696
1 0.998688 0.998978
0.973678 0.986725 1
0.973693 0.98674 1
0.97377 0.98677 1
0.97406 0.986877 1
0.975158 0.987274 1
0.978088 0.988617 0.999939
0.992996 0.990387 1
1 0.994079 0.997696
1 0.998688 0.998978
0.974624 0.987243 1
0.974655 0.987259 1
0.974716 0.987289 1
0.97499 0.987396 1
0.976028 0.987762 1
0.978836 0.989029 0.999954
0.993103 0.990662 1
1 0.994156 0.997742
1 0.998688 0.998993
0.976913 0.988403 1
0.976928 0.988403 1
0.976989 0.988434 1
0.977249 0.988525 1
0.97818 0.988861 1
0.980911 0.989944 1
0.993439 0.991257 1
1 0.9944 0.997833
1 0.998734 0.999023
0.985748 0.994354 0.999908
0.985748 0.994354 0.999908
0.985779 0.994354 0.999908
0.98587 0.994385 0.999908
0.986236 0.994476 0.999908
0.987366 0.994751 0.999908
0.993484 0.994858 0.999878
1 0.995514 0.998398
1 0.998856 0.999115
0.993729 0.999634 0.998993
0.993744 0.999634 0.998993
0.993744 0.999634 0.999008
0.993759 0.999634 0.999008
0.993851 0.999649 0.999023
0.994125 0.99968 0.9991
0.995453 0.999664 0.999252
0.999359 0.999359 0.999359
1 0.999496 0.999527
0.999741 1 0.999741
0.999741 1 0.999741
0.999741 1 0.999741
0.999741 1 0.999741
0.999741 1 0.999741
0.999741 1 0.999741
0.999741 1 0.999756
0.999786 1 0.999802
0.999985 1 0.999863
0.998016 0.999023 1
0.998032 0.999023 1
0.998032 0.999023 1
0.998032 0.999023 1
0.998047 0.999039 1
0.998123 0.999054 1
0.99823 0.9991 1
0.99942 0.9991 1
1 0.999374 0.999756
0.998032 0.999023 1
0.998032 0.999023 1
0.998032 0.999023 1
0.998032 0.999023 1
0.998047 0.999039 1
0.998123 0.999054 1
0.99823 0.9991 1
0.99942 0.9991 1
1 0.999374 0.999756
0.998032 0.999023 1
0.998032 0.999023 1
0.998032 0.999023 1
0.998032 0.999023 1
0.998047 0.999039 1
0.998123 0.999054 1
0.99823 0.9991 1
0.99942 0.9991 1
1 0.999374 0.999756
0.998032 0.999023 1
0.998032 0.999023 1
0.998032 0.999023 1
0.998032 0.999023 1
0.998047 0.999039 1
0.998123 0.999054 1
0.998245 0.9991 1
0.99942 0.9991 1
1 0.999374 0.999756
0.998032 0.999039 1
0.998032 0.999039 1
0.998047 0.999039 1
0.998047 0.999039 1
0.998062 0.999039 1
0.998123 0.999054 1
0.998245 0.999115 1
0.99942 0.9991 1
1 0.999374 0.999756
0.998093 0.999069 1
0.998093 0.999069 1
0.998093 0.999069 1
0.998093 0.999069 1
0.998108 0.999069 1
0.998169 0.999084 1
0.998276 0.99913 1
0.99942 0.999115 1
1 0.999374 0.999756
0.998215 0.99913 1
0.998215 0.99913 1
0.99823 0.99913 1
0.99823 0.99913 1
0.998245 0.99913 1
0.998291 0.999146 1
0.998398 0.999191 1
0.999435 0.999176 1
1 0.999405 0.999771
0.998642 0.999481 1
0.998642 0.999481 1
0.998642 0.999481 1
0.998642 0.999481 1
0.998642 0.999481 1
0.998672 0.999496 1
0.998764 0.999512 1
0.99939 0.999512 1
1 0.999542 0.999832
0.999527 1 0.999954
0.999527 1 0.999954
0.999527 1 0.999954
0.999527 1 0.999954
0.999527 1 0.999954
0.999527 1 0.999954
0.999542 1 0.999954
0.999664 1 0.999969
1 1 1
