LUT/LogC4/Arri35_LogC4_LogC3_D65_v1.cube
TITLE "Generated by Resolve"
LUT_3D_SIZE 9
0 0 0
0.184009 0 0
0.391714 0 0
0.545861 0 0
0.689418 0 0
0.823728 0 0
0.936233 0 0
1 0 0
1 0 0
0 0.20235 0
0.193515 0.165118 0
0.390585 0 0
0.545144 0 0
0.689219 0 0
0.823667 0 0
0.936217 0 0
1 0 0
1 0 0
0.192416 0.398077 0
0.184726 0.395041 0
0.391043 0.376837 0
0.544793 0.260914 0
0.688502 0 0
0.823468 0 0
0.936141 0 0
1 0 0
1 0 0
0.119677 0.5514 0
0.119768 0.550866 0
0.362844 0.547646 0
0.544549 0.531655 0
0.68835 0.443259 0
0.822675 0 0
0.935882 0 0
1 0 0
1 0 0
0.109361 0.694774 0
0.109361 0.694636 0
0.109392 0.694087 0
0.521599 0.690776 0
0.687968 0.675364 0
0.82266 0.601526 0
0.934951 0 0
1 0 0
1 0 0
0.107103 0.829038 0
0.107118 0.828992 0
0.107118 0.82884 0
0.107134 0.82826 0
0.669429 0.824628 0
0.822248 0.809705 0
0.935225 0.759564 0
1 0.601495 0
1 0 0
0.106554 0.941543 0
0.106554 0.941527 0
0.106554 0.941482 0
0.106554 0.941268 0
0.106584 0.94052 0
0.811353 0.935882 0
0.934752 0.92224 0
1 0.89926 0
1 0.88333 0
0.106401 1 0
0.106401 1 0
0.106401 1 0
0.106401 1 0
0.106416 1 0
0.755474 1 0
0.93109 1 0
1 0.99353 0
1 0.986358 0
0.10631 1 0
0.10631 1 0
0.106325 1 0
0.106325 1 0
0.10634 1 0
0.604288 1 0
0.926436 1 0
1 1 0
1 1 0
0 0 0.180087
0.170489 0 0.167895
0.389944 0 0.108141
0.54551 0 0
0.689387 0 0
0.823728 0 0
0.936233 0 0
1 0 0
1 0 0
0 0.20763 0.18027
0.178759 0.180682 0.170092
0.388968 0 0.117906
0.544747 0 0
0.689189 0 0
0.823667 0 0
0.936217 0 0
1 0 0
1 0 0
0.15462 0.399161 0.180117
0.162493 0.396185 0.175708
0.389227 0.378683 0.127016
0.544396 0.272633 0
0.688426 0 0
0.823468 0 0
0.936156 0 0
1 0 0
1 0 0
0.113634 0.551659 0.174548
0.113695 0.551125 0.173999
0.360662 0.547936 0.146029
0.544121 0.532082 0
0.688243 0.445212 0
0.822675 0 0
0.935866 0 0
1 0 0
1 0 0
0.108019 0.69485 0.13637
0.108019 0.694697 0.135515
0.108034 0.694163 0.132219
0.521096 0.690852 0
0.687861 0.675471 0
0.822629 0.601938 0
0.934951 0 0
1 0 0
1 0 0
0.106737 0.829053 0
0.106737 0.829023 0
0.106752 0.82887 0
0.106767 0.828275 0
0.669291 0.824643 0
0.822202 0.809735 0
0.93521 0.759655 0
1 0.60209 0
1 0 0
0.106416 0.941558 0
0.106416 0.941543 0
0.106416 0.941482 0
0.106432 0.941283 0
0.106447 0.94052 0
0.811322 0.935882 0
0.934737 0.92224 0
1 0.899275 0
1 0.883345 0
0.10634 1 0
0.10634 1 0
0.10634 1 0
0.10634 1 0
0.106355 1 0
0.755444 1 0
0.93109 1 0
1 0.993545 0
1 0.986374 0
0.106264 1 0
0.106264 1 0
0.106264 1 0
0.106279 1 0
0.106294 1 0
0.604273 1 0
0.926421 1 0
1 1 0
1 1 0
0 0.0800183 0.376959
0.152773 0.0460517 0.375494
0.383322 0 0.369757
0.543847 0 0.345037
0.688945 0 0.195209
0.823636 0 0
0.936248 0 0
1 0 0
1 0 0
0 0.238071 0.377356
0.152972 0.223194 0.376059
0.383413 0.142947 0.370428
0.543069 0 0.347189
0.688746 0 0.202182
0.82359 0 0
0.936217 0 0
1 0 0
1 0 0
0.0585489 0.40383 0.378714
0.118593 0.401038 0.378088
0.383032 0.385733 0.372534
0.542962 0.303197 0.350225
0.687984 0 0.225467
0.823377 0 0
0.936156 0 0
1 0 0
1 0 0
0.0944839 0.552712 0.382773
0.0944381 0.552178 0.382696
0.353231 0.549065 0.379248
0.542565 0.533745 0.357916
0.687861 0.452064 0.244694
0.822553 0 0
0.935882 0 0
1 0 0
1 0 0
0.10312 0.695109 0.389746
0.10312 0.694972 0.38967
0.10312 0.694438 0.389395
0.519249 0.691142 0.375555
0.687434 0.675898 0.272892
0.822522 0.603494 0
0.93492 0 0
1 0 0
1 0 0
0.105348 0.829129 0.387289
0.105348 0.829099 0.387213
0.105348 0.828946 0.386923
0.105364 0.828351 0.38584
0.668803 0.824735 0.316289
0.822095 0.809857 0
0.93518 0.759976 0
1 0.604303 0
1 0 0
0.105928 0.941573 0.345617
0.105928 0.941558 0.345495
0.105928 0.941512 0.345037
0.105943 0.941314 0.343313
0.105959 0.940551 0.336675
0.811185 0.935912 0
0.934691 0.922286 0
1 0.899336 0
1 0.883436 0
0.106081 1 0.16968
0.106081 1 0.169024
0.106081 1 0.166598
0.106081 1 0.156771
0.106096 1 0.11014
0.755306 1 0
0.931044 1 0
1 0.993561 0
1 0.986389 0
0.106081 1 0.0746929
0.106081 1 0.0705119
0.106081 1 0.0547799
0.106081 1 0
0.106111 1 0
0.604242 1 0
0.926375 1 0
1 1 0
1 1 0
0 0.252766 0.530434
0.147494 0.242725 0.530083
0.369589 0.196948 0.528786
0.538079 0 0.523781
0.687297 0 0.502876
0.823163 0 0.40444
0.936095 0 0
1 0 0
1 0 0
0 0.314717 0.530556
0.138811 0.308537 0.530236
0.369375 0.2822 0.528939
0.537972 0.101823 0.52398
0.687099 0 0.503365
0.823102 0 0.405509
0.93608 0 0
1 0 0
1 0 0
0 0.423026 0.530938
0.0808423 0.420813 0.530755
0.367163 0.410101 0.529473
0.538094 0.360632 0.524529
0.686336 0 0.505241
0.822889 0 0.409491
0.936004 0 0
1 0 0
1 0 0
0.0513771 0.557046 0.53228
0.051194 0.556527 0.53225
0.333883 0.553643 0.531395
0.537209 0.539986 0.526513
0.686442 0.472358 0.507591
0.822065 0 0.423438
0.935714 0 0
1 0 0
1 0 0
0.0873426 0.696178 0.536324
0.0873121 0.69604 0.536294
0.0872511 0.695506 0.536217
0.512932 0.692271 0.53283
0.685908 0.677546 0.514641
0.82211 0.609018 0.43537
0.934783 0 0
1 0 0
1 0 0
0.100343 0.829435 0.543725
0.100343 0.829389 0.543709
0.100328 0.829236 0.543648
0.100313 0.828656 0.543389
0.667018 0.825055 0.530465
0.821637 0.81033 0.457618
0.935027 0.761151 0
1 0.612116 0
1 0 0
0.104128 0.94168 0.546639
0.104128 0.941665 0.546609
0.104128 0.941619 0.546548
0.104128 0.941405 0.546319
0.104128 0.940658 0.545434
0.810681 0.936034 0.48687
0.934539 0.922454 0
1 0.899611 0
1 0.883787 0
0.10515 1 0.539391
0.10515 1 0.539376
0.10515 1 0.5393
0.10515 1 0.53904
0.10515 1 0.538064
0.754772 1 0.509789
0.930861 1 0
1 0.993652 0
1 0.986496 0
0.105364 1 0.539513
0.105364 1 0.539452
0.105364 1 0.539208
0.105364 1 0.538323
0.105394 1 0.534951
0.604135 1 0.521035
0.926192 1 0
1 1 0
1 1 0
0.0121462 0.411582 0.673838
0.173587 0.409308 0.673747
0.353216 0.40032 0.673411
0.525689 0.360555 0.672129
0.681758 0 0.667308
0.821439 0 0.648981
0.935485 0 0.590417
1 0 0.409674
1 0 0
0 0.429099 0.673869
0.164004 0.4271 0.673793
0.352087 0.419257 0.673442
0.525628 0.385412 0.672175
0.681636 0.0234989 0.667399
0.821393 0 0.649104
0.935454 0 0.590616
1 0 0.410529
1 0 0
0 0.478401 0.674006
0.107195 0.477104 0.67393
0.346868 0.471763 0.673594
0.525338 0.449668 0.672312
0.681682 0.32253 0.667552
0.821164 0 0.649592
0.935378 0 0.591379
1 0 0.413764
1 0 0
0 0.574121 0.674372
0 0.573709 0.674372
0.308919 0.57142 0.674128
0.52311 0.561456 0.672847
0.681743 0.517449 0.668101
0.820432 0 0.65127
0.935103 0 0.594232
1 0 0.425193
1 0 0
0.0502785 0.700389 0.6757
0.0502327 0.700252 0.6757
0.0500649 0.699748 0.675669
0.496071 0.696773 0.674739
0.680781 0.683574 0.670039
0.82063 0.625696 0.653422
0.934264 0 0.602792
1 0 0.459693
1 0 0.120287
0.084596 0.830549 0.679438
0.0845808 0.830518 0.679438
0.0845655 0.830365 0.679408
0.0844739 0.829786 0.679332
0.661021 0.826276 0.675776
0.820035 0.812055 0.659739
0.934493 0.765286 0.610727
1 0.635431 0.49427
1 0 0.380102
0.0978561 0.942061 0.685557
0.0978408 0.942046 0.685557
0.0978408 0.942 0.685542
0.0978408 0.941787 0.685466
0.0977951 0.941039 0.685206
0.80885 0.936461 0.671672
0.933959 0.923049 0.625727
1 0.900557 0.51603
1 0.885039 0.373327
0.101793 1 0.689586
0.101793 1 0.689586
0.101793 1 0.68957
0.101793 1 0.689509
0.101793 1 0.689265
0.752911 1 0.682872
0.930236 1 0.639918
1 0.993957 0.537499
1 0.986862 0.338933
0.10277 1 0.692531
0.10277 1 0.692515
0.10277 1 0.69247
0.102785 1 0.692287
0.1028 1 0.691615
0.6038 1 0.68835
0.925536 1 0.646891
1 1 0.548486
1 1 0.31107
0.173205 0.549462 0.808103
0.240375 0.548836 0.808087
0.357198 0.54641 0.80798
0.509377 0.536904 0.80763
0.670481 0.495598 0.806271
0.816098 0 0.801617
0.933455 0 0.78819
1 0 0.766842
1 0 0.75761
0.162325 0.554604 0.808118
0.234913 0.553994 0.808087
0.355612 0.551675 0.807996
0.509133 0.542535 0.80763
0.670466 0.503182 0.806287
0.816037 0 0.801648
0.93344 0 0.78822
1 0 0.766888
1 0 0.757656
0.103334 0.572259 0.808164
0.209934 0.571725 0.808133
0.349065 0.56968 0.808042
0.508141 0.561746 0.807675
0.670405 0.528283 0.806332
0.815976 0.256901 0.801709
0.933364 0 0.788357
1 0 0.76704
1 0 0.757809
0 0.621546 0.808286
0 0.621286 0.808286
0.31429 0.619883 0.808194
0.503578 0.614466 0.807828
0.670115 0.592645 0.806485
0.816022 0.482811 0.801877
0.933074 0 0.788861
1 0 0.767636
1 0 0.758404
0.00187686 0.715633 0.808698
0.00183108 0.715526 0.808698
0.00164797 0.715084 0.808682
0.472328 0.712688 0.808392
0.667979 0.70277 0.80705
0.816083 0.663035 0.802457
0.932555 0.445594 0.790097
1 0 0.769802
1 0 0.76054
0.0500343 0.834653 0.809979
0.0500191 0.834607 0.809979
0.049958 0.83447 0.809964
0.0497749 0.833906 0.809949
0.645884 0.830671 0.808881
0.815091 0.817884 0.804334
0.932723 0.777478 0.792126
1 0.682948 0.773098
1 0.569787 0.76466
0.0802167 0.943404 0.812863
0.0802167 0.943389 0.812863
0.0802014 0.943343 0.812863
0.0801709 0.943145 0.812833
0.0800336 0.942397 0.812741
0.803204 0.937972 0.808728
0.932067 0.925093 0.796841
1 0.903716 0.778302
1 0.889097 0.76846
0.0915694 1 0.816144
0.0915694 1 0.816144
0.0915694 1 0.816129
0.0915541 1 0.816114
0.0915236 1 0.816022
0.747204 1 0.814054
0.928191 1 0.802579
1 0.99501 0.784634
1 0.988083 0.772763
0.0946059 1 0.818692
0.0946059 1 0.818677
0.0946059 1 0.818662
0.0946059 1 0.818616
0.0946365 1 0.818433
0.602838 1 0.817411
0.923415 1 0.80589
1 1 0.788281
1 1 0.775311
0.300664 0.662898 0.920623
0.325902 0.662684 0.920607
0.390799 0.661845 0.920577
0.506447 0.65864 0.920455
0.656413 0.646235 0.919982
0.807202 0.594629 0.918379
0.928618 0 0.914137
1 0 0.907408
1 0 0.904738
0.297475 0.664714 0.920623
0.323415 0.6645 0.920607
0.389517 0.663676 0.920577
0.506081 0.660517 0.920455
0.656367 0.648295 0.919982
0.807202 0.59762 0.918379
0.928603 0 0.914153
1 0 0.907423
1 0 0.904753
0.284169 0.671351 0.920638
0.313252 0.671138 0.920623
0.38439 0.670359 0.920592
0.504646 0.667369 0.92047
0.656153 0.655772 0.919997
0.807202 0.608362 0.918395
0.928527 0 0.914183
1 0 0.907469
1 0 0.904799
0.204013 0.693431 0.920699
0.259068 0.693248 0.920684
0.361105 0.692592 0.920653
0.498695 0.690059 0.920516
0.655314 0.680323 0.920043
0.807157 0.641947 0.918456
0.928512 0.439643 0.914244
1 0 0.907637
1 0 0.904952
0 0.750317 0.920851
0 0.75024 0.920851
0 0.749935 0.920851
0.467247 0.748287 0.920714
0.651392 0.742077 0.920256
0.806928 0.718914 0.918654
0.928557 0.635355 0.914458
1 0.149126 0.908232
1 0 0.905516
0.00975052 0.845991 0.921324
0.00973526 0.84596 0.921324
0.00967422 0.845823 0.921324
0.00947585 0.845335 0.921309
0.62591 0.842618 0.920913
0.805066 0.832364 0.919326
0.928588 0.801709 0.915145
1 0.741405 0.908949
1 0.690486 0.906355
0.049958 0.947158 0.922484
0.049958 0.947143 0.922484
0.0499428 0.947082 0.922484
0.0498665 0.946899 0.922484
0.0496376 0.946181 0.922438
0.791669 0.942092 0.920989
0.927611 0.930404 0.916854
1 0.91136 0.910719
1 0.898543 0.907668
0.0708476 1 0.924041
0.0708476 1 0.924041
0.0708476 1 0.924025
0.0708171 1 0.924025
0.0707256 1 0.923995
0.735698 1 0.923247
0.923354 1 0.919173
1 0.997742 0.91313
1 0.991226 0.909392
0.0767681 1 0.925536
0.0767834 1 0.925536
0.0767834 1 0.925521
0.0767834 1 0.925505
0.0767987 1 0.925444
0.601724 1 0.925048
0.918273 1 0.920714
1 1 0.914656
1 1 0.910506
0.375616 0.734432 0.991913
0.388907 0.734325 0.991913
0.428977 0.733898 0.991897
0.516793 0.732265 0.991836
0.649866 0.726116 0.991592
0.798749 0.703197 0.990768
0.923644 0.619623 0.988617
0.999924 0 0.985428
1 0 0.984131
0.374029 0.735378 0.991913
0.387518 0.735256 0.991913
0.428061 0.734829 0.991897
0.516411 0.733211 0.991836
0.64979 0.727108 0.991592
0.798749 0.704372 0.990768
0.923644 0.62179 0.988617
0.999908 0 0.985443
1 0 0.984131
0.367773 0.738857 0.991928
0.382055 0.73875 0.991928
0.42443 0.738338 0.991897
0.514977 0.736751 0.991836
0.649485 0.7308 0.991592
0.798718 0.708736 0.990768
0.923644 0.62974 0.988632
0.999878 0 0.985458
1 0 0.984161
0.339239 0.751125 0.991958
0.357702 0.751034 0.991943
0.409049 0.750652 0.991928
0.509178 0.749218 0.991867
0.64828 0.743801 0.991623
0.798581 0.723918 0.990799
0.923644 0.655726 0.988663
0.999802 0.37499 0.985519
1 0 0.984222
0 0.787533 0.99205
0 0.787488 0.99205
0.302815 0.787198 0.992035
0.48159 0.786099 0.991974
0.643183 0.78201 0.99173
0.798032 0.7673 0.990906
0.923629 0.720958 0.988769
0.999832 0.613642 0.985626
1 0.455848 0.984436
0 0.86186 0.992294
0 0.86183 0.992294
0 0.861723 0.992294
0 0.861295 0.992294
0.615961 0.859068 0.992065
0.795239 0.851011 0.991257
0.923476 0.827787 0.98912
0.999893 0.78616 0.985977
1 0.754849 0.984695
0.0247349 0.952895 0.99292
0.0247349 0.95288 0.99292
0.0247196 0.952834 0.99292
0.0246433 0.952651 0.99292
0.0243687 0.95198 0.992905
0.780224 0.948287 0.992126
0.922072 0.937942 0.990005
0.999786 0.92137 0.986893
1 0.910399 0.985367
0.0499428 1 0.99379
0.0499428 1 0.99379
0.0499275 1 0.99379
0.049897 1 0.993774
0.0497749 1 0.993759
0.72462 1 0.993362
0.917342 1 0.991257
0.998901 1 0.988159
1 0.995697 0.986282
0.0568856 1 0.994827
0.0568856 1 0.994827
0.0568856 1 0.994812
0.0568856 1 0.994812
0.0569009 1 0.994766
0.602319 1 0.994553
0.911238 1 0.992309
0.997787 1 0.988998
1 1 0.986877
0.407065 0.765026 1
0.417136 0.764935 1
0.449042 0.764614 1
0.524941 0.763394 1
0.648859 0.758801 1
0.794812 0.742138 1
0.920836 0.687739 1
0.998001 0.53463 1
1 0 1
0.40589 0.765728 1
0.416068 0.765637 1
0.448264 0.765316 1
0.52459 0.764096 1
0.648768 0.759533 1
0.794797 0.742977 1
0.920836 0.688991 1
0.998001 0.538582 1
1 0 1
0.401282 0.768353 1
0.411902 0.768277 1
0.445258 0.767956 1
0.523217 0.766766 1
0.648432 0.762295 1
0.794751 0.74609 1
0.920821 0.693614 1
0.998001 0.552514 1
1 0 1
0.381384 0.777798 1
0.394141 0.777722 1
0.432761 0.777417 1
0.517739 0.776318 1
0.647105 0.772152 1
0.794583 0.757153 1
0.920821 0.70959 1
0.998001 0.593957 1
1 0.308278 1
0.202564 0.807095 1
0.258762 0.807034 1
0.360235 0.80679 1
0.492668 0.805905 1
0.641627 0.802579 1
0.793866 0.790738 1
0.920775 0.755001 1
0.998032 0.68217 1
1 0.609049 1
0 0.871717 1
0 0.871702 1
0 0.871595 1
0 0.871229 1
0.61416 0.869215 1
0.790585 0.86215 1
0.920501 0.8421 1
0.998047 0.807309 1
1 0.782101 1
0.0136416 0.956832 1
0.0136263 0.956832 1
0.013611 0.956786 1
0.0135348 0.956603 1
0.0132753 0.955962 1
0.774731 0.952483 1
0.918853 0.942855 1
0.997848 0.927596 1
1 0.91754 1
0.0394751 1 1
0.0394751 1 1
0.0394598 1 1
0.0394293 1 1
0.039292 1 1
0.719554 1 1
0.913832 1 1
0.996857 1 1
1 0.998642 1
0.0464637 1 1
0.0464637 1 1
0.0464637 1 1
0.0464637 1 1
0.0464637 1 1
0.603845 1 1
0.907118 1 1
0.995346 1 1
1 1 1
