LUT/LogC4/Arri35_LogC4_709_D65_K1S1_v1.cube
TITLE "Generated by Resolve"
LUT_3D_SIZE 5
0 0 0
0.191012 0.00827039 0.0402533
0.965026 0.0511025 0.172274
1 0.724651 0.667521
1 0.998856 0.99852
0.00437934 0.186526 0.0864118
0.320668 0.330739 0.00654612
0.991211 0.0966049 0.157702
0.999985 0.726696 0.669459
1 0.998856 0.99852
0 0.873915 0.319799
0 0.889632 0.329168
0.865034 0.893812 0.0222782
0.999969 0.760037 0.701442
1 0.998871 0.99852
0.878874 1 0.86511
0.879438 1 0.865583
0.888716 0.999985 0.873213
0.991958 0.998734 0.936889
1 0.998978 0.998657
0.999496 1 0.999374
0.999496 1 0.999374
0.999496 1 0.999374
0.999527 1 0.99942
0.999954 1 0.99968
0.00244144 0.045243 0.114641
0.305867 0.019791 0.258686
0.985168 0.0905318 0.291676
0.999985 0.726207 0.670771
1 0.998856 0.99852
0.00500496 0.278721 0.265385
0.330007 0.330007 0.330007
0.999878 0.185428 0.297154
0.999969 0.728252 0.672694
1 0.998856 0.99852
0 0.882704 0.37174
0 0.900008 0.378454
0.865583 0.894362 0.118853
0.999969 0.761532 0.704524
1 0.998871 0.99852
0.879484 1 0.86595
0.880064 1 0.866423
0.889372 0.999985 0.874098
0.992004 0.998718 0.936996
1 0.998978 0.998657
0.999496 1 0.999374
0.999496 1 0.999374
0.999496 1 0.999374
0.999527 1 0.99942
0.999954 1 0.99968
0.00790417 0.357488 0.75964
0.0468757 0.31136 0.907897
0.97293 0.0911116 0.831327
1 0.753796 0.745037
1 0.998856 0.99852
0.00575265 0.38265 0.775845
0.0453193 0.355123 0.899275
0.98027 0.139849 0.839033
1 0.755901 0.746807
1 0.998856 0.99852
0.467384 0.859739 0.826551
0.486198 0.862303 0.830472
0.840116 0.840116 0.840116
0.999939 0.788708 0.774838
1 0.998856 0.99852
0.900404 0.999954 0.893568
0.900938 0.999954 0.894041
0.909285 0.999939 0.901549
0.992676 0.998199 0.937163
1 0.998978 0.998657
0.999496 1 0.999374
0.999496 1 0.999374
0.999496 1 0.99939
0.999527 1 0.99942
0.999954 1 0.99968
0.685954 0.830411 0.999939
0.688807 0.831342 0.999985
0.729946 0.843915 0.999863
1 0.875074 0.951812
1 0.99855 0.998428
0.688014 0.831769 0.999939
0.690852 0.832685 0.999985
0.731685 0.845167 0.999863
1 0.875761 0.952071
1 0.99855 0.998428
0.715023 0.849302 0.999954
0.717632 0.850111 0.999954
0.754803 0.861112 1
1 0.885176 0.955703
1 0.998566 0.998444
0.948333 0.992645 0.987259
0.948531 0.992645 0.987289
0.951354 0.992691 0.987762
0.988922 0.988922 0.988922
1 0.998795 0.998688
0.999588 1 0.999481
0.999588 1 0.999481
0.999573 1 0.999481
0.999557 1 0.999466
0.999969 1 0.99971
0.998016 0.999023 1
0.998032 0.999023 1
0.998047 0.999039 1
0.99823 0.9991 1
1 0.999374 0.999756
0.998032 0.999023 1
0.998032 0.999023 1
0.998047 0.999039 1
0.99823 0.9991 1
1 0.999374 0.999756
0.998032 0.999039 1
0.998047 0.999039 1
0.998062 0.999039 1
0.998245 0.999115 1
1 0.999374 0.999756
0.998215 0.99913 1
0.99823 0.99913 1
0.998245 0.99913 1
0.998398 0.999191 1
1 0.999405 0.999771
0.999527 1 0.999954
0.999527 1 0.999954
0.999527 1 0.999954
0.999542 1 0.999954
1 1 1
