LUT/LogC4/Arri35_LogC4_709_D65_K1S1_v1.cube
TITLE "Generated by Resolve"
LUT_3D_SIZE 33
0 0 0
0 0.000747692 0.000610361
0.000198367 0.00254826 0.00244144
0.00601205 0.00265507 0.00369268
0.0179141 0.00248722 0.00637827
0.0374456 0.00343328 0.011902
0.0703899 0.00514229 0.0197757
0.121157 0.00697337 0.0293126
0.191012 0.00827039 0.0402533
0.277897 0.0101625 0.0527352
0.378042 0.0122225 0.0670481
0.486168 0.0171817 0.0833906
0.595697 0.0228733 0.101106
0.701045 0.0253452 0.119036
0.799756 0.0203098 0.135821
0.890761 0.0138705 0.1514
0.965026 0.0511025 0.172274
0.999603 0.173983 0.212909
1 0.289326 0.26537
1 0.367025 0.316869
0.999878 0.4318 0.370108
0.999893 0.498268 0.430259
0.999939 0.569818 0.500206
0.999985 0.646021 0.580118
1 0.724651 0.667521
1 0.801266 0.756497
1 0.869917 0.838682
1 0.924926 0.905806
1 0.963058 0.953079
1 0.984909 0.980621
1 0.994568 0.992966
1 0.997848 0.997223
1 0.998856 0.99852
0.0009308 0 0.000518807
0.000717174 0.00077821 0.00143435
0.00112917 0.00254826 0.00323491
0.00703441 0.00248722 0.00418097
0.0192264 0.00202945 0.00672923
0.0389715 0.00283818 0.0122835
0.0720226 0.00451667 0.0201114
0.122896 0.00637827 0.0294347
0.192966 0.00788891 0.040116
0.28014 0.00994888 0.052369
0.380468 0.0120546 0.0664988
0.488487 0.0170748 0.0827344
0.597711 0.022446 0.10042
0.702693 0.0248569 0.118379
0.801038 0.0200046 0.135256
0.891707 0.0143282 0.150958
0.965545 0.0525063 0.172091
0.99968 0.175357 0.213001
1 0.289967 0.265507
1 0.36733 0.316991
0.999878 0.431998 0.370214
0.999893 0.498405 0.43035
0.999939 0.569924 0.500282
0.999985 0.646097 0.580179
1 0.724697 0.667567
1 0.801297 0.756527
1 0.869947 0.838697
1 0.924926 0.905806
1 0.963073 0.953079
1 0.984909 0.980621
1 0.994568 0.992966
1 0.997848 0.997223
1 0.998856 0.99852
0.00276188 0.00112917 0.00260929
0.00263981 0.00195315 0.00354009
0.00317388 0.00360113 0.00508125
0.00923171 0.00347906 0.00503548
0.0222782 0.0021973 0.00680552
0.0426032 0.002121 0.0121462
0.0758373 0.00320439 0.0198367
0.126864 0.0047303 0.0289158
0.197314 0.00633249 0.039292
0.284993 0.00849927 0.0513161
0.385428 0.0107118 0.0653391
0.49305 0.0159457 0.0815137
0.601556 0.0209201 0.0991684
0.705745 0.0237736 0.117205
0.803403 0.0196689 0.134218
0.893446 0.0150759 0.150149
0.966476 0.0546731 0.17174
0.999817 0.177737 0.213184
1 0.291127 0.265782
1 0.367864 0.31722
0.999878 0.432349 0.370398
0.999893 0.498665 0.430518
0.999939 0.570108 0.50042
0.999985 0.64622 0.580285
1 0.724788 0.667659
1 0.801358 0.756573
1 0.869978 0.838727
1 0.924941 0.905837
1 0.963073 0.953094
1 0.984909 0.980621
1 0.994568 0.992966
1 0.997848 0.997223
1 0.998856 0.99852
0.00209049 0.00720226 0.0056611
0.00190738 0.00820935 0.00650034
0.00260929 0.0102693 0.0075227
0.00984207 0.0114748 0.00605783
0.0265354 0.00962844 0.00521859
0.0499886 0.00805676 0.00874342
0.0846265 0.00720226 0.0155489
0.136126 0.00662242 0.0242466
0.206897 0.00634775 0.034638
0.294514 0.00671397 0.0470741
0.394156 0.00827039 0.0619364
0.500404 0.0133364 0.078996
0.60734 0.0190433 0.097261
0.710124 0.0229953 0.115633
0.806699 0.019913 0.132876
0.895872 0.0159915 0.14905
0.967788 0.0571603 0.171252
0.999985 0.18085 0.213458
1 0.292729 0.266178
1 0.368612 0.317525
0.999878 0.432807 0.370657
0.999893 0.499001 0.430747
0.999954 0.570352 0.500603
0.999985 0.646403 0.580438
1 0.72491 0.667765
1 0.801434 0.756649
1 0.870008 0.838773
1 0.924971 0.905852
1 0.963088 0.953094
1 0.984924 0.980621
1 0.994568 0.992966
1 0.997848 0.997223
1 0.998856 0.99852
0.00129702 0.0193484 0.0116732
0.000869764 0.0206302 0.0125582
0.00077821 0.0233921 0.01355
0.00666819 0.0273899 0.0112306
0.028397 0.0313878 0.005066
0.0614633 0.0345769 0.00343328
0.102632 0.035523 0.00628672
0.15639 0.0324254 0.0119631
0.226734 0.0256809 0.0208896
0.312551 0.017319 0.0334173
0.409613 0.0117494 0.050782
0.512795 0.011902 0.071397
0.616617 0.0170748 0.0927138
0.716777 0.0225834 0.112932
0.81149 0.0205539 0.130999
0.899306 0.0170443 0.147601
0.969589 0.0601205 0.170642
1 0.184894 0.213886
1 0.294926 0.266728
1 0.36968 0.317968
0.999878 0.433478 0.371023
0.999908 0.499489 0.431052
0.999954 0.570703 0.500862
1 0.646647 0.580636
1 0.725063 0.667918
1 0.801526 0.756756
1 0.870069 0.838834
1 0.925002 0.905882
1 0.963088 0.953109
1 0.984924 0.980636
1 0.994568 0.992966
1 0.997848 0.997223
1 0.998856 0.99852
0.00227359 0.0394141 0.0220645
0.00172427 0.0408179 0.0230411
0.000671397 0.0438392 0.0243381
0.00375372 0.0498817 0.0222629
0.0257877 0.0618601 0.0120394
0.0736706 0.0791028 0.00433356
0.129305 0.0914473 0.00308232
0.187701 0.0941787 0.00444038
0.256062 0.0879835 0.00704967
0.338323 0.071046 0.0128023
0.432334 0.0462196 0.0276188
0.532021 0.0267948 0.0523232
0.631601 0.0209354 0.0803845
0.727565 0.0231632 0.106188
0.819028 0.0205844 0.127337
0.904463 0.0175021 0.145388
0.972229 0.0633249 0.169848
1 0.190097 0.214572
1 0.297978 0.267552
1 0.371221 0.318593
0.999878 0.43444 0.371527
0.999908 0.500175 0.431495
0.999969 0.571206 0.501228
1 0.646983 0.580941
1 0.725292 0.668132
1 0.801678 0.756909
1 0.870146 0.838926
1 0.925032 0.905928
1 0.963104 0.95314
1 0.984924 0.980636
1 0.994568 0.992966
1 0.997848 0.997223
1 0.998856 0.99852
0.00378424 0.0724804 0.0378424
0.0034638 0.0738994 0.0387732
0.00204471 0.0768444 0.0402838
0.00177005 0.0835431 0.0392462
0.0179446 0.100496 0.0280766
0.0738079 0.130129 0.0113375
0.14931 0.157259 0.005066
0.220203 0.169604 0.00497444
0.289357 0.169253 0.00494392
0.366766 0.157549 0.00483711
0.456443 0.130938 0.00962844
0.554513 0.0897993 0.0260929
0.652262 0.0526436 0.0560159
0.744396 0.0336614 0.0898604
0.831418 0.0209812 0.118074
0.91281 0.0160372 0.140566
0.976333 0.0661784 0.168414
1 0.19649 0.215686
1 0.301991 0.268818
1 0.373373 0.319493
0.999863 0.435813 0.372244
0.999908 0.501152 0.43212
0.999985 0.571893 0.501747
1 0.647471 0.581338
1 0.725612 0.668437
0.999985 0.801877 0.757107
1 0.870268 0.839048
1 0.925093 0.905989
1 0.963134 0.953155
1 0.984939 0.980652
1 0.994568 0.992966
1 0.997848 0.997223
1 0.998856 0.99852
0.0037232 0.12166 0.0594339
0.00383001 0.123064 0.0601663
0.00311284 0.125933 0.0617075
0.00134279 0.132662 0.062089
0.00901808 0.150576 0.0531319
0.0555428 0.184161 0.0278782
0.144015 0.220722 0.00952163
0.234958 0.244282 0.00555428
0.31545 0.251759 0.00514229
0.393729 0.246769 0.00453193
0.479179 0.228992 0.00590524
0.573922 0.193164 0.0133364
0.67245 0.138293 0.0314946
0.765835 0.0783551 0.0618753
0.85037 0.0332341 0.0968338
0.926406 0.0167849 0.128557
0.982788 0.0716716 0.164813
1 0.205341 0.217151
1 0.30721 0.27068
1 0.376272 0.320836
0.999832 0.437751 0.373297
0.999908 0.502556 0.433005
0.999985 0.572885 0.50248
1 0.648142 0.581918
0.999985 0.72607 0.668864
0.999985 0.802152 0.757397
1 0.87042 0.839216
1 0.92517 0.906081
1 0.963165 0.953201
1 0.984939 0.980652
1 0.994568 0.992966
1 0.997848 0.997223
1 0.998856 0.99852
0.00437934 0.186526 0.0864118
0.00474556 0.187991 0.0869306
0.00436408 0.191028 0.0883345
0.00202945 0.197681 0.0899825
0.00254826 0.213886 0.0853742
0.0283513 0.244556 0.0602731
0.110063 0.282582 0.0239414
0.219577 0.313878 0.0075227
0.320668 0.330739 0.00654612
0.409964 0.332998 0.0078584
0.497017 0.322744 0.00955215
0.589151 0.298177 0.0139315
0.686809 0.25214 0.0223697
0.784268 0.177813 0.0368811
0.873045 0.0880293 0.0630198
0.945586 0.0399176 0.104128
0.991211 0.0966049 0.157702
1 0.221286 0.218982
1 0.314305 0.273228
0.999954 0.380072 0.322698
0.999802 0.440452 0.374777
0.999893 0.504555 0.434272
0.999985 0.574289 0.503517
1 0.649104 0.582742
0.999985 0.726696 0.669459
0.999969 0.802548 0.757794
1 0.870634 0.83946
1 0.925277 0.906188
1 0.963211 0.953246
1 0.984955 0.980667
1 0.994568 0.992981
1 0.997848 0.997223
1 0.998856 0.99852
0.00753796 0.263691 0.11754
0.00764477 0.265309 0.117922
0.00689708 0.26862 0.119097
0.00453193 0.274922 0.121309
0.00155642 0.288121 0.120974
0.00761425 0.312642 0.10457
0.0573739 0.346944 0.0608072
0.17026 0.380819 0.0199893
0.295201 0.405066 0.00796521
0.404822 0.415564 0.00956741
0.502266 0.412207 0.0134127
0.596887 0.395789 0.0188144
0.694286 0.362783 0.0249332
0.794034 0.302464 0.030457
0.889418 0.208225 0.0384527
0.964401 0.122866 0.074342
0.999023 0.154833 0.15079
1 0.248203 0.222293
1 0.324331 0.276722
0.999786 0.385122 0.3252
0.999786 0.444114 0.376837
0.999893 0.507332 0.436057
1 0.576272 0.504997
1 0.650462 0.583902
0.999969 0.727581 0.670314
0.999969 0.803082 0.758343
1 0.870939 0.83978
1 0.925429 0.906355
1 0.963272 0.953307
1 0.98497 0.980697
1 0.994583 0.992981
1 0.997864 0.997223
1 0.998856 0.99852
0.0101472 0.349111 0.151537
0.00972 0.35079 0.151812
0.00834669 0.354131 0.152667
0.00560006 0.359716 0.15462
0.00167849 0.369818 0.156603
0 0.387854 0.150149
0.0168765 0.415488 0.117464
0.0970321 0.448035 0.0584421
0.233295 0.476143 0.0198672
0.368688 0.493736 0.0113069
0.486091 0.497948 0.0141146
0.590997 0.48838 0.0211032
0.692271 0.464454 0.0264286
0.794415 0.420584 0.0301366
0.893996 0.349203 0.0355535
0.972335 0.271061 0.0685893
1 0.25449 0.157
1 0.291524 0.230854
1 0.340688 0.282383
0.99968 0.392767 0.328771
0.999802 0.44918 0.379644
0.999939 0.511101 0.438499
1 0.579034 0.507088
1 0.652399 0.585565
0.999985 0.728847 0.671504
0.999985 0.803861 0.759136
1 0.871366 0.840238
1 0.925628 0.9066
1 0.963348 0.953414
1 0.985 0.980728
1 0.994583 0.992981
1 0.997864 0.997223
1 0.998856 0.99852
0.00973526 0.439261 0.187396
0.00939956 0.440833 0.187594
0.0090486 0.443824 0.188113
0.00831617 0.448417 0.189395
0.00607309 0.455863 0.191684
0.00123598 0.468437 0.191531
0.000701915 0.488624 0.176181
0.0326238 0.516304 0.128664
0.137804 0.54548 0.0612802
0.291524 0.568002 0.0214847
0.438239 0.579339 0.0127565
0.563897 0.577157 0.017731
0.675807 0.560403 0.0246738
0.7832 0.527153 0.0282444
0.887205 0.474159 0.0361334
0.970336 0.410803 0.0783551
1 0.369543 0.175265
1 0.357076 0.248417
1 0.371069 0.293599
0.99968 0.406806 0.335119
0.999817 0.456947 0.383856
0.999969 0.516304 0.441886
1 0.582818 0.509972
1 0.655085 0.587884
1 0.730632 0.673182
1 0.804944 0.760235
1 0.871977 0.840894
1 0.925917 0.90692
1 0.96347 0.953552
1 0.985031 0.980774
1 0.994583 0.992996
1 0.997864 0.997223
1 0.998856 0.99852
0.00859083 0.530755 0.224231
0.00840772 0.532067 0.224353
0.00851453 0.534508 0.224582
0.00880446 0.538064 0.225193
0.00843824 0.54342 0.226703
0.00587472 0.551965 0.22858
0.00106813 0.565728 0.225025
0.00366217 0.586526 0.20032
0.0462806 0.613123 0.138659
0.172503 0.638849 0.0604257
0.34609 0.656199 0.018616
0.504875 0.661463 0.0115206
0.638224 0.652277 0.016968
0.756619 0.626917 0.0219883
0.867628 0.584573 0.0302281
0.959731 0.530816 0.0757153
1 0.483192 0.186984
1 0.446235 0.273777
1 0.425971 0.31577
0.999741 0.435004 0.348669
0.999741 0.471 0.391592
0.999908 0.524193 0.447028
0.999985 0.588022 0.513985
1 0.658732 0.591073
1 0.733104 0.675532
1 0.806485 0.761791
1 0.872831 0.841825
1 0.926345 0.907378
1 0.963638 0.953735
1 0.985092 0.980835
1 0.994598 0.993011
1 0.997864 0.997223
1 0.998856 0.99852
0.00842298 0.620905 0.261112
0.00836194 0.621912 0.261189
0.00836194 0.623774 0.261295
0.00848402 0.626413 0.261509
0.00851453 0.630228 0.262211
0.00762951 0.635981 0.263828
0.00418097 0.645029 0.264973
0 0.659251 0.25745
0.00331121 0.680049 0.222309
0.0579843 0.705364 0.144121
0.209293 0.727764 0.056199
0.400275 0.740108 0.0165408
0.567987 0.73904 0.0112459
0.70808 0.721965 0.0125582
0.831479 0.687785 0.0189364
0.936782 0.64007 0.0574655
0.996109 0.590921 0.17586
1 0.546197 0.29543
1 0.50721 0.350423
1 0.487175 0.376165
0.99968 0.498558 0.407813
0.999817 0.538186 0.456291
0.999939 0.59585 0.519982
1 0.663737 0.595453
1 0.736461 0.678752
1 0.808606 0.763958
1 0.874037 0.843122
1 0.926925 0.908034
1 0.963867 0.954009
1 0.985153 0.980911
1 0.994614 0.993027
1 0.997864 0.997223
1 0.998856 0.99852
0.00550851 0.708553 0.292912
0.00547799 0.709285 0.292988
0.00544747 0.710643 0.293095
0.00549325 0.71252 0.293217
0.00563058 0.71519 0.293538
0.00564584 0.719066 0.294514
0.00442512 0.72491 0.296559
4.57771e-05 0.734005 0.297322
0 0.748226 0.28603
0.00433356 0.768597 0.240986
0.0764172 0.792309 0.150164
0.247196 0.811337 0.0588998
0.447929 0.818662 0.0183719
0.62356 0.810895 0.00645457
0.770352 0.785763 0.00428778
0.894148 0.744366 0.031632
0.979339 0.694682 0.136004
1 0.646357 0.29337
1 0.600916 0.384955
1 0.564218 0.418982
0.999817 0.548714 0.439734
0.999725 0.565148 0.475059
0.999893 0.609552 0.530541
0.999985 0.671305 0.602014
1 0.741085 0.683207
1 0.81149 0.766918
1 0.8757 0.844907
1 0.927749 0.908949
1 0.964202 0.954391
1 0.98526 0.981033
1 0.994629 0.993042
1 0.997864 0.997223
1 0.998856 0.99852
0.000732433 0.793484 0.310597
0.000762951 0.794003 0.310689
0.000793469 0.794934 0.310872
0.000885023 0.796231 0.311086
0.00108339 0.798047 0.311391
0.00144961 0.800626 0.312108
0.00155642 0.804349 0.313893
4.57771e-05 0.809934 0.317174
0 0.818662 0.318959
0 0.832242 0.30692
0.00361639 0.851606 0.256931
0.0871443 0.873426 0.157748
0.271931 0.888991 0.0570535
0.485893 0.890913 0.00856031
0.670909 0.876143 0
0.822095 0.843656 0.000167849
0.938354 0.796933 0.069276
0.99704 0.74522 0.241398
1 0.695933 0.393744
1 0.652995 0.46331
1 0.62179 0.488029
0.999802 0.612955 0.509987
0.999847 0.635416 0.551034
0.999954 0.684428 0.613458
1 0.748074 0.689967
1 0.815442 0.771038
0.999985 0.877913 0.847318
1 0.928862 0.910185
1 0.964675 0.954925
1 0.985412 0.981201
1 0.994659 0.993072
1 0.997864 0.997223
1 0.998856 0.99852
0 0.873915 0.319799
0 0.874266 0.31989
0 0.874876 0.320073
0 0.875746 0.320287
0 0.876951 0.320577
0 0.87866 0.321019
0 0.881056 0.322057
0 0.884489 0.324559
0 0.889632 0.329168
0 0.897658 0.332891
0 0.910201 0.32195
0 0.927977 0.268864
0.104585 0.946761 0.16318
0.319051 0.956649 0.0649119
0.541726 0.951782 0.0261234
0.720699 0.931167 0.00920119
0.865034 0.893812 0.0222782
0.964965 0.843549 0.140322
1 0.790234 0.348638
1 0.74287 0.483436
1 0.705272 0.538369
1 0.681346 0.560906
0.999863 0.68011 0.58735
0.999908 0.708492 0.634592
0.999969 0.760037 0.701442
1 0.821408 0.777234
1 0.880949 0.850645
1 0.930327 0.911849
1 0.965286 0.955627
1 0.985611 0.981445
1 0.994705 0.993133
1 0.997879 0.997238
1 0.998871 0.99852
0.01944 0.944549 0.339513
0.0195926 0.944762 0.339635
0.019852 0.945129 0.339864
0.0201724 0.945632 0.340169
0.0204929 0.946349 0.340551
0.0208286 0.947341 0.341085
0.0213626 0.948745 0.341894
0.0234684 0.950698 0.343511
0.0267185 0.953521 0.347051
0.0276036 0.957732 0.353323
0.0258335 0.964355 0.359014
0.0376745 0.974304 0.350301
0.10692 0.98645 0.306691
0.27451 0.995071 0.245319
0.473945 0.99585 0.214832
0.639277 0.9888 0.177508
0.781048 0.969268 0.117082
0.902846 0.932784 0.113283
0.979477 0.882689 0.262287
1 0.831189 0.457969
1 0.78883 0.568811
1 0.758251 0.614023
1 0.742382 0.638209
0.999908 0.748638 0.670207
0.999939 0.781186 0.721584
0.999985 0.831418 0.787488
1 0.885496 0.855619
1 0.932342 0.914122
1 0.966094 0.956573
1 0.98587 0.98175
1 0.994766 0.993194
1 0.997879 0.997238
1 0.998871 0.998535
0.192981 0.990906 0.401282
0.193698 0.990967 0.401526
0.194949 0.991073 0.401968
0.196643 0.991226 0.402579
0.19881 0.991424 0.403403
0.201617 0.991699 0.404517
0.205386 0.992096 0.406073
0.211398 0.99263 0.408362
0.220264 0.993378 0.412161
0.23061 0.994446 0.41886
0.242863 0.996124 0.429557
0.267781 0.998566 0.442222
0.326024 1 0.45034
0.423255 1 0.452781
0.538659 1 0.460075
0.647883 1 0.455772
0.748455 1 0.406409
0.846326 0.989044 0.312322
0.935866 0.959487 0.280812
0.988083 0.914382 0.421546
1 0.868711 0.571862
1 0.833432 0.652979
1 0.81062 0.690974
1 0.802701 0.717952
0.999939 0.81503 0.753689
0.999954 0.848524 0.804852
0.999985 0.893004 0.863706
1 0.935332 0.91751
1 0.967163 0.957839
1 0.986191 0.982132
1 0.994827 0.993271
1 0.997894 0.997253
1 0.998871 0.998535
0.470237 1 0.530083
0.470756 1 0.530358
0.471717 1 0.530846
0.47306 1 0.531518
0.474861 1 0.532479
0.477272 1 0.533791
0.480598 1 0.535622
0.485435 1 0.538186
0.492271 1 0.541909
0.501122 1 0.547738
0.512154 1 0.557076
0.528252 1 0.570886
0.555367 1 0.58854
0.598856 1 0.609171
0.656321 1 0.634165
0.719234 1 0.657572
0.780911 1 0.659037
0.840391 1 0.614496
0.901457 0.997436 0.535637
0.959121 0.976242 0.500114
0.992035 0.939361 0.586831
1 0.902281 0.677195
1 0.87509 0.733379
1 0.859907 0.766735
1 0.858808 0.795178
0.999954 0.874723 0.831205
0.999969 0.905364 0.876753
0.999985 0.940185 0.922911
1 0.96878 0.959747
1 0.986603 0.982651
1 0.994888 0.993362
1 0.997909 0.997269
1 0.998886 0.99855
0.67718 1 0.676493
0.677424 1 0.676677
0.677882 1 0.677012
0.678523 1 0.677485
0.679393 1 0.678157
0.680598 1 0.679072
0.682292 1 0.680369
0.684703 1 0.682155
0.688136 1 0.684657
0.692805 1 0.688243
0.698695 1 0.693507
0.706218 1 0.700938
0.717052 1 0.711254
0.734112 1 0.725505
0.759472 1 0.744961
0.791821 1 0.768139
0.826017 1 0.786679
0.860609 1 0.788235
0.896666 1 0.760861
0.934752 1 0.712459
0.971283 0.985763 0.686503
0.994247 0.958785 0.712627
1 0.931075 0.763745
1 0.911635 0.8056
1 0.903136 0.835538
1 0.906966 0.863005
0.999969 0.92343 0.895399
0.999969 0.947967 0.93135
0.999985 0.971389 0.962768
1 0.987243 0.983444
1 0.99498 0.993469
1 0.997909 0.997284
1 0.998901 0.99855
0.785183 1 0.772335
0.785275 1 0.772412
0.785428 1 0.772534
0.785626 1 0.772717
0.785916 1 0.772961
0.786313 1 0.773312
0.786862 1 0.773816
0.787671 1 0.774487
0.788846 1 0.775433
0.790494 1 0.776715
0.792523 1 0.778378
0.794675 0.999969 0.780362
0.797253 0.999908 0.782986
0.801434 0.999847 0.787091
0.808957 0.999802 0.793729
0.821469 0.999802 0.80383
0.839704 1 0.817044
0.862928 1 0.830488
0.889998 1 0.837644
0.91986 1 0.831739
0.950851 1 0.812085
0.978714 0.99202 0.789425
0.995895 0.973709 0.796078
1 0.954009 0.833463
1 0.941268 0.867155
1 0.938094 0.892668
1 0.944579 0.916899
0.999985 0.958785 0.942901
0.999985 0.975464 0.967346
1 0.988312 0.984741
1 0.995132 0.993683
1 0.997925 0.997284
1 0.998901 0.998566
0.823011 0.999908 0.809705
0.823026 0.999908 0.80972
0.823072 0.999908 0.80975
0.823117 0.999908 0.809796
0.823194 0.999908 0.809857
0.823301 0.999908 0.809934
0.823438 0.999908 0.810056
0.823651 0.999908 0.810208
0.823957 0.999924 0.810437
0.82443 0.999924 0.810742
0.825071 0.999939 0.811139
0.825818 0.999954 0.811582
0.826734 0.999954 0.812207
0.828168 0.999954 0.813275
0.830884 0.999924 0.815305
0.836255 0.999863 0.819226
0.846189 0.999832 0.826246
0.862119 0.999924 0.837079
0.883314 1 0.850401
0.908064 1 0.862516
0.934691 1 0.867903
0.961181 1 0.861997
0.98381 0.996078 0.850416
0.996902 0.98378 0.86183
1 0.970703 0.890654
1 0.963623 0.915572
1 0.96405 0.936248
1 0.970794 0.955535
0.999985 0.98085 0.973266
0.999985 0.98996 0.986633
1 0.995438 0.994049
1 0.99794 0.99733
1 0.998901 0.998566
0.848707 0.999969 0.835065
0.848722 0.999969 0.835065
0.848753 0.999969 0.835096
0.848783 0.999969 0.835126
0.848844 0.999969 0.835157
0.848905 0.999969 0.835203
0.849012 0.999969 0.835279
0.849149 0.999969 0.835386
0.849348 0.999969 0.835523
0.849653 0.999985 0.835737
0.850095 0.999985 0.836042
0.850721 0.999985 0.836469
0.851591 1 0.837049
0.852811 1 0.837903
0.854643 1 0.839231
0.857694 0.999969 0.841428
0.863142 0.999924 0.845319
0.872633 0.999863 0.851942
0.887114 0.999908 0.861936
0.905776 1 0.874601
0.926955 1 0.887419
0.949126 1 0.896345
0.97055 1 0.899245
0.987976 0.997848 0.901152
0.997559 0.990066 0.912123
1 0.982361 0.931609
1 0.979324 0.950378
1 0.981353 0.966262
1 0.986542 0.979339
1 0.992081 0.988952
1 0.995941 0.994614
1 0.998032 0.997436
1 0.998932 0.998596
0.878874 1 0.86511
0.878889 1 0.865125
0.87892 1 0.865141
0.87895 1 0.865171
0.878996 1 0.865202
0.879057 1 0.865263
0.879149 1 0.865339
0.879271 1 0.865431
0.879438 1 0.865583
0.879683 1 0.865797
0.880049 1 0.866087
0.880568 1 0.866514
0.881285 1 0.867109
0.882292 1 0.867933
0.88368 1 0.869078
0.885649 1 0.87071
0.888716 0.999985 0.873213
0.893797 0.999954 0.877165
0.902083 0.999908 0.883314
0.914214 0.999908 0.892149
0.929427 1 0.903258
0.946365 1 0.915038
0.963714 1 0.925277
0.979751 1 0.932418
0.991958 0.998734 0.936889
0.998322 0.994156 0.944793
1 0.990158 0.959533
1 0.98941 0.973663
1 0.991394 0.984237
1 0.994278 0.991257
1 0.996674 0.995377
1 0.99823 0.997635
1 0.998978 0.998657
0.910796 1 0.898299
0.910811 1 0.898299
0.910826 1 0.898314
0.910842 1 0.898344
0.910872 1 0.89836
0.910918 1 0.898405
0.910979 1 0.898466
0.91107 1 0.898543
0.911192 1 0.89865
0.91136 1 0.898817
0.911604 1 0.899031
0.91194 1 0.899351
0.912413 1 0.899794
0.913085 1 0.900404
0.914 1 0.901259
0.915267 1 0.902449
0.917037 1 0.904128
0.919738 1 0.906569
0.924041 0.999969 0.910277
0.930831 0.999939 0.915785
0.940475 0.999939 0.923476
0.952255 1 0.933043
0.964981 1 0.943404
0.977386 1 0.952789
0.987991 1 0.958831
0.995163 0.999268 0.960845
0.99884 0.996811 0.967163
1 0.995041 0.978515
1 0.995102 0.98764
1 0.996262 0.993164
1 0.997528 0.996231
1 0.99855 0.997971
1 0.9991 0.998795
0.940627 1 0.930785
0.940627 1 0.930785
0.940642 1 0.9308
0.940658 1 0.930816
0.940673 1 0.930831
0.940703 1 0.930861
0.940734 1 0.930907
0.94078 1 0.930953
0.940856 1 0.931029
0.940963 1 0.931121
0.9411 1 0.931273
0.941299 1 0.931472
0.941588 1 0.931746
0.941985 1 0.932158
0.942535 1 0.932708
0.943297 1 0.933486
0.944335 1 0.934569
0.945815 1 0.93611
0.948028 1 0.938338
0.951476 0.999985 0.941604
0.956725 0.999954 0.946334
0.963836 0.999954 0.952682
0.972168 1 0.960357
0.980652 1 0.968353
0.988144 1 0.974533
0.993469 1 0.976303
0.996933 0.999588 0.976989
0.999161 0.998413 0.983124
0.999969 0.997726 0.990158
1 0.997879 0.99469
1 0.998413 0.997147
1 0.998978 0.998459
1 0.999298 0.999023
0.965743 1 0.959304
0.965743 1 0.959304
0.965743 1 0.959304
0.965759 1 0.959319
0.965774 1 0.959335
0.965789 1 0.95935
0.965805 1 0.959365
0.965835 1 0.959396
0.965866 1 0.959442
