LUT/LogC4/Arri35_LogC4_LogC3_D65_v1.cube
TITLE "Generated by Resolve"
LUT_3D_SIZE 33
0 0 0
0 0 0
0.0133669 0 0
0.0882124 0 0
0.184009 0 0
0.250706 0 0
0.30312 0 0
0.349203 0 0
0.391714 0 0
0.432029 0 0
0.470878 0 0
0.508736 0 0
0.545861 0 0
0.582437 0 0
0.61854 0 0
0.6542 0 0
0.689418 0 0
0.724117 0 0
0.75819 0 0
0.79147 0 0
0.823728 0 0
0.854673 0 0
0.884001 0 0
0.911315 0 0
0.936233 0 0
0.95848 0 0
0.977783 0 0
0.994125 0 0
1 0 0
1 0 0
1 0 0
1 0 0
1 0 0
0 0 0
0 0 0
0.0146944 0 0
0.0875715 0 0
0.181643 0 0
0.249058 0 0
0.302129 0 0
0.348562 0 0
0.391287 0 0
0.431724 0 0
0.47068 0 0
0.508598 0 0
0.545769 0 0
0.582361 0 0
0.618479 0 0
0.654169 0 0
0.689387 0 0
0.724102 0 0
0.758175 0 0
0.791455 0 0
0.823713 0 0
0.854673 0 0
0.884001 0 0
0.911299 0 0
0.936233 0 0
0.958465 0 0
0.977783 0 0
0.99411 0 0
1 0 0
1 0 0
1 0 0
1 0 0
1 0 0
0 0.0210269 0
0 0.0143587 0
0.0226291 0.00190738 0
0.0955215 0 0
0.185382 0 0
0.249653 0 0
0.301656 0 0
0.347646 0 0
0.390677 0 0
0.431312 0 0
0.47039 0 0
0.508385 0 0
0.545617 0 0
0.582269 0 0
0.618418 0 0
0.654108 0 0
0.689357 0 0
0.724071 0 0
0.75816 0 0
0.79144 0 0
0.823697 0 0
0.854673 0 0
0.883986 0 0
0.911299 0 0
0.936233 0 0
0.958465 0 0
0.977783 0 0
0.99411 0 0
1 0 0
1 0 0
1 0 0
1 0 0
1 0 0
0 0.106447 0
0 0.100938 0
0.0335241 0.0884718 0
0.106477 0.0710307 0
0.189654 0.0466773 0
0.251057 0.0127108 0
0.302281 0 0
0.347967 0 0
0.390326 0 0
0.430732 0 0
0.469978 0 0
0.50811 0 0
0.545419 0 0
0.582116 0 0
0.618311 0 0
0.654047 0 0
0.689296 0 0
0.724025 0 0
0.758129 0 0
0.791424 0 0
0.823682 0 0
0.854658 0 0
0.883986 0 0
0.911299 0 0
0.936217 0 0
0.958465 0 0
0.977783 0 0
0.99411 0 0
1 0 0
1 0 0
1 0 0
1 0 0
1 0 0
0 0.20235 0
0 0.200412 0
0.0484016 0.193515 0
0.121355 0.182605 0
0.193515 0.165118 0
0.252399 0.133761 0
0.302953 0.0862898 0
0.348379 0.0200198 0
0.390585 0 0
0.430747 0 0
0.469505 0 0
0.507713 0 0
0.545144 0 0
0.581918 0 0
0.618173 0 0
0.653941 0 0
0.689219 0 0
0.72398 0 0
0.758083 0 0
0.791394 0 0
0.823667 0 0
0.854643 0 0
0.88397 0 0
0.911284 0 0
0.936217 0 0
0.958465 0 0
0.977783 0 0
0.99411 0 0
1 0 0
1 0 0
1 0 0
1 0 0
1 0 0
0.0390326 0.261234 0
0.038056 0.26009 0
0.0691691 0.257359 0
0.142123 0.252369 0
0.196124 0.244984 0
0.253468 0.233722 0
0.303548 0.215732 0
0.348745 0.184176 0
0.390845 0.114549 0
0.430945 0 0
0.469657 0 0
0.507424 0 0
0.544747 0 0
0.581643 0 0
0.617975 0 0
0.653803 0 0
0.689128 0 0
0.723903 0 0
0.758038 0 0
0.791348 0 0
0.823636 0 0
0.854612 0 0
0.883955 0 0
0.911269 0 0
0.936217 0 0
0.95845 0 0
0.977783 0 0
0.994095 0 0
1 0 0
1 0 0
1 0 0
1 0 0
1 0 0
0.0939803 0.311208 0
0.0930037 0.310491 0
0.0981765 0.309361 0
0.167514 0.306477 0
0.196841 0.302327 0
0.253437 0.296254 0
0.303838 0.287205 0
0.349035 0.273243 0
0.391073 0.25034 0
0.431113 0.20798 0
0.46981 0.0952468 0
0.507546 0 0
0.544579 0 0
0.581247 0 0
0.617685 0 0
0.65359 0 0
0.688975 0 0
0.723796 0 0
0.757961 0 0
0.791302 0 0
0.823606 0 0
0.854582 0 0
0.883925 0 0
0.911254 0 0
0.936202 0 0
0.958434 0 0
0.977768 0 0
0.994079 0 0
1 0 0
1 0 0
1 0 0
1 0 0
1 0 0
0.167788 0.356161 0
0.167117 0.355703 0
0.166171 0.355032 0
0.185351 0.353567 0
0.193942 0.350988 0
0.250416 0.347265 0
0.303212 0.341878 0
0.34902 0.333913 0
0.391226 0.321813 0
0.431281 0.302525 0
0.469947 0.268956 0
0.507668 0.196597 0
0.544686 0 0
0.58117 0 0
0.617304 0 0
0.653315 0 0
0.688777 0 0
0.723659 0 0
0.757855 0 0
0.791211 0 0
0.823545 0 0
0.854551 0 0
0.883894 0 0
0.911223 0 0
0.936172 0 0
0.958419 0 0
0.977752 0 0
0.994079 0 0
1 0 0
1 0 0
1 0 0
1 0 0
1 0 0
0.192416 0.398077 0
0.192462 0.397757 0
0.192523 0.397314 0
0.192584 0.396689 0
0.184726 0.395041 0
0.239628 0.39263 0
0.300221 0.389166 0
0.34815 0.384176 0
0.391043 0.376837 0
0.431327 0.365774 0
0.470069 0.348424 0
0.507774 0.319127 0
0.544793 0.260914 0
0.581262 0.020676 0
0.617288 0 0
0.652918 0 0
0.688502 0 0
0.723445 0 0
0.757702 0 0
0.791104 0 0
0.823468 0 0
0.85449 0 0
0.883848 0 0
0.911192 0 0
0.936141 0 0
0.958389 0 0
0.977722 0 0
0.994064 0 0
1 0 0
1 0 0
1 0 0
1 0 0
1 0 0
0.166293 0.438025 0
0.166537 0.437812 0
0.166888 0.437507 0
0.167391 0.437079 0
0.165347 0.436316 0
0.211933 0.434699 0
0.291493 0.432395 0
0.345266 0.429114 0
0.390082 0.424369 0
0.431083 0.417411 0
0.470069 0.407004 0
0.507866 0.390829 0
0.5449 0.363989 0
0.581369 0.312978 0
0.61738 0.155932 0
0.652964 0 0
0.688106 0 0
0.723171 0 0
0.757504 0 0
0.790967 0 0
0.823346 0 0
0.854398 0 0
0.883787 0 0
0.911147 0 0
0.93611 0 0
0.958373 0 0
0.977707 0 0
0.994049 0 0
1 0 0
1 0 0
1 0 0
1 0 0
1 0 0
0.139437 0.476661 0
0.139513 0.476509 0
0.139635 0.476295 0
0.139773 0.47599 0
0.139986 0.475578 0
0.167956 0.474708 0
0.267384 0.473136 0
0.337606 0.470909 0
0.387289 0.467735 0
0.43006 0.463142 0
0.469764 0.456458 0
0.507836 0.446464 0
0.544961 0.431067 0
0.58146 0.405814 0
0.617456 0.359182 0
0.65304 0.234043 0
0.688182 0 0
0.722805 0 0
0.757214 0 0
0.790753 0 0
0.823194 0 0
0.854276 0 0
0.883696 0 0
0.91107 0 0
0.936049 0 0
0.958328 0 0
0.977661 0 0
0.994003 0 0
1 0 0
1 0 0
1 0 0
1 0 0
1 0 0
0.126772 0.514366 0
0.126802 0.51426 0
0.126848 0.514107 0
0.126909 0.513909 0
0.127001 0.513603 0
0.127123 0.513191 0
0.200259 0.512261 0
0.317815 0.510719 0
0.380255 0.508537 0
0.427329 0.505425 0
0.468727 0.500954 0
0.5075 0.494438 0
0.544915 0.484749 0
0.581506 0.469886 0
0.617548 0.445777 0
0.653132 0.402152 0
0.688258 0.294347 0
0.722896 0 0
0.756893 0 0
0.790448 0 0
0.82298 0 0
0.854124 0 0
0.883574 0 0
0.910979 0 0
0.935973 0 0
0.958267 0 0
0.977615 0 0
0.993957 0 0
1 0 0
1 0 0
1 0 0
1 0 0
1 0 0
0.119677 0.5514 0
0.119692 0.551324 0
0.119707 0.551217 0
0.119738 0.551064 0
0.119768 0.550866 0
0.119829 0.550561 0
0.119905 0.550164 0
0.256275 0.549172 0
0.362844 0.547646 0
0.420722 0.545495 0
0.466041 0.542443 0
0.506447 0.538048 0
0.544549 0.531655 0
0.581445 0.522179 0
0.617594 0.507729 0
0.653208 0.48452 0
0.68835 0.443259 0
0.722972 0.347356 0
0.75697 0 0
0.790173 0 0
0.822675 0 0
0.853895 0 0
0.883406 0 0
0.910842 0 0
0.935882 0 0
0.958175 0 0
0.977539 0 0
0.993912 0 0
1 0 0
1 0 0
1 0 0
1 0 0
1 0 0
0.115328 0.5879 0
0.115328 0.587839 0
0.115343 0.587762 0
0.115358 0.587671 0
0.115373 0.587518 0
0.115404 0.587304 0
0.115434 0.587015 0
0.11548 0.586618 0
0.312779 0.58558 0
0.404791 0.58407 0
0.459724 0.581949 0
0.503822 0.578912 0
0.543496 0.574578 0
0.581064 0.568276 0
0.617517 0.558999 0
0.653239 0.5449 0
0.688426 0.522454 0
0.723049 0.483314 0
0.757046 0.397086 0
0.790249 0 0
0.822446 0 0
0.853574 0 0
0.883162 0 0
0.910658 0 0
0.935729 0 0
0.958053 0 0
0.977447 0 0
0.99382 0 0
1 0 0
1 0 0
1 0 0
1 0 0
1 0 0
0.112505 0.623957 0
0.11252 0.623911 0
0.11252 0.623865 0
0.11252 0.623789 0
0.112535 0.623682 0
0.112551 0.623529 0
0.112566 0.623316 0
0.112596 0.623041 0
0.115679 0.622629 0
0.361181 0.621561 0
0.444831 0.620066 0
0.497719 0.617945 0
0.540902 0.614939 0
0.580011 0.610636 0
0.617136 0.604425 0
0.653162 0.5953 0
0.688457 0.581521 0
0.72311 0.559853 0
0.757122 0.52282 0
0.790326 0.445533 0
0.822522 0 0
0.853407 0 0
0.882826 0 0
0.910399 0 0
0.935515 0 0
0.957885 0 0
0.97731 0 0
0.993698 0 0
1 0 0
1 0 0
1 0 0
1 0 0
1 0 0
0.110628 0.659586 0
0.110643 0.659556 0
0.110643 0.659525 0
0.110643 0.659464 0
0.110643 0.659388 0
0.110658 0.659281 0
0.110674 0.659129 0
0.110689 0.65893 0
0.110704 0.65864 0
0.145022 0.658198 0
0.405447 0.65713 0
0.483619 0.655634 0
0.535012 0.653529 0
0.577478 0.650538 0
0.616083 0.646265 0
0.652766 0.640116 0
0.68835 0.631144 0
0.72314 0.617731 0
0.757183 0.596887 0
0.790402 0.562142 0
0.822583 0.493736 0
0.853483 0 0
0.882734 0 0
0.910048 0 0
0.935241 0 0
0.957656 0 0
0.977111 0 0
0.99353 0 0
1 0 0
1 0 0
1 0 0
1 0 0
1 0 0
0.109361 0.694774 0
0.109361 0.694759 0
0.109361 0.694728 0
0.109361 0.694682 0
0.109361 0.694636 0
0.109377 0.69456 0
0.109377 0.694453 0
0.109377 0.694301 0
0.109392 0.694087 0
0.109407 0.693797 0
0.195193 0.693339 0
0.447456 0.692271 0
0.521599 0.690776 0
0.571771 0.688655 0
0.613596 0.685679 0
0.651728 0.681437 0
0.687968 0.675364 0
0.723049 0.666545 0
0.757214 0.653529 0
0.790463 0.633661 0
0.82266 0.601526 0
0.853559 0.54226 0
0.882811 0.357794 0
0.910063 0 0
0.934951 0 0
0.957351 0 0
0.976852 0 0
0.993317 0 0
1 0 0
1 0 0
1 0 0
1 0 0
1 0 0
0.108476 0.729458 0
0.108476 0.729442 0
0.108476 0.729427 0
0.108476 0.729397 0
0.108476 0.729351 0
0.108476 0.729305 0
0.108476 0.729229 0
0.108492 0.729122 0
0.108492 0.728969 0
0.108507 0.728756 0
0.108522 0.728466 0
0.276905 0.727962 0
0.488182 0.726894 0
0.55903 0.725383 0
0.608103 0.723262 0
0.649317 0.720287 0
0.686946 0.716075 0
0.722652 0.710079 0
0.757107 0.701457 0
0.790478 0.68893 0
0.822721 0.670222 0
0.85362 0.641062 0
0.882887 0.591134 0
0.91014 0.477485 0
0.935027 0 0
0.957198 0 0
0.976501 0 0
0.992996 0 0
1 0 0
1 0 0
1 0 0
1 0 0
1 0 0
0.107851 0.763516 0
0.107851 0.7635 0
0.107851 0.763485 0
0.107851 0.76347 0
0.107851 0.763439 0
0.107851 0.763409 0
0.107866 0.763348 0
0.107866 0.763272 0
0.107866 0.763165 0
0.107881 0.762997 0
0.107881 0.762783 0
0.107897 0.762493 0
0.353841 0.761959 0
0.528252 0.760876 0
0.596094 0.759365 0
0.644068 0.757229 0
0.684611 0.754253 0
0.721645 0.750057 0
0.75671 0.744152 0
0.790372 0.73579 0
0.822736 0.723842 0
0.853681 0.706523 0
0.882948 0.680735 0
0.910216 0.640085 0
0.935088 0.565957 0
0.957275 0.193637 0
0.976562 0 0
0.992844 0 0
1 0 0
1 0 0
1 0 0
1 0 0
1 0 0
0.107424 0.79678 0
0.107424 0.79678 0
0.107424 0.796765 0
0.107424 0.79675 0
0.107424 0.796735 0
0.107424 0.796704 0
0.107424 0.796658 0
0.107424 0.796597 0
0.107424 0.796521 0
0.107439 0.796414 0
0.107439 0.796246 0
0.107454 0.796033 0
0.107454 0.795727 0
0.419806 0.795163 0
0.568078 0.794049 0
0.632868 0.792523 0
0.679667 0.790372 0
0.719417 0.787396 0
0.755749 0.78323 0
0.78999 0.777447 0
0.822614 0.76939 0
0.853697 0.75816 0
0.883009 0.742489 0
0.910277 0.720378 0
0.935164 0.688472 0
0.957351 0.639811 0
0.976623 0.552285 0
0.99292 0 0
1 0 0
1 0 0
1 0 0
1 0 0
1 0 0
0.107103 0.829038 0
0.107103 0.829038 0
0.107118 0.829023 0
0.107118 0.829007 0
0.107118 0.828992 0
0.107118 0.828977 0
0.107118 0.828946 0
0.107118 0.828901 0
0.107118 0.82884 0
0.107118 0.828763 0
0.107118 0.828641 0
0.107134 0.828489 0
0.107134 0.82826 0
0.107149 0.827939 0
0.480873 0.827314 0
0.607889 0.826185 0
0.669429 0.824628 0
0.714839 0.822461 0
0.753643 0.819471 0
0.789059 0.815351 0
0.822248 0.809705 0
0.853559 0.802029 0
0.883009 0.791699 0
0.910323 0.777874 0
0.935225 0.759564 0
0.957412 0.7355 0
0.976684 0.703868 0
0.992981 0.661555 0
1 0.601495 0
1 0.496971 0
1 0 0
1 0 0
1 0 0
0.106889 0.859983 0
0.106889 0.859983 0
0.106889 0.859983 0
0.106889 0.859968 0
0.106889 0.859953 0
0.106889 0.859937 0
0.106889 0.859922 0
0.106889 0.859892 0
0.106889 0.859846 0
0.106905 0.859785 0
0.106905 0.859693 0
0.106905 0.859571 0
0.106905 0.859403 0
0.10692 0.859174 0
0.106935 0.858854 0
0.539147 0.858152 0
0.647761 0.856992 0
0.705715 0.85539 0
0.749493 0.853178 0
0.787121 0.850187 0
0.821363 0.846113 0
0.853193 0.840665 0
0.882872 0.833478 0
0.910307 0.824155 0
0.935256 0.812345 0
0.957473 0.797757 0
0.976745 0.78027 0
0.993042 0.759991 0
1 0.73727 0
1 0.712688 0
1 0.686946 0
1 0.671534 0
1 0.657938 0
0.106737 0.889311 0
0.106737 0.889296 0
0.106737 0.889296 0
0.106737 0.889296 0
0.106737 0.889281 0
0.106737 0.889265 0
0.106737 0.88925 0
0.106737 0.889235 0
0.106737 0.889189 0
0.106737 0.889143 0
0.106737 0.889082 0
0.106752 0.888991 0
0.106752 0.888869 0
0.106752 0.888685 0
0.106767 0.888441 0
0.106767 0.88809 0
0.595239 0.887297 0
0.687602 0.886091 0
0.741619 0.884443 0
0.783459 0.8822 0
0.819623 0.879179 0
0.852384 0.875181 0
0.882506 0.869993 0
0.91017 0.863371 0
0.935225 0.855192 0
0.957488 0.845426 0
0.976791 0.834226 0
0.993103 0.821958 0
1 0.80914 0
1 0.796414 0
1 0.78439 0
1 0.777417 0
1 0.772183 0
0.10663 0.916609 0
0.10663 0.916609 0
0.10663 0.916609 0
0.10663 0.916609 0
0.10663 0.916594 0
0.10663 0.916594 0
0.10663 0.916579 0
0.10663 0.916548 0
0.10663 0.916533 0
0.10663 0.916487 0
0.10663 0.916442 0
0.10663 0.916365 0
0.10663 0.916274 0
0.106645 0.916136 0
0.106645 0.915938 0
0.106661 0.915679 0
0.106661 0.915312 0
0.649012 0.914382 0
0.727123 0.913115 0
0.776944 0.911406 0
0.81651 0.909102 0
0.850858 0.906096 0
0.881773 0.90219 0
0.909819 0.897307 0
0.935073 0.89134 0
0.957443 0.884382 0
0.976791 0.876585 0
0.993133 0.868284 0
1 0.859907 0
1 0.851865 0
1 0.844572 0
1 0.840085 0
1 0.837125 0
0.106554 0.941543 0
0.106554 0.941543 0
0.106554 0.941543 0
0.106554 0.941543 0
0.106554 0.941527 0
0.106554 0.941527 0
0.106554 0.941512 0
0.106554 0.941497 0
0.106554 0.941482 0
0.106554 0.941451 0
0.106554 0.941405 0
0.106554 0.941344 0
0.106554 0.941268 0
0.106554 0.941161 0
0.106569 0.941009 0
0.106569 0.94081 0
0.106584 0.94052 0
0.532403 0.940017 0
0.700038 0.939025 0
0.765911 0.937667 0
0.811353 0.935882 0
0.848325 0.933532 0
0.880491 0.93051 0
0.909163 0.926757 0
0.934752 0.92224 0
0.95729 0.917006 0
0.97673 0.911254 0
0.993118 0.905226 0
1 0.89926 0
1 0.893645 0
1 0.888624 0
1 0.885283 0
1 0.88333 0
0.106493 0.963775 0
0.106493 0.963775 0
0.106493 0.963775 0
0.106493 0.963775 0
0.106493 0.96376 0
0.106493 0.96376 0
0.106493 0.963745 0
0.106493 0.963745 0
0.106493 0.963714 0
0.106493 0.963699 0
0.106493 0.963668 0
0.106493 0.963623 0
0.106493 0.963561 0
0.106493 0.96347 0
0.106508 0.963348 0
0.106508 0.96318 0
0.106508 0.962936 0
0.106523 0.962615 0
0.643626 0.961944 0
0.747814 0.960845 0
0.803418 0.959411 0
0.84445 0.957519 0
0.878508 0.955108 0
0.908125 0.952117 0
0.934188 0.948562 0
0.956985 0.944472 0
0.976562 0.940002 0
0.993027 0.935393 0
1 0.930861 0
1 0.92665 0
1 0.922942 0
1 0.920211 0
1 0.918791 0
0.106447 0.983093 0
0.106447 0.983093 0
0.106447 0.983093 0
0.106447 0.983078 0
0.106447 0.983078 0
0.106447 0.983078 0
0.106447 0.983063 0
0.106447 0.983063 0
0.106447 0.983047 0
0.106447 0.983032 0
0.106447 0.983001 0
0.106447 0.982956 0
0.106462 0.98291 0
0.106462 0.982834 0
0.106462 0.982727 0
0.106462 0.982589 0
0.106462 0.982391 0
0.106477 0.982132 0
0.391043 0.98175 0
0.718151 0.980835 0
0.791913 0.979644 0
0.839048 0.978073 0
0.875746 0.976089 0
0.906645 0.973632 0
0.933379 0.970718 0
0.956512 0.967391 0
0.976303 0.963775 0
0.992859 0.960082 0
1 0.956466 0
1 0.95314 0
1 0.950225 0
1 0.94786 0
1 0.946761 0
0.106416 0.99942 0
0.106416 0.99942 0
0.106416 0.99942 0
0.106416 0.999405 0
0.106416 0.999405 0
0.106416 0.999405 0
0.106416 0.999405 0
0.106416 0.99939 0
0.106416 0.999374 0
